; generated by PrusaSlicer 2.4.0+linux-x64 on 2022-01-31 at 06:20:22 UTC


;
;

;
;
; TODO: check the size of the extruder and the y-bar clearance. Optimize & test supports.

; external perimeters extrusion width = 0.42mm
; perimeters extrusion width = 0.44mm
; infill extrusion width = 0.44mm
; solid infill extrusion width = 0.44mm
; top infill extrusion width = 0.44mm
; first layer extrusion width = 0.56mm

M107
M190 S55 ; set bed temperature and wait for it to be reached
M104 S215 ; set temperature
;TYPE:Custom
; M190 S0
; M109 S0 ; uncomment to remove set&wait temp gcode added automatically after this start gcode
print_start EXTRUDER=215 BED=55
M109 S215 ; set temperature and wait for it to be reached
G21 ; set units to millimeters
G90 ; use absolute coordinates
M83 ; use relative distances for extrusion
M107
;LAYER_CHANGE
;Z:0.2
;HEIGHT:0.2
;BEFORE_LAYER_CHANGE
;0.2


G1 Z.2 F18000
;AFTER_LAYER_CHANGE
;0.2
G1 E-2 F3000
G1 Z.6 F18000
G1 X93.132 Y89.553
G1 Z.2
G1 E2 F1800
M204 S1000
;TYPE:Skirt/Brim
;WIDTH:0.56
G1 X94.088 Y88.693 E.05528
G1 X95.218 Y87.864 E.06025
G1 X96.324 Y87.213 E.05518
G1 X97.489 Y86.67 E.05529
G1 X98.699 Y86.241 E.05518
G1 X100.06 Y85.908 E.06025
G1 X101.333 Y85.729 E.05528
G1 X102.675 Y85.674 E.05771
G1 X104.015 Y85.752 E.05771
G1 X105.285 Y85.954 E.05529
G1 X106.527 Y86.275 E.05517
G1 X107.735 Y86.715 E.05529
G1 X108.894 Y87.267 E.05518
G1 X109.996 Y87.93 E.05529
G1 X111.119 Y88.768 E.06025
G1 X112.065 Y89.635 E.05518
G1 X112.925 Y90.591 E.05529
G1 X113.754 Y91.721 E.06024
G1 X114.405 Y92.826 E.05518
G1 X114.949 Y93.992 E.05529
G1 X115.377 Y95.202 E.05518
G1 X115.688 Y96.449 E.05529
G1 X115.889 Y97.836 E.06025
G1 X115.945 Y99.118 E.05518
G1 X115.878 Y100.402 E.05529
G1 X115.688 Y101.672 E.05518
G1 X115.343 Y103.03 E.06025
G1 X114.903 Y104.238 E.05529
G1 X114.295 Y105.5 E.06024
G1 X113.624 Y106.594 E.05518
G1 X112.85 Y107.621 E.05529
G1 X111.983 Y108.568 E.05518
G1 X111.028 Y109.428 E.05529
G1 X109.996 Y110.191 E.05518
G1 X108.894 Y110.854 E.05528
G1 X107.626 Y111.451 E.06025
G1 X106.303 Y111.913 E.06025
G1 X105.056 Y112.213 E.05518
G1 X103.782 Y112.392 E.05529
G1 X102.5 Y112.448 E.05518
G1 X101.216 Y112.38 E.05529
G1 X99.831 Y112.167 E.06025
G1 X98.588 Y111.846 E.05518
G1 X97.38 Y111.406 E.05529
G1 X96.118 Y110.797 E.06024
G1 X95.024 Y110.127 E.05518
G1 X93.997 Y109.353 E.05529
G1 X93.051 Y108.486 E.05518
G1 X92.19 Y107.53 E.05528
G1 X91.427 Y106.499 E.05518
G1 X90.71 Y105.294 E.06024
G1 X90.167 Y104.129 E.05529
G1 X89.739 Y102.919 E.05518
G1 X89.405 Y101.558 E.06024
G1 X89.226 Y100.285 E.05529
G1 X89.171 Y99.003 E.05518
G1 X89.238 Y97.718 E.05529
G1 X89.451 Y96.334 E.06025
G1 X89.772 Y95.091 E.05518
G1 X90.212 Y93.883 E.05529
G1 X90.821 Y92.621 E.06024
G1 X91.492 Y91.526 E.05518
G1 X92.265 Y90.499 E.05529
G1 X93.092 Y89.597 E.0526
M204 S3000
G1 X93.473 Y89.946 F18000
M204 S1000
G1 F1800
G1 X94.417 Y89.092 E.05475
G1 X95.503 Y88.296 E.05792
G1 X96.563 Y87.672 E.05285
G1 X97.687 Y87.147 E.05335
G1 X98.846 Y86.737 E.05285
G1 X100.154 Y86.416 E.05792
G1 X101.383 Y86.244 E.05334
G1 X102.67 Y86.191 E.05539
G1 X103.956 Y86.266 E.05538
G1 X105.182 Y86.46 E.05335
G1 X106.372 Y86.768 E.05285
G1 X107.538 Y87.192 E.05335
G1 X108.647 Y87.722 E.05285
G1 X109.799 Y88.42 E.05792
G1 X110.79 Y89.167 E.05335
G1 X111.696 Y89.997 E.05285
G1 X112.593 Y91.002 E.05792
G1 X113.323 Y92.006 E.05334
G1 X113.947 Y93.065 E.05285
G1 X114.471 Y94.19 E.05335
G1 X114.881 Y95.348 E.05285
G1 X115.202 Y96.657 E.05792
G1 X115.374 Y97.886 E.05334
G1 X115.428 Y99.114 E.05285
G1 X115.363 Y100.353 E.05335
G1 X115.181 Y101.569 E.05285
G1 X114.85 Y102.874 E.05792
G1 X114.426 Y104.04 E.05335
G1 X113.84 Y105.253 E.05791
G1 X113.198 Y106.302 E.05285
G1 X112.451 Y107.292 E.05335
G1 X111.621 Y108.199 E.05285
G1 X110.699 Y109.029 E.05335
G1 X109.711 Y109.76 E.05285
G1 X108.647 Y110.399 E.05335
G1 X107.428 Y110.974 E.05792
G1 X106.157 Y111.417 E.05792
G1 X104.961 Y111.704 E.05285
G1 X103.733 Y111.877 E.05335
G1 X102.505 Y111.931 E.05285
G1 X101.16 Y111.855 E.05792
G1 X99.934 Y111.66 E.05335
G1 X98.744 Y111.353 E.05285
G1 X97.578 Y110.928 E.05335
G1 X96.365 Y110.343 E.05791
G1 X95.317 Y109.701 E.05285
G1 X94.326 Y108.954 E.05335
G1 X93.419 Y108.123 E.05285
G1 X92.589 Y107.201 E.05334
G1 X91.858 Y106.213 E.05285
G1 X91.219 Y105.15 E.05335
G1 X90.645 Y103.931 E.05792
G1 X90.234 Y102.772 E.05286
G1 X89.934 Y101.568 E.05335
G1 X89.741 Y100.235 E.05792
G1 X89.688 Y99.007 E.05285
G1 X89.764 Y97.662 E.05792
G1 X89.958 Y96.437 E.05335
G1 X90.266 Y95.247 E.05285
G1 X90.69 Y94.081 E.05335
G1 X91.275 Y92.867 E.05791
G1 X91.918 Y91.819 E.05285
G1 X92.664 Y90.828 E.05335
G1 X93.432 Y89.991 E.04886
M204 S3000
G1 X93.815 Y90.338 F18000
M204 S1000
G1 F1800
G1 X94.822 Y89.429 E.05831
G1 X95.789 Y88.727 E.0514
G1 X96.801 Y88.13 E.05052
G1 X97.885 Y87.625 E.05141
G1 X98.993 Y87.233 E.05052
G1 X100.249 Y86.925 E.05559
G1 X101.433 Y86.758 E.05141
G1 X102.666 Y86.708 E.05306
G1 X103.898 Y86.78 E.05306
G1 X105.079 Y86.967 E.05141
G1 X106.216 Y87.261 E.05052
G1 X107.34 Y87.67 E.05141
G1 X108.4 Y88.176 E.05053
G1 X109.425 Y88.792 E.05141
G1 X110.461 Y89.566 E.05559
G1 X111.327 Y90.36 E.05053
G1 X112.127 Y91.248 E.05141
G1 X112.891 Y92.291 E.05559
G1 X113.488 Y93.304 E.05052
G1 X113.993 Y94.388 E.05141
G1 X114.385 Y95.495 E.05053
G1 X114.675 Y96.655 E.05141
G1 X114.86 Y97.935 E.0556
G1 X114.911 Y99.109 E.05053
G1 X114.848 Y100.303 E.05141
G1 X114.675 Y101.465 E.05053
G1 X114.357 Y102.719 E.05559
G1 X113.948 Y103.842 E.05141
G1 X113.386 Y105.007 E.05559
G1 X112.772 Y106.009 E.05053
G1 X112.052 Y106.964 E.05141
G1 X111.258 Y107.83 E.05053
G1 X110.37 Y108.63 E.05141
G1 X109.425 Y109.329 E.05052
G1 X108.314 Y109.991 E.05559
G1 X107.231 Y110.496 E.05141
G1 X106.01 Y110.922 E.05559
G1 X104.867 Y111.196 E.05052
G1 X103.683 Y111.362 E.05141
G1 X102.509 Y111.414 E.05053
G1 X101.218 Y111.341 E.05559
G1 X100.037 Y111.154 E.05141
G1 X98.899 Y110.86 E.05052
G1 X97.776 Y110.451 E.05141
G1 X96.612 Y109.888 E.05559
G1 X95.61 Y109.274 E.05053
G1 X94.655 Y108.555 E.05141
G1 X93.788 Y107.761 E.05052
G1 X92.988 Y106.872 E.0514
G1 X92.289 Y105.928 E.05052
G1 X91.673 Y104.903 E.05141
G1 X91.122 Y103.733 E.05559
G1 X90.73 Y102.625 E.05053
G1 X90.422 Y101.37 E.05559
G1 X90.256 Y100.186 E.05141
G1 X90.205 Y99.012 E.05053
G1 X90.277 Y97.721 E.05559
G1 X90.464 Y96.54 E.05141
G1 X90.759 Y95.402 E.05052
G1 X91.168 Y94.278 E.05141
G1 X91.673 Y93.218 E.05052
G1 X92.289 Y92.193 E.05141
G1 X92.988 Y91.248 E.05053
G1 X93.774 Y90.382 E.05029
M204 S3000
G1 X94.155 Y90.731 F18000
M204 S1000
G1 F1800
G1 X95.144 Y89.834 E.05739
G1 X96.074 Y89.158 E.04946
G1 X97.04 Y88.589 E.0482
G1 X98.083 Y88.103 E.04947
G1 X99.14 Y87.729 E.0482
G1 X100.343 Y87.433 E.05327
G1 X101.482 Y87.273 E.04947
G1 X102.661 Y87.225 E.05073
G1 X103.839 Y87.294 E.05073
G1 X104.975 Y87.474 E.04947
G1 X106.061 Y87.754 E.04819
G1 X107.142 Y88.148 E.04947
G1 X108.154 Y88.631 E.0482
G1 X109.213 Y89.273 E.05327
G1 X110.132 Y89.965 E.04947
G1 X110.959 Y90.722 E.0482
G1 X111.784 Y91.646 E.05327
G1 X112.46 Y92.577 E.04947
G1 X113.029 Y93.543 E.04819
G1 X113.515 Y94.585 E.04947
G1 X113.89 Y95.642 E.0482
G1 X114.168 Y96.758 E.04947
G1 X114.345 Y97.985 E.05327
G1 X114.394 Y99.105 E.0482
G1 X114.334 Y100.254 E.04947
G1 X114.168 Y101.362 E.0482
G1 X113.864 Y102.563 E.05326
G1 X113.47 Y103.645 E.04947
G1 X112.931 Y104.76 E.05326
G1 X112.346 Y105.716 E.0482
G1 X111.653 Y106.635 E.04947
G1 X110.896 Y107.461 E.0482
G1 X110.041 Y108.231 E.04947
G1 X109.14 Y108.898 E.0482
G1 X108.154 Y109.49 E.04947
G1 X107.033 Y110.018 E.05327
G1 X105.976 Y110.392 E.04819
G1 X104.86 Y110.671 E.04947
G1 X103.634 Y110.848 E.05326
G1 X102.514 Y110.897 E.0482
G1 X101.277 Y110.827 E.05326
G1 X100.14 Y110.647 E.04947
G1 X99.055 Y110.366 E.0482
G1 X97.974 Y109.973 E.04947
G1 X96.858 Y109.434 E.05326
G1 X95.902 Y108.848 E.0482
G1 X94.984 Y108.156 E.04947
G1 X94.157 Y107.398 E.0482
G1 X93.387 Y106.544 E.04946
G1 X92.72 Y105.642 E.0482
G1 X92.086 Y104.578 E.05326
G1 X91.6 Y103.535 E.04947
G1 X91.226 Y102.479 E.0482
G1 X90.948 Y101.362 E.04947
G1 X90.771 Y100.136 E.05326
G1 X90.722 Y99.016 E.0482
G1 X90.791 Y97.779 E.05326
G1 X90.971 Y96.643 E.04947
G1 X91.252 Y95.558 E.0482
G1 X91.645 Y94.476 E.04947
G1 X92.184 Y93.361 E.05326
G1 X92.77 Y92.405 E.0482
G1 X93.462 Y91.486 E.04947
G1 X94.114 Y90.775 E.04148
M204 S3000
G1 X94.495 Y91.124 F18000
M204 S1000
G1 F1800
G1 X95.465 Y90.239 E.05647
G1 X96.36 Y89.589 E.04753
G1 X97.279 Y89.048 E.04587
G1 X98.281 Y88.58 E.04753
G1 X99.286 Y88.224 E.04587
G1 X100.437 Y87.942 E.05094
G1 X101.532 Y87.788 E.04753
G1 X102.657 Y87.742 E.04841
G1 X103.78 Y87.807 E.0484
G1 X104.872 Y87.98 E.04753
G1 X105.905 Y88.248 E.04587
G1 X106.944 Y88.626 E.04753
G1 X107.907 Y89.085 E.04587
G1 X108.92 Y89.699 E.05094
G1 X109.803 Y90.364 E.04753
G1 X110.59 Y91.085 E.04587
G1 X111.329 Y91.906 E.04753
G1 X112.029 Y92.862 E.05094
G1 X112.571 Y93.781 E.04587
G1 X113.038 Y94.783 E.04753
G1 X113.394 Y95.789 E.04587
G1 X113.661 Y96.862 E.04753
G1 X113.83 Y98.034 E.05094
G1 X113.877 Y99.1 E.04587
G1 X113.819 Y100.204 E.04753
G1 X113.661 Y101.259 E.04587
G1 X113.371 Y102.408 E.05094
G1 X112.993 Y103.447 E.04753
G1 X112.533 Y104.409 E.04586
G1 X111.964 Y105.357 E.04753
G1 X111.254 Y106.306 E.05094
G1 X110.533 Y107.092 E.04587
G1 X109.712 Y107.832 E.04753
G1 X108.854 Y108.467 E.04587
G1 X107.907 Y109.036 E.04753
G1 X106.835 Y109.54 E.05094
G1 X105.829 Y109.896 E.04587
G1 X104.757 Y110.164 E.04753
G1 X103.584 Y110.333 E.05094
G1 X102.518 Y110.379 E.04587
G1 X101.335 Y110.313 E.05094
G1 X100.243 Y110.14 E.04753
G1 X99.21 Y109.873 E.04587
G1 X98.172 Y109.495 E.04753
G1 X97.105 Y108.98 E.05093
G1 X96.195 Y108.422 E.04587
G1 X95.312 Y107.757 E.04753
G1 X94.526 Y107.036 E.04587
G1 X93.786 Y106.215 E.04753
G1 X93.152 Y105.357 E.04587
G1 X92.582 Y104.409 E.04753
G1 X92.078 Y103.338 E.05094
G1 X91.722 Y102.332 E.04587
G1 X91.439 Y101.181 E.05094
G1 X91.285 Y100.087 E.04753
G1 X91.239 Y99.021 E.04587
G1 X91.305 Y97.838 E.05094
G1 X91.478 Y96.746 E.04753
G1 X91.745 Y95.713 E.04587
G1 X92.123 Y94.674 E.04753
G1 X92.639 Y93.608 E.05093
G1 X93.196 Y92.698 E.04587
G1 X93.861 Y91.815 E.04753
G1 X94.454 Y91.168 E.03773
M204 S3000
G1 X94.838 Y91.515 F18000
M204 S1000
G1 F1800
G1 X94.945 Y91.397 E.00685
G1 X95.787 Y90.643 E.04861
G1 X96.645 Y90.02 E.04559
G1 X98.479 Y89.058 E.08903
G1 X99.433 Y88.72 E.04354
G1 X100.531 Y88.45 E.04861
G1 X101.581 Y88.303 E.04559
G1 X102.652 Y88.259 E.04608
G1 X103.722 Y88.321 E.04608
G1 X104.769 Y88.487 E.04559
G1 X106.746 Y89.103 E.08902
G1 X108.569 Y90.085 E.08903
G1 X109.474 Y90.763 E.04861
G1 X110.221 Y91.447 E.04354
G1 X110.93 Y92.235 E.04559
G1 X111.598 Y93.148 E.04861
G1 X112.56 Y94.981 E.08903
G1 X113.155 Y96.965 E.08903
G1 X113.316 Y98.084 E.04861
G1 X113.36 Y99.096 E.04355
G1 X113.155 Y101.156 E.08903
G1 X112.878 Y102.252 E.04861
G1 X112.515 Y103.249 E.04559
G1 X112.023 Y104.266 E.04861
G1 X111.493 Y105.13 E.04354
G1 X110.171 Y106.724 E.08903
G1 X108.569 Y108.035 E.08903
G1 X107.66 Y108.581 E.04559
G1 X106.637 Y109.063 E.04861
G1 X104.653 Y109.657 E.08903
G1 X103.534 Y109.818 E.04861
G1 X102.523 Y109.862 E.04354
G1 X101.464 Y109.807 E.04559
G1 X100.346 Y109.634 E.04861
G1 X98.369 Y109.017 E.08903
G1 X97.352 Y108.525 E.04861
G1 X96.488 Y107.996 E.04354
G1 X94.895 Y106.674 E.08903
G1 X93.583 Y105.072 E.08903
G1 X93.037 Y104.163 E.04559
G1 X92.556 Y103.14 E.04861
G1 X91.961 Y101.156 E.08903
G1 X91.8 Y100.037 E.04861
G1 X91.756 Y99.025 E.04355
G1 X91.811 Y97.966 E.04559
G1 X91.985 Y96.849 E.04861
G1 X92.601 Y94.872 E.08903
G1 X93.583 Y93.049 E.08903
G1 X94.185 Y92.235 E.04354
G1 X94.797 Y91.56 E.03918
M204 S3000
G1 X95.18 Y91.906 F18000
M204 S1000
G1 F1800
G1 X95.307 Y91.766 E.00814
G1 X96.061 Y91.087 E.04365
G1 X96.93 Y90.451 E.04629
G1 X98.677 Y89.536 E.08477
G1 X99.58 Y89.216 E.04122
G1 X100.625 Y88.959 E.04628
G1 X101.631 Y88.817 E.04365
G1 X102.648 Y88.776 E.04375
G1 X103.663 Y88.835 E.04375
G1 X104.666 Y88.994 E.04365
G1 X106.548 Y89.581 E.08476
G1 X107.413 Y89.994 E.04122
G1 X108.335 Y90.551 E.04629
G1 X109.852 Y91.81 E.08477
G1 X110.531 Y92.564 E.04365
G1 X111.167 Y93.433 E.04628
G1 X112.082 Y95.179 E.08477
G1 X112.648 Y97.068 E.08477
G1 X112.801 Y98.133 E.04629
G1 X112.843 Y99.091 E.04122
G1 X112.648 Y101.053 E.08477
G1 X112.384 Y102.097 E.04628
G1 X112.037 Y103.051 E.04365
G1 X111.102 Y104.786 E.08476
G1 X110.456 Y105.648 E.04629
G1 X109.809 Y106.355 E.04122
G1 X108.284 Y107.604 E.08477
G1 X107.413 Y108.127 E.04365
G1 X106.439 Y108.585 E.04629
G1 X104.55 Y109.151 E.08477
G1 X103.485 Y109.304 E.04628
G1 X102.527 Y109.345 E.04122
G1 X101.513 Y109.292 E.04365
G1 X100.449 Y109.127 E.04629
G1 X98.567 Y108.54 E.08477
G1 X96.832 Y107.604 E.08476
G1 X96.061 Y107.034 E.04122
G1 X95.264 Y106.311 E.04629
G1 X94.014 Y104.786 E.08476
G1 X93.491 Y103.916 E.04365
G1 X93.033 Y102.942 E.04628
G1 X92.468 Y101.053 E.08477
G1 X92.315 Y99.987 E.04628
G1 X92.273 Y99.03 E.04122
G1 X92.326 Y98.016 E.04365
G1 X92.491 Y96.952 E.04629
G1 X93.079 Y95.07 E.08477
G1 X94.014 Y93.335 E.08476
G1 X94.584 Y92.564 E.04122
G1 X95.14 Y91.951 E.03557
M204 S3000
G1 E-2 F3000
G1 Z.6 F18000
G1 X99.384 Y94.76
G1 Z.2
G1 E2 F1800
M204 S1000
;TYPE:Perimeter
G1 X99.648 Y94.568 E.01402
G1 X100.04 Y94.337 E.01958
G1 X100.558 Y94.096 E.02458
G1 X100.987 Y93.944 E.01958
G1 X101.537 Y93.807 E.02433
G1 X102.094 Y93.728 E.0242
G1 X102.605 Y93.709 E.02197
G1 X103.115 Y93.737 E.02197
G1 X103.671 Y93.825 E.0242
G1 X104.217 Y93.972 E.02434
G1 X104.649 Y94.133 E.01983
G1 X105.066 Y94.332 E.01983
G1 X105.551 Y94.623 E.02433
G1 X106.003 Y94.964 E.02433
G1 X106.338 Y95.272 E.01958
G1 X106.717 Y95.692 E.02433
G1 X107.046 Y96.145 E.02408
G1 X107.329 Y96.636 E.02433
G1 X107.521 Y97.055 E.01983
G1 X107.675 Y97.49 E.01983
G1 X107.812 Y98.039 E.02433
G1 X107.89 Y98.6 E.02434
G1 X107.91 Y99.06 E.01983
G1 X107.89 Y99.521 E.01983
G1 X107.812 Y100.082 E.02434
G1 X107.675 Y100.631 E.02433
G1 X107.523 Y101.06 E.01958
G1 X107.283 Y101.573 E.02433
G1 X106.995 Y102.053 E.02409
G1 X106.654 Y102.505 E.02433
G1 X106.347 Y102.841 E.01958
G1 X105.922 Y103.224 E.02458
G1 X105.556 Y103.494 E.01958
G1 X105.07 Y103.786 E.02433
G1 X104.563 Y104.023 E.02409
G1 X104.028 Y104.207 E.02433
G1 X103.585 Y104.313 E.01958
G1 X103.019 Y104.393 E.02458
G1 X102.558 Y104.413 E.01983
G1 X102.097 Y104.393 E.01983
G1 X101.537 Y104.314 E.02433
G1 X100.987 Y104.177 E.02433
G1 X100.558 Y104.025 E.01958
G1 X100.045 Y103.786 E.02433
G1 X99.56 Y103.494 E.02433
G1 X99.194 Y103.224 E.01959
G1 X98.773 Y102.845 E.02433
G1 X98.395 Y102.424 E.02433
G1 X98.124 Y102.058 E.01958
G1 X97.832 Y101.573 E.02434
G1 X97.593 Y101.06 E.02433
G1 X97.441 Y100.631 E.01958
G1 X97.304 Y100.082 E.02433
G1 X97.225 Y99.521 E.02433
G1 X97.205 Y99.06 E.01983
G1 X97.225 Y98.6 E.01983
G1 X97.305 Y98.034 E.02458
G1 X97.411 Y97.591 E.01958
G1 X97.597 Y97.05 E.02458
G1 X97.786 Y96.636 E.01958
G1 X98.069 Y96.145 E.02433
G1 X98.399 Y95.692 E.02408
G1 X98.773 Y95.276 E.02409
G1 X99.19 Y94.901 E.02409
G1 X99.335 Y94.795 E.00773
M204 S3000
G1 X98.704 Y94.642 F18000
M204 S1000
G1 F1800
G1 X98.864 Y94.499 E.00922
G1 X99.364 Y94.136 E.02657
G1 X99.799 Y93.879 E.02172
G1 X100.362 Y93.617 E.02672
G1 X100.838 Y93.448 E.02172
G1 X101.438 Y93.298 E.02656
G1 X102.048 Y93.213 E.02649
G1 X102.609 Y93.191 E.02415
G1 X103.17 Y93.222 E.02415
G1 X103.778 Y93.319 E.02648
G1 X104.375 Y93.479 E.02657
G1 X104.851 Y93.657 E.02187
G1 X105.311 Y93.876 E.02187
G1 X105.84 Y94.194 E.02657
G1 X106.334 Y94.566 E.02657
G1 X106.706 Y94.907 E.02172
G1 X107.12 Y95.366 E.02657
G1 X107.481 Y95.863 E.02641
G1 X107.79 Y96.399 E.02657
G1 X108.001 Y96.861 E.02187
G1 X108.17 Y97.341 E.02187
G1 X108.32 Y97.94 E.02656
G1 X108.406 Y98.552 E.02657
G1 X108.428 Y99.06 E.02187
G1 X108.406 Y99.569 E.02187
G1 X108.32 Y100.18 E.02657
G1 X108.17 Y100.78 E.02656
G1 X108.002 Y101.256 E.02172
G1 X107.741 Y101.816 E.02657
G1 X107.424 Y102.343 E.02642
G1 X107.052 Y102.836 E.02657
G1 X106.711 Y103.209 E.02172
G1 X106.249 Y103.624 E.02672
G1 X105.843 Y103.925 E.02172
G1 X105.314 Y104.243 E.02657
