; generated by PrusaSlicer 2.4.0+linux-x64 on 2022-01-31 at 06:27:38 UTC


;
;

;
;
; TODO: check the size of the extruder and the y-bar clearance. Optimize & test supports.

; external perimeters extrusion width = 0.42mm
; perimeters extrusion width = 0.44mm
; infill extrusion width = 0.44mm
; solid infill extrusion width = 0.44mm
; top infill extrusion width = 0.44mm
; first layer extrusion width = 0.56mm

M107
M190 S55 ; set bed temperature and wait for it to be reached
M104 S215 ; set temperature
;TYPE:Custom
; M190 S0
; M109 S0 ; uncomment to remove set&wait temp gcode added automatically after this start gcode
print_start EXTRUDER=215 BED=55
M109 S215 ; set temperature and wait for it to be reached
G21 ; set units to millimeters
G90 ; use absolute coordinates
M83 ; use relative distances for extrusion
M107
;LAYER_CHANGE
;Z:0.2
;HEIGHT:0.2
;BEFORE_LAYER_CHANGE
;0.2


G1 Z.2 F18000
;AFTER_LAYER_CHANGE
;0.2
G1 E-2 F3000
G1 Z.6 F18000
G1 X93.217 Y89.471
G1 Z.2
G1 E2 F1800
M204 S1000
;TYPE:Skirt/Brim
;WIDTH:0.56
G1 X94.27 Y88.547 E.06025
G1 X95.315 Y87.801 E.05518
G1 X96.429 Y87.158 E.05529
G1 X97.596 Y86.626 E.05518
G1 X98.812 Y86.208 E.05529
G1 X100.06 Y85.908 E.05518
G1 X101.333 Y85.729 E.05528
G1 X102.675 Y85.674 E.05771
G1 X104.015 Y85.752 E.05771
G1 X105.285 Y85.954 E.05529
G1 X106.64 Y86.31 E.06024
G1 X107.842 Y86.76 E.05518
G1 X108.998 Y87.324 E.05529
G1 X110.14 Y88.028 E.05771
G1 X111.207 Y88.842 E.05771
G1 X112.148 Y89.719 E.05528
G1 X112.998 Y90.68 E.05518
G1 X113.754 Y91.721 E.05529
G1 X114.405 Y92.826 E.05517
G1 X114.992 Y94.099 E.06025
G1 X115.411 Y95.315 E.05529
G1 X115.71 Y96.563 E.05518
G1 X115.899 Y97.951 E.06025
G1 X115.944 Y99.236 E.05529
G1 X115.866 Y100.517 E.05518
G1 X115.665 Y101.787 E.05529
G1 X115.343 Y103.03 E.05518
G1 X114.858 Y104.344 E.06024
G1 X114.239 Y105.601 E.06025
G1 X113.557 Y106.692 E.05529
G1 X112.776 Y107.71 E.05518
G1 X111.899 Y108.65 E.05529
G1 X110.845 Y109.574 E.06024
G1 X109.801 Y110.319 E.05517
G1 X108.687 Y110.962 E.05529
G1 X107.519 Y111.495 E.05518
G1 X106.303 Y111.913 E.05529
G1 X105.056 Y112.213 E.05518
G1 X103.782 Y112.392 E.05529
G1 X102.382 Y112.447 E.06025
G1 X101.101 Y112.368 E.05518
G1 X99.831 Y112.167 E.05529
G1 X98.476 Y111.81 E.06025
G1 X97.274 Y111.361 E.05518
G1 X96.118 Y110.797 E.05529
G1 X94.927 Y110.06 E.06024
G1 X93.908 Y109.279 E.05518
G1 X92.968 Y108.402 E.05528
G1 X92.118 Y107.44 E.05518
G1 X91.362 Y106.4 E.05529
G1 X90.71 Y105.294 E.05518
G1 X90.124 Y104.022 E.06025
G1 X89.705 Y102.806 E.05528
G1 X89.405 Y101.558 E.05518
G1 X89.216 Y100.17 E.06024
G1 X89.172 Y98.885 E.05529
G1 X89.25 Y97.604 E.05518
G1 X89.451 Y96.333 E.0553
G1 X89.808 Y94.978 E.06024
G1 X90.257 Y93.776 E.05518
G1 X90.821 Y92.621 E.05529
G1 X91.492 Y91.526 E.05517
G1 X92.265 Y90.499 E.05529
G1 X93.176 Y89.515 E.05767
M204 S3000
G1 X93.555 Y89.865 F18000
M204 S1000
G1 F1800
G1 X94.592 Y88.951 E.05943
G1 X95.593 Y88.238 E.05285
G1 X96.667 Y87.617 E.05335
G1 X97.786 Y87.107 E.05285
G1 X98.959 Y86.703 E.05335
G1 X100.154 Y86.416 E.05285
G1 X101.383 Y86.244 E.05334
G1 X102.67 Y86.191 E.05539
G1 X103.956 Y86.266 E.05538
G1 X105.182 Y86.46 E.05335
G1 X106.484 Y86.804 E.05792
G1 X107.636 Y87.234 E.05285
G1 X108.751 Y87.778 E.05335
G1 X109.799 Y88.42 E.05285
G1 X110.79 Y89.167 E.05335
G1 X111.779 Y90.082 E.05792
G1 X112.593 Y91.002 E.05285
G1 X113.381 Y92.095 E.05792
G1 X114.001 Y93.17 E.05335
G1 X114.511 Y94.289 E.05285
G1 X114.915 Y95.462 E.05335
G1 X115.202 Y96.657 E.05285
G1 X115.374 Y97.886 E.05334
G1 X115.427 Y99.232 E.05792
G1 X115.352 Y100.459 E.05285
G1 X115.158 Y101.684 E.05335
G1 X114.85 Y102.874 E.05285
G1 X114.384 Y104.138 E.05792
G1 X113.84 Y105.253 E.05335
G1 X113.131 Y106.399 E.05792
G1 X112.383 Y107.374 E.05285
G1 X111.536 Y108.282 E.05335
G1 X110.523 Y109.17 E.05792
G1 X109.523 Y109.883 E.05284
G1 X108.448 Y110.504 E.05335
G1 X107.33 Y111.013 E.05285
G1 X106.157 Y111.417 E.05335
G1 X104.961 Y111.704 E.05285
G1 X103.627 Y111.886 E.05792
G1 X102.386 Y111.93 E.05335
G1 X101.16 Y111.855 E.05285
G1 X99.934 Y111.66 E.05335
G1 X98.631 Y111.317 E.05792
G1 X97.48 Y110.887 E.05285
G1 X96.365 Y110.343 E.05335
G1 X95.219 Y109.634 E.05792
G1 X94.244 Y108.885 E.05286
G1 X93.337 Y108.039 E.05334
G1 X92.522 Y107.119 E.05285
G1 X91.793 Y106.115 E.05335
G1 X91.169 Y105.056 E.05285
G1 X90.605 Y103.832 E.05792
G1 X90.201 Y102.659 E.05335
G1 X89.914 Y101.464 E.05286
G1 X89.732 Y100.129 E.05791
G1 X89.689 Y98.889 E.05335
G1 X89.764 Y97.662 E.05285
G1 X89.958 Y96.437 E.05336
G1 X90.301 Y95.134 E.05791
G1 X90.732 Y93.983 E.05285
G1 X91.275 Y92.867 E.05335
G1 X91.918 Y91.819 E.05285
G1 X92.664 Y90.828 E.05335
G1 X93.514 Y89.909 E.05382
M204 S3000
G1 X93.893 Y90.26 F18000
M204 S1000
G1 F1800
G1 X94.914 Y89.356 E.05862
G1 X95.871 Y88.674 E.05052
G1 X96.906 Y88.076 E.05141
G1 X97.975 Y87.588 E.05052
G1 X99.106 Y87.199 E.05141
G1 X100.249 Y86.925 E.05052
G1 X101.433 Y86.758 E.05141
G1 X102.666 Y86.708 E.05306
G1 X103.898 Y86.78 E.05306
G1 X105.079 Y86.967 E.05141
G1 X106.329 Y87.297 E.05559
G1 X107.429 Y87.708 E.05052
G1 X108.504 Y88.232 E.05141
G1 X109.555 Y88.88 E.05306
G1 X110.536 Y89.629 E.05306
G1 X111.41 Y90.444 E.0514
G1 X112.189 Y91.324 E.05053
G1 X112.892 Y92.292 E.05141
G1 X113.488 Y93.304 E.05052
G1 X114.03 Y94.478 E.0556
G1 X114.419 Y95.609 E.05141
G1 X114.693 Y96.751 E.05052
G1 X114.868 Y98.032 E.05559
G1 X114.91 Y99.227 E.05141
G1 X114.838 Y100.4 E.05052
G1 X114.651 Y101.581 E.05141
G1 X114.357 Y102.719 E.05052
G1 X113.91 Y103.932 E.05559
G1 X113.339 Y105.092 E.0556
G1 X112.705 Y106.106 E.05141
G1 X111.99 Y107.038 E.05053
G1 X111.174 Y107.913 E.05141
G1 X110.202 Y108.765 E.05559
G1 X109.245 Y109.447 E.05052
G1 X108.209 Y110.045 E.05141
G1 X107.14 Y110.532 E.05052
G1 X106.01 Y110.922 E.05141
G1 X104.867 Y111.196 E.05052
G1 X103.586 Y111.371 E.05559
G1 X102.391 Y111.413 E.05141
G1 X101.218 Y111.341 E.05052
G1 X100.037 Y111.154 E.05141
G1 X98.787 Y110.824 E.05559
G1 X97.686 Y110.413 E.05053
G1 X96.611 Y109.888 E.05141
G1 X95.512 Y109.208 E.05559
G1 X94.58 Y108.492 E.05053
G1 X93.706 Y107.677 E.0514
G1 X92.927 Y106.797 E.05053
G1 X92.224 Y105.829 E.05141
G1 X91.628 Y104.817 E.05052
G1 X91.086 Y103.643 E.05559
G1 X90.697 Y102.512 E.05141
G1 X90.422 Y101.37 E.05053
G1 X90.247 Y100.089 E.05559
G1 X90.206 Y98.894 E.05141
G1 X90.277 Y97.721 E.05052
G1 X90.464 Y96.54 E.05142
G1 X90.794 Y95.289 E.05559
G1 X91.206 Y94.189 E.05053
G1 X91.73 Y93.114 E.05141
G1 X92.344 Y92.112 E.05052
G1 X93.063 Y91.157 E.05141
G1 X93.853 Y90.304 E.04997
M204 S3000
G1 X94.232 Y90.655 F18000
M204 S1000
G1 F1800
G1 X95.236 Y89.761 E.05781
G1 X96.148 Y89.11 E.04819
G1 X97.145 Y88.534 E.04947
G1 X98.165 Y88.07 E.0482
G1 X99.253 Y87.695 E.04947
G1 X100.343 Y87.433 E.04819
G1 X101.482 Y87.273 E.04947
G1 X102.661 Y87.225 E.05073
G1 X103.839 Y87.294 E.05073
G1 X104.975 Y87.474 E.04947
G1 X106.173 Y87.79 E.05326
G1 X107.223 Y88.182 E.0482
G1 X108.257 Y88.687 E.04947
G1 X109.213 Y89.273 E.04819
G1 X110.132 Y89.965 E.04947
G1 X111.041 Y90.807 E.05327
G1 X111.784 Y91.646 E.0482
G1 X112.46 Y92.577 E.04947
G1 X113.029 Y93.543 E.04819
G1 X113.549 Y94.668 E.05327
G1 X113.923 Y95.755 E.04947
G1 X114.185 Y96.845 E.0482
G1 X114.353 Y98.073 E.05326
G1 X114.393 Y99.223 E.04947
G1 X114.324 Y100.342 E.0482
G1 X114.144 Y101.478 E.04947
G1 X113.864 Y102.563 E.04819
G1 X113.436 Y103.726 E.05326
G1 X112.931 Y104.76 E.04947
G1 X112.279 Y105.813 E.05327
G1 X111.596 Y106.702 E.0482
G1 X110.812 Y107.544 E.04947
G1 X109.88 Y108.36 E.05326
G1 X108.967 Y109.011 E.04819
G1 X107.971 Y109.586 E.04947
G1 X106.951 Y110.051 E.04819
G1 X105.863 Y110.426 E.04947
G1 X104.773 Y110.688 E.04819
G1 X103.545 Y110.855 E.05327
G1 X102.396 Y110.896 E.04947
G1 X101.277 Y110.827 E.04819
G1 X100.14 Y110.647 E.04947
G1 X98.942 Y110.331 E.05326
G1 X97.892 Y109.938 E.0482
G1 X96.858 Y109.434 E.04947
G1 X95.805 Y108.781 E.05326
G1 X94.916 Y108.099 E.0482
G1 X94.074 Y107.314 E.04947
G1 X93.332 Y106.475 E.0482
G1 X92.655 Y105.544 E.04947
G1 X92.086 Y104.578 E.04819
G1 X91.567 Y103.453 E.05327
G1 X91.192 Y102.365 E.04947
G1 X90.931 Y101.275 E.0482
G1 X90.763 Y100.048 E.05326
G1 X90.723 Y98.898 E.04947
G1 X90.791 Y97.779 E.04819
G1 X90.971 Y96.643 E.04948
G1 X91.287 Y95.445 E.05326
G1 X91.68 Y94.395 E.0482
G1 X92.184 Y93.361 E.04947
G1 X92.77 Y92.405 E.04819
G1 X93.462 Y91.486 E.04947
G1 X94.191 Y90.699 E.04612
M204 S3000
G1 X94.57 Y91.05 F18000
M204 S1000
G1 F1800
G1 X94.666 Y90.946 E.0061
G1 X95.558 Y90.165 E.05094
G1 X96.426 Y89.546 E.04587
G1 X97.384 Y88.993 E.04753
G1 X98.354 Y88.551 E.04587
G1 X99.4 Y88.191 E.04753
G1 X100.437 Y87.942 E.04587
G1 X101.532 Y87.788 E.04753
G1 X102.657 Y87.742 E.04841
G1 X103.78 Y87.807 E.0484
G1 X104.872 Y87.98 E.04753
G1 X106.018 Y88.283 E.05094
G1 X107.017 Y88.657 E.04587
G1 X108.011 Y89.141 E.04753
G1 X108.92 Y89.699 E.04587
G1 X109.803 Y90.364 E.04753
G1 X110.672 Y91.169 E.05094
G1 X111.379 Y91.968 E.04587
G1 X112.072 Y92.929 E.05094
G1 X112.625 Y93.886 E.04753
G1 X113.068 Y94.857 E.04587
G1 X113.427 Y95.902 E.04753
G1 X113.677 Y96.94 E.04587
G1 X113.83 Y98.034 E.04753
G1 X113.876 Y99.218 E.05094
G1 X113.811 Y100.283 E.04587
G1 X113.638 Y101.375 E.04753
G1 X113.371 Y102.408 E.04587
G1 X112.962 Y103.52 E.05094
G1 X112.477 Y104.513 E.04753
G1 X111.853 Y105.52 E.05094
G1 X111.203 Y106.367 E.04587
G1 X110.449 Y107.175 E.04753
G1 X109.558 Y107.956 E.05094
G1 X108.689 Y108.575 E.04586
G1 X107.732 Y109.128 E.04753
G1 X106.761 Y109.57 E.04587
G1 X105.716 Y109.93 E.04753
G1 X104.679 Y110.179 E.04587
G1 X103.584 Y110.333 E.04753
G1 X102.4 Y110.378 E.05094
G1 X101.335 Y110.313 E.04587
G1 X100.243 Y110.14 E.04753
G1 X99.098 Y109.838 E.05094
G1 X98.099 Y109.464 E.04587
G1 X97.105 Y108.98 E.04753
G1 X96.098 Y108.355 E.05094
G1 X95.252 Y107.706 E.04587
G1 X94.443 Y106.952 E.04753
G1 X93.736 Y106.153 E.04587
G1 X93.086 Y105.258 E.04753
G1 X92.545 Y104.339 E.04587
G1 X92.048 Y103.264 E.05094
G1 X91.688 Y102.219 E.04753
G1 X91.439 Y101.181 E.04587
G1 X91.278 Y100.007 E.05094
G1 X91.24 Y98.903 E.04753
G1 X91.305 Y97.838 E.04587
G1 X91.478 Y96.746 E.04754
G1 X91.78 Y95.6 E.05094
G1 X92.154 Y94.601 E.04587
G1 X92.639 Y93.608 E.04753
G1 X93.196 Y92.698 E.04587
G1 X93.861 Y91.815 E.04753
G1 X94.529 Y91.094 E.04226
M204 S3000
G1 X94.908 Y91.445 F18000
M204 S1000
G1 F1800
G1 X95.029 Y91.315 E.00764
G1 X95.88 Y90.57 E.04862
G1 X96.704 Y89.982 E.04354
G1 X98.544 Y89.032 E.08903
G1 X100.531 Y88.45 E.08903
G1 X101.581 Y88.303 E.04559
G1 X102.652 Y88.259 E.04608
G1 X103.722 Y88.321 E.04608
G1 X104.769 Y88.487 E.04559
G1 X105.862 Y88.776 E.04861
G1 X106.811 Y89.131 E.04354
G1 X108.627 Y90.125 E.08903
G1 X109.474 Y90.763 E.04559
G1 X110.304 Y91.531 E.04861
G1 X111.598 Y93.148 E.08903
G1 X112.112 Y94.02 E.04354
G1 X112.586 Y95.047 E.04862
G1 X113.168 Y97.034 E.08903
G1 X113.322 Y98.154 E.04861
G1 X113.359 Y99.214 E.04559
G1 X113.131 Y101.272 E.08903
G1 X112.878 Y102.252 E.04354
G1 X112.487 Y103.313 E.04861
G1 X112.023 Y104.267 E.04559
G1 X111.427 Y105.227 E.04861
G1 X110.087 Y106.806 E.08903
G1 X109.236 Y107.551 E.04861
G1 X108.412 Y108.139 E.04354
G1 X106.572 Y109.089 E.08903
G1 X104.584 Y109.671 E.08903
G1 X103.464 Y109.824 E.04861
G1 X102.405 Y109.861 E.04559
G1 X100.346 Y109.634 E.08903
G1 X99.253 Y109.345 E.04861
G1 X98.305 Y108.99 E.04354
G1 X97.352 Y108.525 E.04559
G1 X96.391 Y107.929 E.04861
G1 X94.812 Y106.589 E.08903
G1 X94.141 Y105.831 E.04354
G1 X93.479 Y104.914 E.04861
G1 X92.529 Y103.074 E.08903
G1 X91.948 Y101.087 E.08903
G1 X91.794 Y99.967 E.04861
G1 X91.757 Y98.907 E.04559
G1 X91.832 Y97.779 E.04861
G1 X91.999 Y96.78 E.04354
G1 X92.628 Y94.807 E.08903
G1 X93.622 Y92.991 E.08903
G1 X94.26 Y92.144 E.04559
G1 X94.867 Y91.489 E.03839
M204 S3000
G1 X95.246 Y91.84 F18000
M204 S1000
G1 F1800
G1 X95.391 Y91.683 E.00918
G1 X96.93 Y90.451 E.08477
G1 X97.756 Y89.965 E.04122
G1 X98.733 Y89.513 E.04629
G1 X100.625 Y88.959 E.08477
G1 X101.631 Y88.817 E.04365
G1 X102.648 Y88.776 E.04375
G1 X103.663 Y88.835 E.04375
G1 X104.666 Y88.994 E.04365
G1 X105.707 Y89.269 E.04628
G1 X106.605 Y89.605 E.04121
G1 X107.517 Y90.05 E.04365
G1 X108.383 Y90.584 E.04375
G1 X109.192 Y91.201 E.04375
G1 X109.935 Y91.894 E.04365
G1 X111.167 Y93.433 E.08477
G1 X111.653 Y94.259 E.04121
G1 X112.105 Y95.236 E.04629
G1 X112.66 Y97.128 E.08477
G1 X112.806 Y98.195 E.04628
G1 X112.842 Y99.209 E.04365
G1 X112.77 Y100.283 E.04629
G1 X112.612 Y101.229 E.04122
G1 X112.013 Y103.107 E.08477
G1 X111.568 Y104.02 E.04365
G1 X111 Y104.934 E.04629
G1 X109.724 Y106.438 E.08477
G1 X108.185 Y107.669 E.08476
G1 X107.359 Y108.156 E.04122
G1 X106.382 Y108.608 E.04629
G1 X104.49 Y109.162 E.08477
G1 X103.424 Y109.309 E.04629
G1 X102.409 Y109.344 E.04365
G1 X100.449 Y109.127 E.08477
G1 X99.409 Y108.851 E.04628
G1 X98.511 Y108.516 E.04122
G1 X97.598 Y108.071 E.04365
G1 X96.684 Y107.503 E.04628
G1 X95.181 Y106.227 E.08477
G1 X93.949 Y104.688 E.08477
G1 X93.462 Y103.862 E.04121
G1 X93.01 Y102.885 E.04629
G1 X92.456 Y100.993 E.08477
G1 X92.309 Y99.926 E.04628
G1 X92.274 Y98.912 E.04365
G1 X92.491 Y96.952 E.08477
G1 X92.767 Y95.911 E.04628
G1 X93.102 Y95.013 E.04122
G1 X94.048 Y93.284 E.08477
G1 X94.659 Y92.473 E.04365
G1 X95.205 Y91.884 E.03452
M204 S3000
G1 E-2 F3000
G1 Z.6 F18000
G1 X99.422 Y94.732
G1 Z.2
G1 E2 F1800
M204 S1000
;TYPE:Perimeter
G1 X99.643 Y94.572 E.01174
G1 X100.133 Y94.289 E.02434
G1 X100.553 Y94.098 E.01983
G1 X100.987 Y93.944 E.01983
G1 X101.537 Y93.807 E.02433
G1 X102.094 Y93.728 E.0242
G1 X102.605 Y93.709 E.02197
G1 X103.115 Y93.737 E.02197
G1 X103.67 Y93.825 E.02419
G1 X104.217 Y93.972 E.02434
G1 X104.644 Y94.131 E.01958
G1 X105.153 Y94.379 E.02433
G1 X105.632 Y94.679 E.02433
G1 X105.994 Y94.957 E.01958
G1 X106.408 Y95.343 E.02433
G1 X106.775 Y95.765 E.02408
G1 X107.1 Y96.229 E.02434
G1 X107.324 Y96.625 E.01958
G1 X107.557 Y97.148 E.02458
G1 X107.701 Y97.58 E.01958
G1 X107.829 Y98.131 E.02433
G1 X107.898 Y98.693 E.02433
G1 X107.91 Y99.154 E.01983
G1 X107.881 Y99.614 E.01983
G1 X107.793 Y100.173 E.02433
G1 X107.648 Y100.714 E.02409
G1 X107.445 Y101.243 E.02433
G1 X107.242 Y101.65 E.01958
G1 X106.939 Y102.135 E.02458
G1 X106.662 Y102.496 E.01958
G1 X106.276 Y102.91 E.02433
G1 X105.849 Y103.282 E.02433
G1 X105.473 Y103.549 E.01983
G1 X105.076 Y103.784 E.01983
G1 X104.558 Y104.025 E.02458
G1 X104.128 Y104.177 E.01959
G1 X103.579 Y104.314 E.02433
G1 X103.024 Y104.392 E.02409
G1 X102.459 Y104.412 E.02433
G1 X102.004 Y104.384 E.01959
G1 X101.439 Y104.295 E.02458
G1 X100.998 Y104.181 E.01959
G1 X100.467 Y103.987 E.02433
G1 X99.963 Y103.741 E.02409
G1 X99.483 Y103.441 E.02434
G1 X99.122 Y103.164 E.01958
G1 X98.708 Y102.778 E.02434
G1 X98.337 Y102.351 E.02433
G1 X98.069 Y101.976 E.01983
G1 X97.835 Y101.578 E.01983
G1 X97.596 Y101.065 E.02433
G1 X97.411 Y100.53 E.02434
G1 X97.305 Y100.087 E.01958
G1 X97.226 Y99.527 E.02434
G1 X97.206 Y98.961 E.02433
G1 X97.234 Y98.507 E.01958
G1 X97.324 Y97.942 E.02458
G1 X97.438 Y97.501 E.01958
G1 X97.633 Y96.964 E.02458
G1 X97.829 Y96.553 E.01959
G1 X98.121 Y96.068 E.02433
G1 X98.458 Y95.62 E.02409
G1 X98.844 Y95.206 E.02433
G1 X99.185 Y94.904 E.01959
G1 X99.373 Y94.768 E.01001
M204 S3000
G1 X98.725 Y94.621 F18000
M204 S1000
G1 F1800
G1 X98.861 Y94.501 E.00781
G1 X99.361 Y94.138 E.02656
G1 X99.896 Y93.829 E.02657
G1 X100.359 Y93.618 E.02187
G1 X100.838 Y93.448 E.02187
G1 X101.438 Y93.298 E.02656
G1 X102.048 Y93.213 E.02649
G1 X102.609 Y93.191 E.02415
G1 X103.17 Y93.222 E.02415
G1 X103.778 Y93.319 E.02648
G1 X104.375 Y93.479 E.02657
G1 X104.848 Y93.656 E.02172
G1 X105.404 Y93.927 E.02657
G1 X105.928 Y94.254 E.02657
G1 X106.328 Y94.561 E.02172
G1 X106.78 Y94.983 E.02657
G1 X107.183 Y95.447 E.02642
G1 X107.538 Y95.953 E.02657
G1 X107.786 Y96.392 E.02172
G1 X108.039 Y96.96 E.02672
G1 X108.199 Y97.439 E.02172
G1 X108.338 Y98.041 E.02657
G1 X108.414 Y98.654 E.02656
G1 X108.427 Y99.163 E.02187
G1 X108.396 Y99.671 E.02187
G1 X108.299 Y100.281 E.02656
G1 X108.14 Y100.874 E.02642
G1 X107.919 Y101.451 E.02657
G1 X107.694 Y101.903 E.02172
G1 X107.364 Y102.43 E.02672
G1 X107.057 Y102.831 E.02172
G1 X106.635 Y103.283 E.02657
G1 X106.169 Y103.688 E.02657
