; generated by PrusaSlicer 2.4.0+linux-x64 on 2022-01-31 at 06:02:21 UTC


;
;

;
;
; TODO: check the size of the extruder and the y-bar clearance. Optimize & test supports.

; external perimeters extrusion width = 0.42mm
; perimeters extrusion width = 0.44mm
; infill extrusion width = 0.44mm
; solid infill extrusion width = 0.44mm
; top infill extrusion width = 0.44mm
; first layer extrusion width = 0.56mm

M107
M190 S55 ; set bed temperature and wait for it to be reached
M104 S215 ; set temperature
;TYPE:Custom
; M190 S0
; M109 S0 ; uncomment to remove set&wait temp gcode added automatically after this start gcode
print_start EXTRUDER=215 BED=55
M109 S215 ; set temperature and wait for it to be reached
G21 ; set units to millimeters
G90 ; use absolute coordinates
M83 ; use relative distances for extrusion
M107
;LAYER_CHANGE
;Z:0.2
;HEIGHT:0.2
;BEFORE_LAYER_CHANGE
;0.2


G1 Z.2 F18000
;AFTER_LAYER_CHANGE
;0.2
G1 E-2 F3000
G1 Z.6 F18000
G1 X45.137 Y48.086
G1 Z.2
G1 E2 F1800
M204 S1000
;TYPE:Skirt/Brim
;WIDTH:0.56
G1 X46.994 Y46.344 E.10945
G1 X48.575 Y45.165 E.0848
G1 X50.869 Y43.828 E.11418
G1 X53.3 Y42.806 E.11334
G1 X55.682 Y42.139 E.10639
G1 X58.294 Y41.749 E.11352
G1 X60.28 Y41.68 E.08546
G1 X62.029 Y41.779 E.07531
G1 X63.592 Y41.996 E.06787
G1 X66.373 Y42.696 E.12329
G1 X67.849 Y43.243 E.06769
G1 X69.44 Y43.986 E.07549
G1 X71.886 Y45.484 E.12329
G1 X73.266 Y46.561 E.0753
G1 X74.436 Y47.638 E.06835
G1 X76.303 Y49.774 E.12197
G1 X77.777 Y52.007 E.11503
G1 X78.578 Y53.564 E.07531
G1 X79.188 Y55.032 E.06835
G1 X79.731 Y56.718 E.07615
G1 X80.153 Y58.6 E.08292
G1 X85.342 Y90.719 E1.39885
G1 X85.323 Y91.668 E.04083
G1 X85.156 Y92.603 E.04082
G1 X84.845 Y93.5 E.04083
G1 X84.398 Y94.337 E.04082
G1 X83.825 Y95.094 E.04083
G1 X83.14 Y95.752 E.04082
G1 X82.361 Y96.295 E.04083
G1 X81.507 Y96.71 E.04084
G1 X80.104 Y97.073 E.06229
G1 X78.63 Y97.089 E.0634
G1 X77.269 Y96.775 E.06005
G1 X75.95 Y96.113 E.06343
G1 X43.795 Y74.099 E1.67548
G1 X42.417 Y72.605 E.08739
G1 X41.587 Y71.063 E.07531
G1 X40.877 Y69.419 E.07699
G1 X40.1 Y66.9 E.11334
G1 X39.651 Y64.282 E.11418
G1 X39.541 Y61.806 E.10657
G1 X39.756 Y59.163 E.114
G1 X40.312 Y56.567 E.11418
G1 X40.94 Y54.697 E.0848
G1 X42.055 Y52.308 E.11334
G1 X43.373 Y50.214 E.10638
G1 X45.094 Y48.127 E.11631
M204 S3000
G1 X45.446 Y48.503 F18000
M204 S1000
G1 F1800
G1 X47.329 Y46.737 E.11099
G1 X48.856 Y45.598 E.08189
G1 X51.092 Y44.294 E.1113
G1 X53.461 Y43.298 E.11048
G1 X55.8 Y42.642 E.10446
G1 X58.345 Y42.264 E.11064
G1 X60.264 Y42.197 E.08255
G1 X61.969 Y42.293 E.07341
G1 X63.51 Y42.506 E.06689
G1 X66.204 Y43.184 E.11945
G1 X67.659 Y43.724 E.06673
G1 X69.209 Y44.449 E.07357
G1 X71.578 Y45.9 E.11945
G1 X72.924 Y46.949 E.0734
G1 X74.077 Y48.011 E.06739
G1 X75.885 Y50.08 E.11813
G1 X77.323 Y52.255 E.11212
G1 X78.105 Y53.773 E.0734
G1 X78.706 Y55.22 E.06739
G1 X79.234 Y56.864 E.07423
G1 X79.643 Y58.683 E.08015
G1 X84.824 Y90.724 E1.39551
G1 X84.811 Y91.592 E.03734
G1 X84.656 Y92.473 E.03845
G1 X84.371 Y93.294 E.03734
G1 X83.962 Y94.059 E.03733
G1 X83.437 Y94.752 E.03734
G1 X82.811 Y95.353 E.03733
G1 X82.099 Y95.85 E.03734
G1 X81.317 Y96.229 E.03735
G1 X80.037 Y96.56 E.05687
G1 X78.688 Y96.575 E.05798
G1 X77.442 Y96.287 E.05501
G1 X76.236 Y95.682 E.05801
G1 X44.087 Y73.672 E1.67513
G1 X42.866 Y72.348 E.07746
G1 X42.056 Y70.845 E.07341
G1 X41.426 Y69.406 E.06754
G1 X40.818 Y67.605 E.08173
G1 X40.272 Y65.074 E.1113
G1 X40.058 Y62.495 E.1113
G1 X40.178 Y59.928 E.11048
G1 X40.632 Y57.379 E.1113
G1 X41.355 Y55.056 E.10462
G1 X42.423 Y52.715 E.11064
G1 X43.798 Y50.508 E.11179
G1 X45.408 Y48.549 E.10903
M204 S3000
G1 X45.806 Y48.877 F18000
M204 S1000
G1 F1800
G1 X47.665 Y47.13 E.10964
G1 X49.138 Y46.032 E.07898
G1 X51.315 Y44.761 E.10841
G1 X53.622 Y43.789 E.10761
G1 X55.918 Y43.146 E.10254
G1 X58.397 Y42.778 E.10775
G1 X60.248 Y42.713 E.07964
G1 X62.762 Y42.909 E.10841
G1 X64.397 Y43.216 E.0715
G1 X65.89 Y43.626 E.06656
G1 X68.376 Y44.61 E.11494
G1 X69.844 Y45.391 E.0715
G1 X71.144 Y46.226 E.06642
G1 X73.211 Y47.896 E.11429
G1 X74.957 Y49.741 E.10921
G1 X75.962 Y51.066 E.0715
G1 X76.792 Y52.369 E.06642
G1 X77.968 Y54.753 E.11429
G1 X78.738 Y57.01 E.10253
G1 X79.133 Y58.766 E.07739
G1 X84.304 Y90.694 E1.39065
G1 X84.302 Y91.481 E.03385
G1 X84.177 Y92.259 E.03385
G1 X83.931 Y93.007 E.03384
G1 X83.572 Y93.707 E.03385
G1 X83.108 Y94.343 E.03385
G1 X82.503 Y94.938 E.03647
G1 X81.859 Y95.391 E.03385
G1 X81.152 Y95.738 E.03386
G1 X79.969 Y96.047 E.05257
G1 X78.747 Y96.061 E.05256
G1 X77.557 Y95.779 E.05259
G1 X76.475 Y95.22 E.05231
G1 X44.38 Y73.246 E1.67243
G1 X43.314 Y72.091 E.06753
G1 X42.525 Y70.628 E.0715
G1 X41.904 Y69.209 E.06656
G1 X41.318 Y67.472 E.07884
G1 X40.785 Y65.007 E.10841
G1 X40.575 Y62.494 E.10841
G1 X40.691 Y59.994 E.10761
G1 X41.132 Y57.512 E.10841
G1 X41.842 Y55.231 E.10268
G1 X42.883 Y52.951 E.10776
G1 X44.224 Y50.802 E.10893
G1 X45.768 Y48.923 E.10459
M204 S3000
G1 E-2 F3000
G1 Z.6 F18000
G1 X79.344 Y90.901
G1 Z.2
G1 E2 F1800
M204 S1000
;TYPE:Perimeter
G1 X79.424 Y90.944 E.0039
G1 X79.468 Y91.007 E.00332
G1 X79.48 Y91.069 E.0027
G1 X79.467 Y91.145 E.00332
G1 X79.432 Y91.197 E.0027
G1 X79.369 Y91.242 E.00332
G1 X79.307 Y91.254 E.0027
G1 X79.231 Y91.24 E.00332
G1 X79.179 Y91.206 E.0027
G1 X79.135 Y91.142 E.00332
G1 X79.121 Y91.075 E.00295
G1 X79.17 Y90.952 E.00568
G1 X79.284 Y90.897 E.00545
M204 S3000
G1 X79.303 Y90.376 F18000
M204 S1000
G1 F1800
G1 X79.45 Y90.392 E.00637
G1 X79.574 Y90.431 E.00561
G1 X79.692 Y90.495 E.00576
G1 X79.793 Y90.578 E.00561
G1 X79.889 Y90.697 E.00658
G1 X79.95 Y90.813 E.00561
G1 X79.988 Y90.941 E.00576
G1 X80 Y91.071 E.00561
G1 X79.984 Y91.224 E.00658
G1 X79.945 Y91.348 E.00561
G1 X79.881 Y91.466 E.00576
G1 X79.798 Y91.567 E.00561
G1 X79.679 Y91.663 E.00658
G1 X79.563 Y91.723 E.00561
G1 X79.435 Y91.761 E.00576
G1 X79.305 Y91.774 E.00561
G1 X79.152 Y91.758 E.00658
G1 X79.028 Y91.719 E.00561
G1 X78.91 Y91.655 E.00577
G1 X78.81 Y91.572 E.00561
G1 X78.713 Y91.453 E.00658
G1 X78.653 Y91.337 E.00561
G1 X78.615 Y91.208 E.00576
G1 X78.602 Y91.075 E.00576
G1 X78.615 Y90.941 E.00576
G1 X78.652 Y90.816 E.00561
G1 X78.724 Y90.681 E.00658
G1 X78.805 Y90.583 E.00546
G1 X78.924 Y90.487 E.00658
G1 X79.039 Y90.427 E.00561
G1 X79.243 Y90.381 E.00897
M204 S3000
G1 X78.639 Y90.052 F18000
M204 S1000
;TYPE:External perimeter
G1 F1800
G1 X78.845 Y89.945 E.00999
G1 X79.069 Y89.879 E.01004
G1 X79.3 Y89.856 E.01001
G1 X79.556 Y89.883 E.01105
G1 X79.777 Y89.953 E.00999
G1 X79.983 Y90.064 E.01004
G1 X80.162 Y90.212 E.00999
G1 X80.324 Y90.412 E.01106
G1 X80.431 Y90.618 E.00999
G1 X80.498 Y90.842 E.01004
G1 X80.52 Y91.074 E.00999
G1 X80.493 Y91.329 E.01106
G1 X80.423 Y91.551 E.00999
G1 X80.312 Y91.756 E.01004
G1 X80.164 Y91.936 E.00999
G1 X79.964 Y92.097 E.01106
G1 X79.758 Y92.205 E.00999
G1 X79.534 Y92.271 E.01005
G1 X79.302 Y92.293 E.00999
G1 X79.047 Y92.267 E.01106
G1 X78.825 Y92.197 E.00999
G1 X78.62 Y92.085 E.01005
G1 X78.44 Y91.937 E.00999
G1 X78.279 Y91.738 E.01106
G1 X78.171 Y91.531 E.00999
G1 X78.105 Y91.307 E.01004
G1 X78.083 Y91.075 E.01005
G1 X78.105 Y90.842 E.01005
G1 X78.171 Y90.62 E.00999
G1 X78.292 Y90.392 E.01106
G1 X78.439 Y90.214 E.00994
G1 X78.592 Y90.09 E.00848
M204 S3000
G1 X78.846 Y90.157 F18000
G1 E-2 F3000
G1 Z.6 F18000
G1 X65.458 Y71.759
G1 Z.2
G1 E2 F1800
M204 S1000
;TYPE:Perimeter
G1 X62.937 Y70.593 E.11941
G1 X61.099 Y69.773 E.08654
G1 X59.566 Y69.127 E.07152
G1 X58.358 Y68.703 E.05504
G1 X57.703 Y68.518 E.02927
G1 X56.429 Y68.236 E.05612
G1 X55.667 Y68.103 E.03327
G1 X54.797 Y67.975 E.03777
G1 X53.294 Y67.822 E.06499
G1 X51.937 Y67.781 E.05837
G1 X50.736 Y67.837 E.05169
G1 X49.441 Y68 E.05611
G1 X48.766 Y68.128 E.02953
G1 X48.103 Y68.282 E.02925
G1 X47.023 Y68.598 E.0484
G1 X46.715 Y67.942 E.03116
G1 X46.476 Y67.362 E.02698
G1 X46.263 Y66.772 E.02699
G1 X46.075 Y66.173 E.02698
G1 X45.914 Y65.567 E.02699
G1 X45.779 Y64.954 E.02698
G1 X45.67 Y64.336 E.02698
G1 X45.589 Y63.713 E.02698
G1 X45.534 Y63.088 E.02698
G1 X45.507 Y62.461 E.02698
G1 X45.506 Y61.834 E.02698
G1 X45.533 Y61.207 E.02698
G1 X45.587 Y60.581 E.02698
G1 X45.668 Y59.959 E.02698
G1 X45.776 Y59.341 E.02698
G1 X45.908 Y58.74 E.02644
G1 X46.071 Y58.121 E.02755
G1 X46.258 Y57.522 E.02696
G1 X46.471 Y56.932 E.02698
G1 X46.709 Y56.351 E.02698
G1 X46.972 Y55.781 E.02698
G1 X47.259 Y55.223 E.02698
G1 X47.571 Y54.678 E.02698
G1 X47.905 Y54.147 E.02698
G1 X48.262 Y53.632 E.02698
G1 X48.642 Y53.131 E.02698
G1 X49.042 Y52.648 E.02698
G1 X49.463 Y52.183 E.02698
G1 X49.904 Y51.736 E.02698
G1 X50.364 Y51.309 E.02698
G1 X50.841 Y50.902 E.02698
G1 X51.336 Y50.516 E.02698
G1 X51.848 Y50.152 E.02698
G1 X52.374 Y49.811 E.02698
G1 X52.915 Y49.492 E.02698
G1 X53.469 Y49.197 E.02698
G1 X54.035 Y48.927 E.02698
G1 X54.612 Y48.681 E.02698
G1 X55.2 Y48.46 E.02699
G1 X55.797 Y48.266 E.02698
G1 X56.401 Y48.097 E.02698
G1 X57.012 Y47.954 E.02698
G1 X57.629 Y47.838 E.02698
G1 X58.25 Y47.749 E.02698
G1 X58.875 Y47.687 E.02698
G1 X59.492 Y47.652 E.02658
G1 X60.435 Y47.653 E.04055
G1 X61.391 Y47.71 E.0412
G1 X62.005 Y47.782 E.02657
G1 X62.625 Y47.882 E.02698
G1 X63.239 Y48.009 E.02698
G1 X63.848 Y48.163 E.02698
G1 X64.449 Y48.342 E.02698
G1 X65.042 Y48.548 E.02698
G1 X65.625 Y48.779 E.02698
G1 X66.198 Y49.035 E.02698
G1 X66.76 Y49.315 E.02698
G1 X67.309 Y49.62 E.02698
G1 X67.844 Y49.948 E.02698
G1 X68.364 Y50.299 E.02698
G1 X68.868 Y50.672 E.02698
G1 X69.357 Y51.066 E.02699
G1 X69.827 Y51.482 E.02698
G1 X70.279 Y51.917 E.02699
G1 X70.712 Y52.372 E.02698
G1 X71.125 Y52.844 E.02698
G1 X71.516 Y53.334 E.02698
G1 X71.887 Y53.841 E.02698
G1 X72.235 Y54.363 E.02698
G1 X72.56 Y54.9 E.02698
G1 X72.861 Y55.451 E.02698
G1 X73.139 Y56.013 E.02698
G1 X73.392 Y56.588 E.02699
G1 X73.619 Y57.173 E.02698
G1 X73.822 Y57.767 E.02699
G1 X73.998 Y58.369 E.02698
G1 X74.148 Y58.978 E.02698
G1 X74.272 Y59.594 E.02698
G1 X74.368 Y60.214 E.02698
G1 X74.438 Y60.837 E.02698
G1 X74.481 Y61.463 E.02698
G1 X74.497 Y62.091 E.02698
G1 X74.485 Y62.718 E.02698
G1 X74.447 Y63.345 E.02698
G1 X74.381 Y63.969 E.02699
G1 X74.253 Y64.774 E.03504
G1 X66.184 Y72.095 E.46843
G1 X65.512 Y71.784 E.03182
M204 S3000
G1 X65.915 Y72.54 F18000
M204 S1000
G1 F1800
G1 X62.723 Y71.064 E.15119
G1 X60.893 Y70.247 E.08616
G1 X59.38 Y69.61 E.0706
G1 X58.202 Y69.197 E.05367
G1 X57.577 Y69.02 E.02794
G1 X56.329 Y68.743 E.05497
G1 X55.585 Y68.614 E.03247
G1 X54.734 Y68.488 E.03698
G1 X53.26 Y68.339 E.06371
G1 X51.941 Y68.299 E.05672
G1 X50.78 Y68.353 E.04995
G1 X49.522 Y68.512 E.05455
G1 X48.873 Y68.634 E.02839
G1 X48.231 Y68.783 E.02834
G1 X47.59 Y68.96 E.02855
G1 X46.769 Y69.233 E.03722
G1 X46.514 Y68.739 E.02388
G1 X46.241 Y68.149 E.02795
G1 X45.994 Y67.548 E.02794
G1 X45.773 Y66.937 E.02795
G1 X45.579 Y66.317 E.02794
G1 X45.411 Y65.689 E.02795
G1 X45.271 Y65.054 E.02794
G1 X45.159 Y64.414 E.02795
G1 X45.075 Y63.77 E.02794
G1 X45.018 Y63.122 E.02795
G1 X44.99 Y62.473 E.02795
G1 X44.989 Y61.823 E.02795
G1 X45.017 Y61.173 E.02794
G1 X45.073 Y60.526 E.02795
G1 X45.157 Y59.881 E.02795
G1 X45.268 Y59.241 E.02794
G1 X45.405 Y58.619 E.0274
G1 X45.574 Y57.978 E.02851
G1 X45.768 Y57.357 E.02793
G1 X45.988 Y56.746 E.02794
G1 X46.235 Y56.145 E.02795
G1 X46.507 Y55.554 E.02795
G1 X46.805 Y54.977 E.02794
G1 X47.127 Y54.412 E.02794
G1 X47.474 Y53.862 E.02795
G1 X47.844 Y53.328 E.02795
G1 X48.236 Y52.81 E.02795
G1 X48.651 Y52.31 E.02794
G1 X49.087 Y51.828 E.02794
G1 X49.544 Y51.365 E.02795
G1 X50.02 Y50.923 E.02795
G1 X50.515 Y50.501 E.02794
G1 X51.027 Y50.102 E.02794
G1 X51.557 Y49.725 E.02795
G1 X52.102 Y49.371 E.02795
G1 X52.662 Y49.041 E.02795
G1 X53.236 Y48.736 E.02794
G1 X53.822 Y48.455 E.02795
G1 X54.42 Y48.201 E.02794
G1 X55.029 Y47.972 E.02795
G1 X55.647 Y47.771 E.02794
G1 X56.273 Y47.596 E.02795
G1 X56.906 Y47.448 E.02795
G1 X57.544 Y47.328 E.02794
G1 X58.188 Y47.235 E.02795
G1 X58.834 Y47.171 E.02795
G1 X59.478 Y47.135 E.0277
G1 X60.451 Y47.136 E.04183
G1 X61.437 Y47.195 E.04248
G1 X62.077 Y47.27 E.02769
G1 X62.718 Y47.374 E.02794
G1 X63.355 Y47.505 E.02795
G1 X63.985 Y47.664 E.02794
G1 X64.608 Y47.85 E.02795
G1 X65.222 Y48.063 E.02795
G1 X65.826 Y48.302 E.02794
G1 X66.42 Y48.567 E.02795
G1 X67.001 Y48.858 E.02794
G1 X67.569 Y49.173 E.02795
G1 X68.123 Y49.513 E.02795
G1 X68.662 Y49.876 E.02794
G1 X69.185 Y50.263 E.02794
G1 X69.69 Y50.671 E.02795
G1 X70.178 Y51.102 E.02794
G1 X70.646 Y51.552 E.02795
G1 X71.094 Y52.023 E.02795
G1 X71.521 Y52.513 E.02794
G1 X71.927 Y53.02 E.02795
G1 X72.311 Y53.545 E.02795
G1 X72.671 Y54.086 E.02795
G1 X73.008 Y54.642 E.02794
G1 X73.32 Y55.212 E.02795
G1 X73.608 Y55.795 E.02794
G1 X73.87 Y56.39 E.02795
G1 X74.105 Y56.995 E.02794
G1 X74.315 Y57.611 E.02795
G1 X74.497 Y58.234 E.02794
G1 X74.653 Y58.866 E.02795
G1 X74.781 Y59.503 E.02795
G1 X74.881 Y60.145 E.02794
G1 X74.953 Y60.791 E.02795
G1 X74.998 Y61.439 E.02794
G1 X75.014 Y62.089 E.02795
G1 X75.002 Y62.739 E.02795
G1 X74.962 Y63.388 E.02794
G1 X74.894 Y64.034 E.02795
G1 X74.728 Y65.041 E.04388
G1 X66.278 Y72.708 E.49056
G1 X65.969 Y72.565 E.01462
M204 S3000
G1 X66.372 Y73.321 F18000
M204 S1000
;TYPE:External perimeter
G1 F1800
G1 X62.509 Y71.535 E.18296
G1 X60.688 Y70.722 E.08578
G1 X59.194 Y70.092 E.06968
G1 X58.046 Y69.69 E.05229
G1 X57.451 Y69.521 E.02662
G1 X56.228 Y69.251 E.05382
G1 X54.67 Y69.002 E.06786
G1 X53.225 Y68.855 E.06242
G1 X51.945 Y68.816 E.05508
G1 X50.825 Y68.868 E.04822
G1 X49.602 Y69.023 E.05299
G1 X48.979 Y69.14 E.02725
G1 X48.358 Y69.284 E.02743
G1 X47.738 Y69.455 E.02764
G1 X47.122 Y69.653 E.0278
G1 X46.535 Y69.873 E.02698
G1 X46.358 Y69.564 E.01529
G1 X46.05 Y68.967 E.02891
G1 X45.767 Y68.356 E.02891
G1 X45.511 Y67.735 E.0289
G1 X45.283 Y67.102 E.02891
G1 X45.082 Y66.461 E.02891
G1 X44.909 Y65.811 E.02891
G1 X44.764 Y65.155 E.02891
G1 X44.648 Y64.492 E.02891
G1 X44.56 Y63.826 E.02891
G1 X44.502 Y63.156 E.02891
G1 X44.472 Y62.484 E.02891
G1 X44.472 Y61.812 E.02891
G1 X44.501 Y61.14 E.02891
G1 X44.559 Y60.47 E.02891
G1 X44.645 Y59.803 E.02891
G1 X44.761 Y59.141 E.02891
G1 X44.902 Y58.497 E.02835
G1 X45.077 Y57.834 E.02947
G1 X45.278 Y57.193 E.02891
G1 X45.505 Y56.56 E.02891
G1 X45.761 Y55.938 E.02891
G1 X46.042 Y55.328 E.02891
G1 X46.35 Y54.73 E.02891
G1 X46.684 Y54.146 E.02891
G1 X47.042 Y53.577 E.02891
G1 X47.425 Y53.024 E.02891
G1 X47.831 Y52.489 E.02891
G1 X48.26 Y51.971 E.02891
G1 X48.711 Y51.473 E.02891
G1 X49.184 Y50.994 E.02891
G1 X49.676 Y50.536 E.02891
G1 X50.188 Y50.1 E.02891
G1 X50.718 Y49.687 E.02891
G1 X51.266 Y49.297 E.02891
G1 X51.83 Y48.931 E.02891
G1 X52.409 Y48.59 E.02891
G1 X53.003 Y48.274 E.02891
G1 X53.609 Y47.984 E.02891
G1 X54.228 Y47.721 E.02891
G1 X54.858 Y47.484 E.02891
G1 X55.497 Y47.276 E.02891
G1 X56.144 Y47.095 E.02891
G1 X56.799 Y46.942 E.02891
G1 X57.46 Y46.818 E.02891
G1 X58.125 Y46.722 E.02891
G1 X58.794 Y46.655 E.02891
G1 X59.464 Y46.618 E.02882
G1 X60.466 Y46.619 E.04311
G1 X61.482 Y46.679 E.04377
G1 X62.148 Y46.758 E.02882
G1 X62.812 Y46.865 E.02891
G1 X63.47 Y47.001 E.02891
G1 X64.122 Y47.165 E.02891
G1 X64.766 Y47.358 E.02891
G1 X65.402 Y47.578 E.02891
G1 X66.027 Y47.825 E.02891
G1 X66.641 Y48.1 E.02891
G1 X67.242 Y48.4 E.02891
G1 X67.83 Y48.727 E.02891
G1 X68.403 Y49.078 E.02891
G1 X68.961 Y49.454 E.02891
G1 X69.501 Y49.854 E.02891
G1 X70.024 Y50.276 E.02891
G1 X70.528 Y50.721 E.02891
G1 X71.013 Y51.188 E.02891
G1 X71.476 Y51.675 E.02891
G1 X71.918 Y52.181 E.02891
G1 X72.338 Y52.706 E.02891
G1 X72.735 Y53.249 E.02891
G1 X73.108 Y53.809 E.02891
G1 X73.456 Y54.384 E.02891
G1 X73.779 Y54.973 E.02891
G1 X74.076 Y55.576 E.02891
G1 X74.347 Y56.192 E.02891
G1 X74.591 Y56.818 E.0289
G1 X74.808 Y57.455 E.02891
G1 X74.997 Y58.1 E.0289
G1 X75.158 Y58.753 E.02891
G1 X75.29 Y59.412 E.02891
G1 X75.394 Y60.076 E.02891
G1 X75.469 Y60.744 E.02891
G1 X75.514 Y61.415 E.02891
G1 X75.531 Y62.087 E.02891
G1 X75.519 Y62.76 E.02891
G1 X75.478 Y63.431 E.02891
G1 X75.407 Y64.099 E.02891
G1 X75.308 Y64.764 E.02891
G1 X75.203 Y65.308 E.02383
G1 X66.416 Y73.281 E.5101
M204 S3000
G1 X66.184 Y72.968 F18000
G1 E-2 F3000
G1 Z.6 F18000
G1 X68.129 Y50.359
G1 Z.2
G1 E2 F1800
M204 S1000
;TYPE:Solid infill
;WIDTH:0.569215
G1 X70.116 Y52.345 E.12295
