; generated by PrusaSlicer 2.4.0+linux-x64 on 2022-01-31 at 06:15:21 UTC


;
;

;
;
; TODO: check the size of the extruder and the y-bar clearance. Optimize & test supports.

; external perimeters extrusion width = 0.42mm
; perimeters extrusion width = 0.44mm
; infill extrusion width = 0.44mm
; solid infill extrusion width = 0.44mm
; top infill extrusion width = 0.44mm
; first layer extrusion width = 0.56mm

M107
M190 S55 ; set bed temperature and wait for it to be reached
M104 S215 ; set temperature
;TYPE:Custom
; M190 S0
; M109 S0 ; uncomment to remove set&wait temp gcode added automatically after this start gcode
print_start EXTRUDER=215 BED=55
M109 S215 ; set temperature and wait for it to be reached
G21 ; set units to millimeters
G90 ; use absolute coordinates
M83 ; use relative distances for extrusion
M107
;LAYER_CHANGE
;Z:0.2
;HEIGHT:0.2
;BEFORE_LAYER_CHANGE
;0.2


G1 Z.2 F18000
;AFTER_LAYER_CHANGE
;0.2
G1 E-2 F3000
G1 Z.6 F18000
G1 X16.968 Y90.166
G1 Z.2
G1 E2 F1800
M204 S1000
;TYPE:Skirt/Brim
;WIDTH:0.56
G1 X18.241 Y89.998 E.05518
G1 X19.526 Y89.953 E.05529
G1 X20.807 Y90.032 E.05517
G1 X22.077 Y90.233 E.05529
G1 X23.432 Y90.59 E.06024
G1 X24.634 Y91.039 E.05518
G1 X25.79 Y91.603 E.05529
G1 X26.884 Y92.273 E.05518
G1 X27.999 Y93.122 E.06025
G1 X28.94 Y93.999 E.05529
G1 X29.864 Y95.052 E.06025
G1 X30.609 Y96.097 E.05517
G1 X31.252 Y97.211 E.05529
G1 X31.784 Y98.378 E.05518
G1 X32.203 Y99.594 E.05528
G1 X32.502 Y100.842 E.05518
G1 X32.691 Y102.23 E.06025
G1 X32.736 Y103.516 E.05529
G1 X32.658 Y104.796 E.05518
G1 X32.457 Y106.067 E.05529
G1 X32.135 Y107.309 E.05518
G1 X31.65 Y108.624 E.06024
G1 X31.087 Y109.78 E.0553
G1 X30.416 Y110.874 E.05517
G1 X29.568 Y111.989 E.06025
G1 X28.691 Y112.93 E.05529
G1 X27.638 Y113.853 E.06024
G1 X26.593 Y114.599 E.05518
G1 X25.479 Y115.242 E.05529
G1 X24.311 Y115.774 E.05518
G1 X23.096 Y116.192 E.05528
G1 X21.732 Y116.514 E.06025
G1 X20.459 Y116.681 E.05518
G1 X19.174 Y116.726 E.05529
G1 X17.893 Y116.648 E.05517
G1 X16.623 Y116.446 E.05529
G1 X15.381 Y116.125 E.05518
G1 X14.066 Y115.64 E.06024
G1 X12.91 Y115.077 E.05529
G1 X11.816 Y114.406 E.05518
G1 X10.701 Y113.558 E.06025
G1 X9.76 Y112.681 E.0553
G1 X8.836 Y111.627 E.06024
G1 X8.091 Y110.583 E.05517
G1 X7.448 Y109.469 E.05529
G1 X6.916 Y108.301 E.05518
G1 X6.497 Y107.085 E.05528
G1 X6.198 Y105.837 E.05519
G1 X6.009 Y104.449 E.06024
G1 X5.964 Y103.164 E.05529
G1 X6.042 Y101.883 E.05518
G1 X6.243 Y100.613 E.0553
G1 X6.6 Y99.258 E.06024
G1 X7.049 Y98.056 E.05518
G1 X7.613 Y96.9 E.05529
G1 X8.284 Y95.806 E.05518
G1 X9.058 Y94.779 E.05529
G1 X10.009 Y93.75 E.06025
G1 X10.97 Y92.899 E.05518
G1 X12.01 Y92.144 E.05528
G1 X13.221 Y91.438 E.06025
G1 X14.389 Y90.906 E.05518
G1 X15.604 Y90.487 E.05529
G1 X16.91 Y90.18 E.05767
M204 S3000
G1 X17.028 Y90.682 F18000
M204 S1000
G1 F1800
G1 X18.281 Y90.514 E.05436
G1 X19.521 Y90.47 E.05335
G1 X20.748 Y90.546 E.05284
G1 X21.974 Y90.74 E.05335
G1 X23.276 Y91.083 E.05792
G1 X24.428 Y91.513 E.05285
G1 X25.543 Y92.057 E.05335
G1 X26.591 Y92.7 E.05285
G1 X27.664 Y93.515 E.05792
G1 X28.571 Y94.361 E.05335
G1 X29.459 Y95.374 E.05792
G1 X30.173 Y96.375 E.05284
G1 X30.793 Y97.449 E.05335
G1 X31.303 Y98.568 E.05285
G1 X31.707 Y99.741 E.05335
G1 X31.994 Y100.936 E.05285
G1 X32.167 Y102.165 E.05334
G1 X32.219 Y103.511 E.05792
G1 X32.144 Y104.738 E.05285
G1 X31.95 Y105.964 E.05335
G1 X31.642 Y107.154 E.05285
G1 X31.176 Y108.417 E.05791
G1 X30.632 Y109.533 E.05335
G1 X29.99 Y110.581 E.05285
G1 X29.175 Y111.653 E.05792
G1 X28.329 Y112.561 E.05335
G1 X27.316 Y113.449 E.05792
G1 X26.315 Y114.163 E.05285
G1 X25.24 Y114.783 E.05335
G1 X24.122 Y115.293 E.05285
G1 X22.846 Y115.726 E.05792
G1 X21.637 Y116.005 E.05334
G1 X20.419 Y116.166 E.05285
G1 X19.178 Y116.209 E.05335
G1 X17.952 Y116.134 E.05284
G1 X16.726 Y115.94 E.05335
G1 X15.536 Y115.632 E.05285
G1 X14.272 Y115.166 E.05792
G1 X13.157 Y114.622 E.05335
G1 X12.109 Y113.98 E.05285
G1 X11.036 Y113.165 E.05792
G1 X10.129 Y112.318 E.05336
G1 X9.241 Y111.305 E.05792
G1 X8.527 Y110.305 E.05284
G1 X7.907 Y109.23 E.05335
G1 X7.397 Y108.112 E.05285
G1 X6.993 Y106.938 E.05335
G1 X6.706 Y105.743 E.05286
G1 X6.524 Y104.408 E.05791
G1 X6.481 Y103.168 E.05335
G1 X6.556 Y101.941 E.05285
G1 X6.75 Y100.716 E.05336
G1 X7.093 Y99.413 E.05791
G1 X7.524 Y98.262 E.05285
G1 X8.068 Y97.147 E.05335
G1 X8.71 Y96.099 E.05285
G1 X9.525 Y95.026 E.05792
G1 X10.371 Y94.119 E.05335
G1 X11.292 Y93.304 E.05285
G1 X12.385 Y92.517 E.05792
G1 X13.459 Y91.896 E.05334
G1 X14.578 Y91.387 E.05285
G1 X15.751 Y90.983 E.05335
G1 X16.97 Y90.696 E.05382
M204 S3000
G1 X17.088 Y91.199 F18000
M204 S1000
G1 F1800
G1 X18.322 Y91.029 E.05355
G1 X19.517 Y90.988 E.05141
G1 X20.807 Y91.073 E.05559
G1 X21.966 Y91.267 E.05053
G1 X23.121 Y91.576 E.0514
G1 X24.221 Y91.988 E.05052
G1 X25.296 Y92.512 E.05141
G1 X26.298 Y93.126 E.05052
G1 X27.328 Y93.908 E.0556
G1 X28.202 Y94.723 E.05141
G1 X29.054 Y95.696 E.05559
G1 X29.737 Y96.652 E.05052
G1 X30.335 Y97.688 E.05141
G1 X30.822 Y98.757 E.05052
G1 X31.211 Y99.888 E.05141
G1 X31.485 Y101.03 E.05052
G1 X31.66 Y102.312 E.05559
G1 X31.702 Y103.507 E.05141
G1 X31.63 Y104.679 E.05052
G1 X31.443 Y105.86 E.05141
G1 X31.149 Y106.998 E.05052
G1 X30.702 Y108.211 E.05559
G1 X30.178 Y109.286 E.05141
G1 X29.564 Y110.288 E.05052
G1 X28.782 Y111.318 E.0556
G1 X27.966 Y112.192 E.05141
G1 X26.994 Y113.044 E.05559
G1 X26.037 Y113.726 E.05052
G1 X25.002 Y114.324 E.05141
G1 X23.932 Y114.812 E.05052
G1 X22.708 Y115.228 E.0556
G1 X21.543 Y115.497 E.0514
G1 X20.378 Y115.65 E.05052
G1 X19.183 Y115.692 E.05141
G1 X17.893 Y115.607 E.05559
G1 X16.734 Y115.413 E.05053
G1 X15.579 Y115.103 E.05141
G1 X14.478 Y114.692 E.05052
G1 X13.404 Y114.168 E.05141
G1 X12.402 Y113.554 E.05053
G1 X11.372 Y112.771 E.05559
G1 X10.498 Y111.956 E.05142
G1 X9.645 Y110.983 E.05559
G1 X8.963 Y110.027 E.05052
G1 X8.365 Y108.991 E.05141
G1 X7.878 Y107.922 E.05052
G1 X7.489 Y106.792 E.05141
G1 X7.214 Y105.649 E.05053
G1 X7.04 Y104.368 E.05559
G1 X6.998 Y103.173 E.05141
G1 X7.07 Y102 E.05052
G1 X7.257 Y100.819 E.05142
G1 X7.586 Y99.569 E.05559
G1 X7.998 Y98.468 E.05053
G1 X8.522 Y97.393 E.05141
G1 X9.136 Y96.391 E.05052
G1 X9.918 Y95.362 E.0556
G1 X10.734 Y94.487 E.05141
G1 X11.614 Y93.709 E.05053
G1 X12.581 Y93.006 E.0514
G1 X13.698 Y92.355 E.05559
G1 X14.768 Y91.868 E.05053
G1 X15.898 Y91.478 E.05141
G1 X17.03 Y91.213 E.04997
M204 S3000
G1 X17.148 Y91.715 F18000
M204 S1000
G1 F1800
G1 X18.362 Y91.545 E.05274
G1 X19.512 Y91.505 E.04947
G1 X20.631 Y91.573 E.04819
G1 X21.768 Y91.753 E.04947
G1 X22.965 Y92.069 E.05326
G1 X24.015 Y92.462 E.0482
G1 X25.05 Y92.966 E.04947
G1 X26.005 Y93.552 E.0482
G1 X26.992 Y94.301 E.05327
G1 X27.833 Y95.086 E.04947
G1 X28.576 Y95.925 E.04819
G1 X29.252 Y96.856 E.04947
G1 X29.821 Y97.822 E.0482
G1 X30.341 Y98.947 E.05327
G1 X30.715 Y100.035 E.04947
G1 X30.977 Y101.125 E.0482
G1 X31.145 Y102.352 E.05326
G1 X31.185 Y103.502 E.04947
G1 X31.117 Y104.621 E.0482
G1 X30.937 Y105.757 E.04947
G1 X30.656 Y106.843 E.04819
G1 X30.228 Y108.005 E.05326
G1 X29.723 Y109.039 E.04947
G1 X29.138 Y109.995 E.04819
G1 X28.388 Y110.982 E.05327
G1 X27.604 Y111.823 E.04947
G1 X26.672 Y112.639 E.05326
G1 X25.759 Y113.29 E.04819
G1 X24.763 Y113.866 E.04947
G1 X23.743 Y114.331 E.0482
G1 X22.57 Y114.73 E.05327
G1 X21.449 Y114.988 E.04947
G1 X20.338 Y115.135 E.04819
G1 X19.188 Y115.175 E.04947
G1 X18.069 Y115.106 E.04819
G1 X16.932 Y114.926 E.04947
G1 X15.847 Y114.646 E.0482
G1 X14.685 Y114.218 E.05326
G1 X13.65 Y113.713 E.04947
G1 X12.695 Y113.128 E.0482
G1 X11.708 Y112.378 E.05327
G1 X10.866 Y111.593 E.04948
G1 X10.05 Y110.662 E.05326
G1 X9.399 Y109.749 E.04819
G1 X8.824 Y108.753 E.04947
G1 X8.359 Y107.733 E.04819
G1 X7.985 Y106.645 E.04947
G1 X7.723 Y105.555 E.0482
G1 X7.555 Y104.327 E.05326
G1 X7.515 Y103.177 E.04947
G1 X7.583 Y102.059 E.04819
G1 X7.763 Y100.922 E.04948
G1 X8.079 Y99.724 E.05326
G1 X8.472 Y98.674 E.0482
G1 X8.976 Y97.64 E.04947
G1 X9.562 Y96.684 E.04819
G1 X10.311 Y95.698 E.05327
G1 X11.096 Y94.856 E.04947
G1 X11.936 Y94.113 E.0482
G1 X12.866 Y93.437 E.04946
G1 X13.937 Y92.814 E.05327
G1 X14.957 Y92.349 E.0482
G1 X16.045 Y91.974 E.04947
G1 X17.089 Y91.729 E.04612
M204 S3000
G1 X17.207 Y92.232 F18000
M204 S1000
G1 F1800
G1 X18.403 Y92.06 E.05194
G1 X19.508 Y92.022 E.04753
G1 X20.69 Y92.1 E.05094
G1 X21.742 Y92.276 E.04587
G1 X22.81 Y92.562 E.04752
G1 X23.809 Y92.936 E.04587
G1 X24.803 Y93.421 E.04753
G1 X25.712 Y93.978 E.04587
G1 X26.656 Y94.694 E.05094
G1 X27.465 Y95.448 E.04753
G1 X28.245 Y96.34 E.05094
G1 X28.864 Y97.208 E.04586
G1 X29.417 Y98.166 E.04753
G1 X29.86 Y99.136 E.04587
G1 X30.22 Y100.182 E.04753
G1 X30.469 Y101.219 E.04587
G1 X30.622 Y102.314 E.04753
G1 X30.668 Y103.498 E.05094
G1 X30.603 Y104.562 E.04587
G1 X30.43 Y105.654 E.04753
G1 X30.163 Y106.687 E.04587
G1 X29.754 Y107.799 E.05094
G1 X29.269 Y108.793 E.04753
G1 X28.712 Y109.702 E.04587
G1 X27.995 Y110.646 E.05094
G1 X27.241 Y111.454 E.04753
G1 X26.35 Y112.235 E.05094
G1 X25.481 Y112.854 E.04587
G1 X24.524 Y113.407 E.04753
G1 X23.553 Y113.849 E.04587
G1 X22.508 Y114.209 E.04753
G1 X21.355 Y114.48 E.05094
G1 X20.297 Y114.619 E.04587
G1 X19.192 Y114.658 E.04753
G1 X18.127 Y114.593 E.04586
G1 X17.035 Y114.42 E.04753
G1 X16.003 Y114.153 E.04587
G1 X14.891 Y113.743 E.05094
G1 X13.897 Y113.259 E.04753
G1 X12.987 Y112.701 E.04587
G1 X12.044 Y111.985 E.05094
G1 X11.235 Y111.231 E.04754
G1 X10.528 Y110.432 E.04586
G1 X9.879 Y109.538 E.04753
G1 X9.337 Y108.619 E.04587
G1 X8.84 Y107.543 E.05094
G1 X8.48 Y106.498 E.04753
G1 X8.231 Y105.46 E.04587
G1 X8.07 Y104.287 E.05093
G1 X8.032 Y103.182 E.04753
G1 X8.097 Y102.117 E.04587
G1 X8.27 Y101.025 E.04754
G1 X8.573 Y99.88 E.05094
G1 X8.946 Y98.88 E.04587
G1 X9.431 Y97.887 E.04753
G1 X9.988 Y96.977 E.04587
G1 X10.705 Y96.033 E.05094
G1 X11.459 Y95.225 E.04753
G1 X12.258 Y94.518 E.04587
G1 X13.218 Y93.825 E.05094
G1 X14.176 Y93.272 E.04753
G1 X15.147 Y92.83 E.04587
G1 X16.192 Y92.47 E.04753
G1 X17.149 Y92.246 E.04226
M204 S3000
G1 X17.267 Y92.748 F18000
M204 S1000
G1 F1800
G1 X17.439 Y92.708 E.00764
G1 X19.503 Y92.539 E.08903
G1 X21.561 Y92.766 E.08903
G1 X22.654 Y93.055 E.04861
G1 X23.603 Y93.41 E.04354
G1 X25.42 Y94.404 E.08903
G1 X26.266 Y95.042 E.04559
G1 X27.096 Y95.811 E.04862
G1 X27.84 Y96.662 E.04861
G1 X28.428 Y97.486 E.04354
G1 X29.379 Y99.326 E.08903
G1 X29.96 Y101.313 E.08903
G1 X30.114 Y102.433 E.04861
G1 X30.151 Y103.493 E.04559
G1 X29.923 Y105.551 E.08903
G1 X29.67 Y106.532 E.04354
G1 X29.279 Y107.593 E.04861
G1 X28.286 Y109.409 E.08903
G1 X27.647 Y110.256 E.04559
G1 X26.879 Y111.086 E.04862
G1 X26.028 Y111.83 E.04861
G1 X25.204 Y112.418 E.04354
G1 X23.364 Y113.368 E.08903
G1 X22.293 Y113.733 E.04861
G1 X21.26 Y113.971 E.04559
G1 X19.197 Y114.141 E.08903
G1 X17.139 Y113.913 E.08903
G1 X16.158 Y113.659 E.04354
G1 X15.097 Y113.269 E.04861
G1 X13.28 Y112.275 E.08903
G1 X12.38 Y111.592 E.04861
G1 X11.604 Y110.869 E.0456
G1 X10.859 Y110.018 E.04861
G1 X10.271 Y109.193 E.04354
G1 X9.321 Y107.354 E.08903
G1 X8.74 Y105.366 E.08903
G1 X8.586 Y104.246 E.04861
G1 X8.549 Y103.186 E.04559
G1 X8.624 Y102.058 E.04861
G1 X8.791 Y101.059 E.04354
G1 X9.42 Y99.087 E.08903
G1 X10.414 Y97.27 E.08903
G1 X11.052 Y96.423 E.04559
G1 X11.821 Y95.594 E.04862
G1 X13.437 Y94.3 E.08903
G1 X14.414 Y93.731 E.04861
G1 X15.336 Y93.311 E.04354
G1 X16.339 Y92.966 E.04559
G1 X17.208 Y92.762 E.03839
M204 S3000
G1 X17.324 Y93.265 F18000
M204 S1000
G1 F1800
G1 X17.534 Y93.216 E.00925
G1 X19.499 Y93.056 E.08477
G1 X21.458 Y93.273 E.08477
G1 X22.499 Y93.549 E.04628
G1 X23.397 Y93.884 E.04121
G1 X25.127 Y94.83 E.08477
G1 X25.985 Y95.481 E.04629
G1 X26.727 Y96.173 E.04365
G1 X27.436 Y96.983 E.04628
G1 X27.992 Y97.764 E.04121
G1 X28.897 Y99.515 E.08477
G1 X29.452 Y101.407 E.08477
G1 X29.598 Y102.474 E.04628
G1 X29.634 Y103.488 E.04365
G1 X29.416 Y105.448 E.08477
G1 X29.176 Y106.376 E.04121
G1 X28.805 Y107.387 E.04628
G1 X27.859 Y109.116 E.08477
G1 X27.209 Y109.974 E.04629
G1 X26.516 Y110.717 E.04365
G1 X25.706 Y111.425 E.04628
G1 X24.926 Y111.982 E.04121
G1 X23.174 Y112.887 E.08477
G1 X22.214 Y113.218 E.04365
G1 X21.166 Y113.463 E.04629
G1 X19.201 Y113.624 E.08477
G1 X17.242 Y113.406 E.08477
G1 X16.314 Y113.166 E.04121
G1 X15.303 Y112.795 E.04628
G1 X13.573 Y111.849 E.08477
G1 X12.715 Y111.199 E.04629
G1 X11.973 Y110.506 E.04366
G1 X10.741 Y108.967 E.08476
G1 X10.254 Y108.141 E.04121
G1 X9.802 Y107.164 E.04629
G1 X9.248 Y105.272 E.08477
G1 X9.101 Y104.206 E.04628
G1 X9.066 Y103.191 E.04365
G1 X9.283 Y101.231 E.08477
G1 X9.559 Y100.191 E.04628
G1 X9.895 Y99.293 E.04122
G1 X10.84 Y97.563 E.08477
G1 X11.491 Y96.705 E.04629
G1 X12.183 Y95.963 E.04365
G1 X13.723 Y94.731 E.08476
G1 X14.653 Y94.19 E.04629
G1 X15.526 Y93.792 E.04122
G1 X16.545 Y93.445 E.04629
G1 X17.266 Y93.278 E.03182
M204 S3000
G1 E-2 F3000
G1 Z.6 F18000
G1 X19.123 Y98
G1 Z.2
G1 E2 F1800
M204 S1000
;TYPE:Perimeter
G1 X19.443 Y97.988 E.01377
G1 X20.008 Y98.028 E.02433
G1 X20.457 Y98.103 E.01959
G1 X21.004 Y98.25 E.02433
G1 X21.527 Y98.45 E.02409
G1 X22.031 Y98.707 E.02433
G1 X22.42 Y98.955 E.01983
G1 X22.786 Y99.236 E.01983
G1 X23.2 Y99.622 E.02433
G1 X23.567 Y100.045 E.02408
G1 X23.889 Y100.504 E.02409
G1 X24.163 Y100.999 E.02433
G1 X24.347 Y101.422 E.01983
G1 X24.493 Y101.859 E.01983
G1 X24.621 Y102.41 E.02433
G1 X24.69 Y102.972 E.02433
G1 X24.702 Y103.433 E.01983
G1 X24.674 Y103.893 E.01983
G1 X24.585 Y104.452 E.02433
G1 X24.44 Y104.994 E.02409
G1 X24.237 Y105.522 E.02433
G1 X24.034 Y105.93 E.01958
G1 X23.731 Y106.414 E.02458
G1 X23.454 Y106.776 E.01959
G1 X23.068 Y107.19 E.02433
G1 X22.641 Y107.561 E.02433
G1 X22.265 Y107.829 E.01983
G1 X21.868 Y108.063 E.01983
G1 X21.355 Y108.302 E.02433
G1 X20.82 Y108.486 E.02433
G1 X20.377 Y108.593 E.01958
G1 X19.816 Y108.671 E.02433
G1 X19.257 Y108.691 E.02409
G1 X18.692 Y108.651 E.02433
G1 X18.243 Y108.576 E.01959
G1 X17.696 Y108.43 E.02433
G1 X17.173 Y108.229 E.02409
G1 X16.669 Y107.972 E.02433
G1 X16.285 Y107.727 E.01958
G1 X15.834 Y107.375 E.02458
G1 X15.504 Y107.062 E.01958
G1 X15.129 Y106.63 E.02458
G1 X14.861 Y106.255 E.01983
G1 X14.627 Y105.858 E.01983
G1 X14.388 Y105.345 E.02433
G1 X14.203 Y104.809 E.02434
G1 X14.097 Y104.367 E.01958
G1 X14.018 Y103.806 E.02434
G1 X13.999 Y103.241 E.02433
G1 X14.026 Y102.786 E.01958
G1 X14.116 Y102.221 E.02458
G1 X14.23 Y101.78 E.01959
G1 X14.425 Y101.243 E.02458
G1 X14.621 Y100.832 E.01959
G1 X14.913 Y100.347 E.02433
G1 X15.25 Y99.899 E.02409
G1 X15.636 Y99.486 E.02433
G1 X15.977 Y99.184 E.01959
G1 X16.435 Y98.851 E.02433
G1 X16.925 Y98.568 E.02433
G1 X17.345 Y98.377 E.01983
G1 X17.78 Y98.223 E.01983
G1 X18.329 Y98.086 E.02433
G1 X18.883 Y98.008 E.02408
G1 X19.063 Y98.002 E.00773
M204 S3000
G1 X18.626 Y97.522 F18000
M204 S1000
G1 F1800
G1 X18.838 Y97.492 E.00922
G1 X19.452 Y97.471 E.02642
G1 X20.069 Y97.514 E.02657
G1 X20.567 Y97.597 E.02172
G1 X21.164 Y97.757 E.02656
G1 X21.737 Y97.977 E.02642
G1 X22.288 Y98.258 E.02656
G1 X22.717 Y98.531 E.02187
G1 X23.12 Y98.841 E.02187
G1 X23.572 Y99.262 E.02657
G1 X23.975 Y99.726 E.02641
G1 X24.328 Y100.229 E.02642
G1 X24.627 Y100.77 E.02657
G1 X24.83 Y101.236 E.02187
G1 X24.992 Y101.718 E.02187
G1 X25.131 Y102.32 E.02657
G1 X25.206 Y102.934 E.02656
G1 X25.219 Y103.442 E.02187
G1 X25.188 Y103.95 E.02187
G1 X25.091 Y104.56 E.02656
G1 X24.932 Y105.154 E.02642
G1 X24.711 Y105.73 E.02657
G1 X24.486 Y106.182 E.02172
G1 X24.156 Y106.709 E.02672
G1 X23.849 Y107.11 E.02172
G1 X23.427 Y107.562 E.02657
G1 X22.961 Y107.967 E.02657
G1 X22.547 Y108.263 E.02187
G1 X22.109 Y108.521 E.02187
G1 X21.549 Y108.782 E.02657
G1 X20.965 Y108.983 E.02657
G1 X20.473 Y109.101 E.02172
G1 X19.862 Y109.187 E.02656
G1 X19.247 Y109.209 E.02642
G1 X18.631 Y109.166 E.02657
G1 X18.133 Y109.082 E.02172
G1 X17.536 Y108.922 E.02656
G1 X16.962 Y108.702 E.02642
G1 X16.412 Y108.422 E.02657
G1 X15.986 Y108.15 E.02171
G1 X15.496 Y107.768 E.02672
G1 X15.13 Y107.42 E.02172
G1 X14.722 Y106.951 E.02672
G1 X14.427 Y106.537 E.02187
G1 X14.169 Y106.099 E.02186
G1 X13.908 Y105.539 E.02657
G1 X13.706 Y104.954 E.02657
G1 X13.588 Y104.463 E.02172
G1 X13.502 Y103.851 E.02657
