; generated by PrusaSlicer 2.4.0+linux-x64 on 2022-02-01 at 04:20:04 UTC


;
;

;
;
; TODO: check the size of the extruder and the y-bar clearance. Optimize & test supports.

; external perimeters extrusion width = 0.42mm
; perimeters extrusion width = 0.44mm
; infill extrusion width = 0.44mm
; solid infill extrusion width = 0.44mm
; top infill extrusion width = 0.44mm
; first layer extrusion width = 0.56mm

M107
M190 S55 ; set bed temperature and wait for it to be reached
M104 S215 ; set temperature
;TYPE:Custom
; M190 S0
; M109 S0 ; uncomment to remove set&wait temp gcode added automatically after this start gcode
print_start EXTRUDER=215 BED=55
M109 S215 ; set temperature and wait for it to be reached
G21 ; set units to millimeters
G90 ; use absolute coordinates
M83 ; use relative distances for extrusion
M107
;LAYER_CHANGE
;Z:0.3
;HEIGHT:0.3
;BEFORE_LAYER_CHANGE
;0.3


G1 Z.3 F18000
;AFTER_LAYER_CHANGE
;0.3
G1 E-2 F3000
G1 Z.7 F18000
G1 X22.327 Y22.327
G1 Z.3
G1 E2 F1800
M204 S1000
;TYPE:Skirt/Brim
;WIDTH:0.56
G1 X36.204 Y8.45 E1.21317
G1 X37.66 Y7.477 E.10822
G1 X41.335 Y5.955 E.24592
G1 X43.052 Y5.613 E.10822
G1 X76.948 Y5.613 E2.09529
G1 X78.665 Y5.955 E.10822
G1 X82.34 Y7.477 E.24592
G1 X83.796 Y8.45 E.10822
G1 X101.55 Y26.204 E1.55212
G1 X102.523 Y27.66 E.10822
G1 X104.045 Y31.335 E.24592
G1 X104.387 Y33.052 E.10822
G1 X104.387 Y86.948 E3.33162
G1 X104.045 Y88.665 E.10822
G1 X102.523 Y92.34 E.24592
G1 X101.55 Y93.796 E.10822
G1 X83.796 Y111.55 E1.55212
G1 X82.34 Y112.523 E.10822
G1 X78.665 Y114.045 E.24592
G1 X76.948 Y114.387 E.10822
G1 X43.052 Y114.387 E2.09529
G1 X41.335 Y114.045 E.10822
G1 X37.66 Y112.523 E.24592
G1 X36.204 Y111.55 E.10822
G1 X18.45 Y93.796 E1.55212
G1 X17.477 Y92.34 E.10822
G1 X15.955 Y88.665 E.24592
G1 X15.613 Y86.948 E.10822
G1 X15.613 Y33.052 E3.33162
G1 X15.955 Y31.335 E.10822
G1 X17.477 Y27.66 E.24592
G1 X18.45 Y26.204 E.10822
G1 X22.285 Y22.369 E.33524
M204 S3000
G1 X22.635 Y22.72 F18000
M204 S1000
G1 F1800
G1 X36.555 Y8.8 E1.21688
G1 X37.849 Y7.935 E.09627
G1 X41.525 Y6.413 E.24592
G1 X43.052 Y6.109 E.09627
G1 X76.948 Y6.109 E2.09529
G1 X78.475 Y6.413 E.09627
G1 X82.151 Y7.935 E.24592
G1 X83.445 Y8.8 E.09627
G1 X101.2 Y26.555 E1.55212
G1 X102.065 Y27.85 E.09627
G1 X103.587 Y31.525 E.24592
G1 X103.891 Y33.052 E.09627
G1 X103.891 Y86.948 E3.33162
G1 X103.587 Y88.475 E.09627
G1 X102.065 Y92.151 E.24592
G1 X101.2 Y93.445 E.09627
G1 X83.445 Y111.2 E1.55212
G1 X82.151 Y112.065 E.09627
G1 X78.475 Y113.587 E.24592
G1 X76.948 Y113.891 E.09627
G1 X43.052 Y113.891 E2.09529
G1 X41.525 Y113.587 E.09627
G1 X37.849 Y112.065 E.24592
G1 X36.555 Y111.2 E.09627
G1 X18.8 Y93.445 E1.55212
G1 X17.935 Y92.151 E.09627
G1 X16.413 Y88.475 E.24592
G1 X16.109 Y86.948 E.09627
G1 X16.109 Y33.052 E3.33162
G1 X16.413 Y31.525 E.09627
G1 X17.935 Y27.849 E.24592
G1 X18.8 Y26.555 E.09627
G1 X22.593 Y22.762 E.33154
M204 S3000
G1 X22.943 Y23.113 F18000
M204 S1000
G1 F1800
G1 X36.905 Y9.151 E1.22059
G1 X38.039 Y8.393 E.08431
G1 X41.715 Y6.87 E.24592
G1 X43.052 Y6.604 E.08431
G1 X76.948 Y6.604 E2.09529
G1 X78.285 Y6.87 E.08431
G1 X81.961 Y8.393 E.24592
G1 X83.095 Y9.151 E.08431
G1 X100.849 Y26.905 E1.55212
G1 X101.607 Y28.039 E.08431
G1 X103.13 Y31.715 E.24592
G1 X103.396 Y33.052 E.08431
G1 X103.396 Y86.948 E3.33162
G1 X103.13 Y88.285 E.08431
G1 X101.607 Y91.961 E.24592
G1 X100.849 Y93.095 E.08431
G1 X83.095 Y110.849 E1.55212
G1 X81.961 Y111.607 E.08431
G1 X78.285 Y113.13 E.24592
G1 X76.948 Y113.396 E.08431
G1 X43.052 Y113.396 E2.09529
G1 X41.715 Y113.13 E.08431
G1 X38.039 Y111.607 E.24592
G1 X36.905 Y110.849 E.08431
G1 X19.151 Y93.095 E1.55212
G1 X18.393 Y91.961 E.08431
G1 X16.87 Y88.285 E.24592
G1 X16.604 Y86.948 E.08431
G1 X16.604 Y33.052 E3.33162
G1 X16.87 Y31.715 E.08431
G1 X18.393 Y28.039 E.24592
G1 X19.151 Y26.905 E.08431
G1 X22.901 Y23.155 E.32783
M204 S3000
G1 E-2 F3000
G1 Z.7 F18000
G1 X25.61 Y25.864
G1 Z.3
G1 E2 F1800
M204 S1000
G1 X38.562 Y12.912 E1.13228
G1 X39.993 Y11.848 E.11026
G1 X41.635 Y11.04 E.11311
G1 X44.47 Y10.435 E.17923
G1 X75.529 Y10.44 E1.91994
G1 X77.281 Y10.709 E.10958
G1 X78.972 Y11.291 E.11053
G1 X81.388 Y12.862 E.17818
G1 X97.116 Y28.59 E1.37493
G1 X98.334 Y30.304 E.13
G1 X99.171 Y32.275 E.1324
G1 X99.565 Y34.557 E.14309
G1 X99.565 Y85.531 E3.15107
G1 X98.98 Y88.309 E.17548
G1 X98.175 Y89.969 E.11405
G1 X97.088 Y91.439 E.113
G1 X81.438 Y107.088 E1.36808
G1 X80.007 Y108.152 E.11025
G1 X78.366 Y108.96 E.1131
G1 X75.531 Y109.565 E.17917
G1 X44.469 Y109.565 E1.92015
G1 X41.691 Y108.98 E.17548
G1 X40.031 Y108.175 E.11405
G1 X38.561 Y107.088 E.113
G1 X22.875 Y91.402 E1.3713
G1 X21.576 Y89.53 E.14085
G1 X20.741 Y87.411 E.14078
G1 X20.435 Y85.422 E.12438
G1 X20.435 Y34.469 E3.14977
G1 X21.02 Y31.691 E.17548
G1 X21.825 Y30.031 E.11405
G1 X22.912 Y28.561 E.113
G1 X25.567 Y25.907 E.23209
M204 S3000
G1 X25.918 Y26.257 F18000
M204 S1000
G1 F1800
G1 X38.899 Y13.276 E1.13485
G1 X40.269 Y12.26 E.10545
G1 X41.825 Y11.499 E.10704
G1 X44.496 Y10.931 E.16882
G1 X75.51 Y10.936 E1.91715
G1 X77.183 Y11.195 E.10466
G1 X78.78 Y11.75 E.10454
G1 X81.056 Y13.231 E.16786
G1 X96.751 Y28.925 E1.37202
G1 X97.914 Y30.568 E.12443
G1 X98.703 Y32.441 E.12567
G1 X99.069 Y34.577 E.13397
G1 X99.069 Y85.505 E3.14816
G1 X98.501 Y88.175 E.16876
G1 X97.74 Y89.731 E.10703
G1 X96.724 Y91.101 E.10545
G1 X81.101 Y106.724 E1.36582
G1 X79.731 Y107.74 E.10545
G1 X78.175 Y108.501 E.10703
G1 X75.505 Y109.069 E.16876
G1 X44.495 Y109.069 E1.91693
G1 X41.825 Y108.501 E.16876
G1 X40.269 Y107.74 E.10703
G1 X38.899 Y106.724 E.10545
G1 X23.242 Y91.067 E1.36878
G1 X22 Y89.272 E.13491
G1 X21.213 Y87.257 E.13375
G1 X20.931 Y85.404 E.11587
G1 X20.931 Y34.495 E3.14701
G1 X21.499 Y31.825 E.16876
G1 X22.26 Y30.269 E.10703
G1 X23.276 Y28.899 E.10545
G1 X25.875 Y26.299 E.22725
M204 S3000
G1 X26.226 Y26.65 F18000
M204 S1000
G1 F1800
G1 X39.236 Y13.639 E1.13741
G1 X40.545 Y12.672 E.10061
G1 X42.014 Y11.958 E.10096
G1 X44.522 Y11.427 E.15847
G1 X75.49 Y11.431 E1.91435
G1 X77.083 Y11.681 E.09969
G1 X78.588 Y12.207 E.09855
G1 X80.724 Y13.599 E.15759
G1 X96.385 Y29.26 E1.36911
G1 X97.493 Y30.831 E.11881
G1 X98.235 Y32.606 E.11892
G1 X98.573 Y34.598 E.12491
G1 X98.573 Y85.479 E3.14529
G1 X98.042 Y87.986 E.15841
G1 X97.328 Y89.455 E.10096
G1 X96.361 Y90.764 E.10061
G1 X80.764 Y106.361 E1.36351
G1 X79.455 Y107.328 E.10061
G1 X77.986 Y108.042 E.10095
G1 X75.479 Y108.573 E.15841
G1 X44.521 Y108.573 E1.91374
G1 X42.014 Y108.042 E.15841
G1 X40.545 Y107.328 E.10096
G1 X39.236 Y106.361 E.10061
G1 X23.608 Y90.733 E1.36622
G1 X22.425 Y89.016 E.12892
G1 X21.685 Y87.104 E.1267
G1 X21.427 Y85.386 E.10743
G1 X21.427 Y34.521 E3.14428
G1 X21.958 Y32.014 E.15841
G1 X22.672 Y30.545 E.10096
G1 X23.639 Y29.236 E.10061
G1 X26.183 Y26.692 E.22239
M204 S3000
G1 X26.534 Y27.043 F18000
M204 S1000
G1 F1800
G1 X39.573 Y14.003 E1.13995
G1 X40.82 Y13.085 E.09572
G1 X42.202 Y12.417 E.09488
G1 X44.547 Y11.922 E.14817
G1 X75.471 Y11.927 E1.91158
G1 X76.941 Y12.156 E.09198
G1 X78.396 Y12.665 E.09529
G1 X80.392 Y13.968 E.14731
G1 X96.019 Y29.596 E1.36619
G1 X97.071 Y31.093 E.11314
G1 X97.766 Y32.769 E.11217
G1 X98.078 Y34.619 E.11593
G1 X98.078 Y85.454 E3.14243
G1 X97.583 Y87.798 E.14812
G1 X96.915 Y89.18 E.09487
G1 X95.997 Y90.427 E.09572
G1 X80.427 Y105.997 E1.36117
G1 X79.18 Y106.915 E.09572
G1 X77.798 Y107.583 E.09487
G1 X75.454 Y108.078 E.14812
G1 X44.546 Y108.078 E1.91056
G1 X42.202 Y107.583 E.14812
G1 X40.82 Y106.915 E.09487
G1 X39.573 Y105.997 E.09572
G1 X23.975 Y90.399 E1.36363
G1 X22.85 Y88.76 E.12287
G1 X22.157 Y86.953 E.11963
G1 X21.922 Y85.368 E.09906
G1 X21.922 Y34.546 E3.14158
G1 X22.417 Y32.202 E.14812
G1 X23.085 Y30.82 E.09487
G1 X24.003 Y29.573 E.09572
G1 X26.491 Y27.085 E.21752
M204 S3000
G1 X26.842 Y27.436 F18000
M204 S1000
G1 F1800
G1 X39.911 Y14.367 E1.14252
G1 X41.057 Y13.521 E.08803
G1 X42.39 Y12.876 E.09158
G1 X44.573 Y12.418 E.13785
G1 X75.451 Y12.423 E1.90879
G1 X76.841 Y12.642 E.08697
G1 X78.203 Y13.123 E.08928
G1 X80.059 Y14.336 E.1371
G1 X95.654 Y29.931 E1.36331
G1 X96.624 Y31.308 E.10414
G1 X97.298 Y32.933 E.1087
G1 X97.582 Y34.639 E.10692
G1 X97.582 Y85.428 E3.1396
G1 X97.124 Y87.61 E.13781
G1 X96.479 Y88.943 E.09158
G1 X95.633 Y90.089 E.08803
G1 X80.089 Y105.633 E1.35889
G1 X78.943 Y106.479 E.08803
G1 X77.61 Y107.124 E.09157
G1 X75.428 Y107.582 E.13781
G1 X44.572 Y107.582 E1.9074
G1 X42.39 Y107.124 E.13781
G1 X41.057 Y106.479 E.09158
G1 X39.911 Y105.633 E.08803
G1 X24.341 Y90.064 E1.3611
G1 X23.302 Y88.554 E.11336
G1 X22.643 Y86.852 E.1128
G1 X22.418 Y85.349 E.09393
G1 X22.418 Y34.572 E3.13884
G1 X22.876 Y32.39 E.13781
G1 X23.521 Y31.057 E.09158
G1 X24.367 Y29.911 E.08803
G1 X26.799 Y27.478 E.21267
M204 S3000
G1 X27.15 Y27.829 F18000
M204 S1000
G1 F1800
G1 X40.248 Y14.731 E1.14505
G1 X41.331 Y13.934 E.0831
G1 X42.577 Y13.336 E.08547
G1 X44.598 Y12.913 E.12762
G1 X75.431 Y12.918 E1.90598
G1 X76.739 Y13.128 E.08191
G1 X78.009 Y13.579 E.08327
G1 X79.727 Y14.705 E.12696
G1 X95.288 Y30.266 E1.36039
G1 X96.202 Y31.57 E.09843
G1 X96.828 Y33.095 E.10189
G1 X97.086 Y34.659 E.09801
G1 X97.086 Y85.402 E3.13678
G1 X96.664 Y87.423 E.12758
G1 X96.066 Y88.669 E.08546
G1 X95.269 Y89.752 E.0831
G1 X79.752 Y105.269 E1.35654
G1 X78.669 Y106.066 E.0831
G1 X77.423 Y106.664 E.08546
G1 X75.402 Y107.086 E.12758
G1 X44.598 Y107.086 E1.90425
G1 X42.577 Y106.664 E.12758
G1 X41.331 Y106.066 E.08546
G1 X40.248 Y105.269 E.0831
G1 X24.708 Y89.73 E1.35849
G1 X23.727 Y88.298 E.10729
G1 X23.116 Y86.701 E.10574
G1 X22.914 Y85.331 E.08558
G1 X22.914 Y34.598 E3.13616
G1 X23.336 Y32.577 E.12758
G1 X23.934 Y31.331 E.08546
G1 X24.731 Y30.248 E.0831
G1 X27.107 Y27.871 E.20778
M204 S3000
G1 X27.458 Y28.221 F18000
M204 S1000
G1 F1800
G1 X40.584 Y15.095 E1.14756
G1 X41.604 Y14.349 E.07811
G1 X42.763 Y13.797 E.07935
G1 X44.624 Y13.409 E.11746
G1 X75.411 Y13.414 E1.90316
G1 X76.637 Y13.613 E.07678
G1 X77.813 Y14.036 E.07726
G1 X79.394 Y15.073 E.11689
G1 X94.922 Y30.601 E1.35746
G1 X95.779 Y31.83 E.09265
G1 X96.359 Y33.255 E.09506
G1 X96.591 Y34.679 E.08919
G1 X96.591 Y85.377 E3.13399
G1 X96.203 Y87.237 E.11743
G1 X95.651 Y88.396 E.07935
G1 X94.905 Y89.416 E.07811
G1 X79.416 Y104.905 E1.35415
G1 X78.396 Y105.651 E.07811
G1 X77.237 Y106.203 E.07935
G1 X75.377 Y106.591 E.11743
G1 X44.623 Y106.591 E1.90111
G1 X42.763 Y106.203 E.11743
G1 X41.604 Y105.651 E.07935
G1 X40.584 Y104.905 E.07811
G1 X25.075 Y89.396 E1.35584
G1 X24.154 Y88.044 E.10115
G1 X23.589 Y86.551 E.09866
G1 X23.409 Y85.313 E.07732
G1 X23.409 Y34.623 E3.1335
G1 X23.797 Y32.763 E.11743
G1 X24.349 Y31.604 E.07935
G1 X25.095 Y30.584 E.07811
G1 X27.415 Y28.264 E.20288
M204 S3000
G1 X27.766 Y28.614 F18000
M204 S1000
G1 F1800
G1 X40.921 Y15.459 E1.15006
G1 X41.877 Y14.763 E.07306
G1 X42.948 Y14.257 E.07323
G1 X44.649 Y13.905 E.10738
G1 X75.39 Y13.91 E1.90032
G1 X76.533 Y14.098 E.07159
G1 X77.616 Y14.492 E.07126
G1 X79.061 Y15.441 E.10689
G1 X94.555 Y30.935 E1.35451
G1 X95.356 Y32.089 E.0868
G1 X95.888 Y33.413 E.08822
G1 X96.095 Y34.698 E.08046
G1 X96.095 Y85.352 E3.13122
G1 X95.742 Y87.052 E.10735
G1 X95.237 Y88.123 E.07323
G1 X94.541 Y89.079 E.07306
G1 X79.079 Y104.541 E1.35172
G1 X78.123 Y105.237 E.07306
G1 X77.052 Y105.742 E.07323
G1 X75.352 Y106.095 E.10735
G1 X44.648 Y106.095 E1.89799
G1 X42.948 Y105.742 E.10735
G1 X41.877 Y105.237 E.07323
G1 X40.921 Y104.541 E.07306
G1 X25.443 Y89.063 E1.35315
G1 X24.581 Y87.791 E.09493
G1 X24.063 Y86.404 E.09155
G1 X23.905 Y85.296 E.06917
G1 X23.905 Y34.648 E3.13087
G1 X24.258 Y32.948 E.10735
G1 X24.763 Y31.877 E.07323
G1 X25.459 Y30.921 E.07306
G1 X27.723 Y28.657 E.19795
M204 S3000
G1 X28.074 Y29.007 F18000
M204 S1000
G1 F1800
G1 X41.257 Y15.824 E1.15253
G1 X42.148 Y15.179 E.06795
G1 X43.131 Y14.719 E.06711
G1 X44.674 Y14.4 E.09738
G1 X75.37 Y14.405 E1.89752
G1 X76.385 Y14.572 E.06361
G1 X77.42 Y14.947 E.06803
G1 X78.729 Y15.81 E.09687
G1 X94.189 Y31.27 E1.35155
G1 X94.932 Y32.347 E.08087
G1 X95.417 Y33.57 E.08136
G1 X95.6 Y34.718 E.07183
G1 X95.6 Y85.327 E3.12847
G1 X95.281 Y86.869 E.09735
G1 X94.821 Y87.852 E.06711
G1 X94.176 Y88.743 E.06795
G1 X78.743 Y104.176 E1.34925
G1 X77.852 Y104.821 E.06795
G1 X76.869 Y105.281 E.06711
G1 X75.327 Y105.6 E.09735
G1 X44.673 Y105.6 E1.89488
G1 X43.131 Y105.281 E.09735
G1 X42.148 Y104.821 E.06711
G1 X41.257 Y104.176 E.06795
G1 X25.809 Y88.729 E1.35048
G1 X25.034 Y87.588 E.08524
G1 X24.55 Y86.305 E.08478
G1 X24.4 Y85.278 E.06416
G1 X24.4 Y34.673 E3.12819
G1 X24.719 Y33.131 E.09735
G1 X25.179 Y32.148 E.06711
G1 X25.824 Y31.257 E.06795
G1 X28.031 Y29.05 E.19301
M204 S3000
G1 X28.382 Y29.4 F18000
M204 S1000
G1 F1800
G1 X41.594 Y16.188 E1.15504
G1 X42.379 Y15.618 E.05997
G1 X43.315 Y15.18 E.06383
G1 X44.699 Y14.896 E.08736
G1 X75.349 Y14.901 E1.89468
G1 X76.28 Y15.057 E.05836
G1 X77.222 Y15.403 E.06202
G1 X78.396 Y16.178 E.08697
G1 X93.822 Y31.604 E1.34857
G1 X94.506 Y32.603 E.07486
G1 X94.946 Y33.725 E.07448
G1 X95.104 Y34.737 E.06331
G1 X95.104 Y85.302 E3.12576
G1 X94.82 Y86.686 E.08733
G1 X94.382 Y87.621 E.06383
G1 X93.812 Y88.406 E.05997
G1 X78.406 Y103.812 E1.34686
G1 X77.621 Y104.382 E.05997
G1 X76.686 Y104.82 E.06383
G1 X75.302 Y105.104 E.08733
G1 X44.698 Y105.104 E1.89179
G1 X43.314 Y104.82 E.08733
G1 X42.379 Y104.382 E.06383
G1 X41.594 Y103.812 E.05997
G1 X26.177 Y88.395 E1.34779
G1 X25.462 Y87.336 E.07899
G1 X25.024 Y86.158 E.07769
G1 X24.896 Y85.261 E.05604
G1 X24.896 Y34.698 E3.12559
G1 X25.18 Y33.314 E.08733
G1 X25.618 Y32.379 E.06383
G1 X26.188 Y31.594 E.05997
G1 X28.339 Y29.442 E.1881
M204 S3000
G1 X28.69 Y29.793 F18000
M204 S1000
G1 F1800
G1 X41.93 Y16.553 E1.1575
G1 X42.649 Y16.034 E.05479
G1 X43.496 Y15.642 E.05768
G1 X44.724 Y15.392 E.07746
G1 X75.327 Y15.396 E1.89182
G1 X76.173 Y15.541 E.05301
G1 X77.022 Y15.857 E.05602
G1 X78.063 Y16.546 E.07715
G1 X93.455 Y31.937 E1.34557
G1 X94.08 Y32.857 E.06875
G1 X94.473 Y33.877 E.06758
G1 X94.608 Y34.755 E.05491
G1 X94.608 Y85.277 E3.12307
G1 X94.358 Y86.504 E.07743
G1 X93.966 Y87.351 E.05768
G1 X93.447 Y88.07 E.05479
G1 X78.07 Y103.447 E1.34435
G1 X77.351 Y103.966 E.05479
G1 X76.504 Y104.358 E.05768
G1 X75.277 Y104.608 E.07743
G1 X44.723 Y104.608 E1.88872
G1 X43.496 Y104.358 E.07743
G1 X42.649 Y103.966 E.05768
G1 X41.93 Y103.447 E.05479
G1 X26.544 Y88.061 E1.3451
G1 X25.915 Y87.133 E.06929
G1 X25.51 Y86.06 E.07094
G1 X25.392 Y85.243 E.05103
G1 X25.392 Y34.723 E3.12293
G1 X25.642 Y33.496 E.07743
G1 X26.034 Y32.649 E.05768
G1 X26.553 Y31.93 E.05479
G1 X28.647 Y29.835 E.18314
M204 S3000
G1 X28.998 Y30.186 F18000
M204 S1000
G1 F1800
G1 X42.266 Y16.918 E1.15992
G1 X42.917 Y16.452 E.04951
G1 X43.675 Y16.105 E.05153
G1 X44.748 Y15.887 E.06767
G1 X75.305 Y15.892 E1.88892
G1 X76.063 Y16.025 E.04756
G1 X76.821 Y16.311 E.05005
G1 X77.73 Y16.914 E.06745
G1 X93.087 Y32.271 E1.34255
G1 X93.653 Y33.109 E.06253
G1 X94 Y34.027 E.06066
G1 X94.113 Y34.773 E.04665
G1 X94.113 Y85.252 E3.12043
G1 X93.895 Y86.325 E.06765
G1 X93.548 Y87.083 E.05153
G1 X93.082 Y87.734 E.04951
G1 X77.734 Y103.082 E1.34178
G1 X77.083 Y103.548 E.04951
G1 X76.325 Y103.895 E.05153
G1 X75.252 Y104.113 E.06765
G1 X44.748 Y104.113 E1.88567
G1 X43.675 Y103.895 E.06765
G1 X42.917 Y103.548 E.05153
G1 X42.266 Y103.082 E.04951
G1 X26.912 Y87.728 E1.3423
G1 X26.343 Y86.882 E.06299
G1 X25.984 Y85.913 E.06387
G1 X25.887 Y85.226 E.04295
G1 X25.887 Y34.748 E3.12035
G1 X26.105 Y33.675 E.06765
G1 X26.452 Y32.917 E.05153
G1 X26.918 Y32.266 E.04951
G1 X28.955 Y30.228 E.17815
M204 S3000
G1 X29.306 Y30.579 F18000
M204 S1000
G1 F1800
G1 X42.601 Y17.283 E1.16231
G1 X43.183 Y16.87 E.04412
G1 X43.853 Y16.568 E.04539
G1 X44.773 Y16.383 E.058
G1 X75.282 Y16.388 E1.886
G1 X75.951 Y16.508 E.04199
G1 X76.617 Y16.763 E.0441
G1 X77.397 Y17.281 E.05786
G1 X92.72 Y32.605 E1.33959
G1 X93.201 Y33.315 E.053
G1 X93.515 Y34.13 E.05401
G1 X93.617 Y34.793 E.04145
G1 X93.617 Y85.228 E3.11771
G1 X93.432 Y86.147 E.05798
G1 X93.13 Y86.817 E.04539
G1 X92.717 Y87.399 E.04412
G1 X77.399 Y102.717 E1.33913
G1 X76.817 Y103.13 E.04412
G1 X76.147 Y103.432 E.04539
G1 X75.228 Y103.617 E.05798
G1 X44.772 Y103.617 E1.88263
G1 X43.853 Y103.432 E.05798
G1 X43.183 Y103.13 E.04539
