; generated by PrusaSlicer 2.4.0+linux-x64 on 2022-01-31 at 09:16:54 UTC


;
;

;
;
; TODO: check the size of the extruder and the y-bar clearance. Optimize & test supports.

; external perimeters extrusion width = 0.42mm
; perimeters extrusion width = 0.44mm
; infill extrusion width = 0.44mm
; solid infill extrusion width = 0.44mm
; top infill extrusion width = 0.44mm
; first layer extrusion width = 0.56mm

M107
M190 S55 ; set bed temperature and wait for it to be reached
M104 S215 ; set temperature
;TYPE:Custom
; M190 S0
; M109 S0 ; uncomment to remove set&wait temp gcode added automatically after this start gcode
print_start EXTRUDER=215 BED=55
M109 S215 ; set temperature and wait for it to be reached
G21 ; set units to millimeters
G90 ; use absolute coordinates
M83 ; use relative distances for extrusion
M107
;LAYER_CHANGE
;Z:0.2
;HEIGHT:0.2
;BEFORE_LAYER_CHANGE
;0.2


G1 Z.2 F18000
;AFTER_LAYER_CHANGE
;0.2
G1 E-2 F3000
G1 Z.6 F18000
G1 X118.801 Y118.467
G1 Z.2
G1 E2 F1800
M204 S1000
;TYPE:Perimeter
;WIDTH:0.56
G1 F900
G1 X118.807 Y118.873 E.01745
G1 X118.401 Y118.873 E.01745
G1 X118.401 Y118.467 E.01745
G1 X118.741 Y118.467 E.01462
M204 S3000
G1 X117.884 Y117.95 F18000
M204 S1000
;TYPE:External perimeter
G1 F900
G1 X119.324 Y117.95 E.06191
G1 X119.324 Y119.39 E.06191
G1 X117.884 Y119.39 E.06191
G1 X117.884 Y118.01 E.05933
M204 S3000
G1 X118.27 Y118.053 F18000
M106 S255
;LAYER_CHANGE
;Z:6.2
;HEIGHT:6
;BEFORE_LAYER_CHANGE
;6.2


G1 Z6.2 F18000
;AFTER_LAYER_CHANGE
;6.2
M104 S205 ; set temperature
G1 E-2 F3000
G1 Z6.6 F18000
G1 X89.451 Y79.482
G1 X86.84 Y75.599
G1 Z6.2
G1 E2 F1800
M204 S2000
;TYPE:Overhang perimeter
;WIDTH:0.334664
;HEIGHT:0.334664
G1 F2400
G1 X86.65 Y75.732 E.0085
G1 X86.429 Y75.818 E.00867
G1 X86.202 Y75.842 E.00834
G1 X85.938 Y75.805 E.00975
G1 X85.582 Y75.666 E.01397
G1 X85.248 Y75.457 E.01442
G1 X85.01 Y75.23 E.01203
G1 X84.85 Y74.953 E.01167
G1 X84.799 Y74.674 E.0104
G1 X84.84 Y74.35 E.01194
G1 X84.962 Y74.022 E.01278
G1 X85.54 Y72.988 E.04334
G1 X87.733 Y74.24 E.09236
G1 X87.145 Y75.244 E.04252
G1 X87 Y75.437 E.00886
G1 X86.882 Y75.556 E.00611
M204 S3000
G1 X87.165 Y75.836 F18000
M204 S2000
G1 F2400
G1 X87.302 Y75.698 E.00712
G1 X87.477 Y75.464 E.01069
G1 X88.279 Y74.094 E.05805
G1 X85.392 Y72.445 E.12161
G1 X84.599 Y73.858 E.05927
G1 X84.451 Y74.254 E.01544
G1 X84.397 Y74.685 E.01587
G1 X84.471 Y75.093 E.01517
G1 X84.694 Y75.478 E.01628
G1 X85.002 Y75.773 E.0156
G1 X85.403 Y76.023 E.01727
G1 X85.837 Y76.193 E.01705
G1 X86.195 Y76.242 E.01323
G1 X86.368 Y76.224 E.00636
G1 X86.133 Y76.382 E.01037
G1 X85.857 Y76.457 E.01045
G1 X85.558 Y76.437 E.01097
G1 X85.404 Y76.396 E.00581
G1 X85.21 Y76.318 E.00765
G1 X84.912 Y76.154 E.01244
G1 X84.667 Y75.982 E.01097
G1 X84.497 Y75.83 E.00831
G1 X84.347 Y75.655 E.00845
G1 X84.258 Y75.509 E.00623
G1 X84.199 Y75.361 E.00585
G1 X84.166 Y75.214 E.00551
G1 X84.157 Y75.047 E.00612
G1 X84.186 Y74.775 E.00997
G1 X84.251 Y74.512 E.00994
G1 X84.387 Y74.149 E.01416
G1 X84.705 Y73.513 E.02601
G1 X85.487 Y72.144 E.05767
G1 X91.131 Y75.368 E.2377
G1 X90.978 Y75.636 E.01129
G1 X88.331 Y74.124 E.1115
G1 X87.756 Y75.129 E.04235
G1 X87.648 Y75.471 E.01313
G1 X87.612 Y75.766 E.01085
G1 X87.654 Y76.082 E.01166
G1 X87.752 Y76.373 E.01122
G1 X87.903 Y76.683 E.01263
G1 X89.255 Y78.653 E.08738
G1 X89.104 Y78.918 E.01115
G1 X87.788 Y76.926 E.08728
G1 X87.644 Y76.604 E.0129
G1 X87.643 Y76.095 E.01865
G1 X87.122 Y75.879 E.02062
M204 S3000
G1 X86.971 Y76.247 F18000
M204 S2000
G1 F2400
G1 X86.917 Y76.225 E.00213
G1 X86.657 Y76.503 E.01389
G1 X86.486 Y76.64 E.00803
G1 X86.299 Y76.745 E.00783
G1 X86.104 Y76.816 E.0076
G1 X85.9 Y76.853 E.0076
G1 X85.736 Y76.859 E.00598
G1 X85.482 Y76.829 E.00935
G1 X85.278 Y76.774 E.00775
G1 X85.04 Y76.678 E.00939
G1 X84.701 Y76.493 E.01412
G1 X84.418 Y76.294 E.01264
G1 X84.212 Y76.109 E.01013
G1 X84.024 Y75.889 E.01059
G1 X83.902 Y75.688 E.00859
G1 X83.817 Y75.479 E.00825
G1 X83.77 Y75.267 E.00792
G1 X83.758 Y75.036 E.00848
G1 X83.793 Y74.707 E.01211
G1 X83.87 Y74.394 E.01178
G1 X84.022 Y73.99 E.01578
G1 X84.355 Y73.326 E.02717
G1 X85.339 Y71.601 E.07262
G1 X91.674 Y75.22 E.2668
G1 X91.126 Y76.179 E.04039
G1 X88.479 Y74.666 E.1115
G1 X88.123 Y75.29 E.02626
G1 X88.038 Y75.556 E.01022
G1 X88.013 Y75.764 E.00764
G1 X88.043 Y75.992 E.00841
G1 X88.121 Y76.221 E.00887
G1 X88.248 Y76.482 E.01061
G1 X89.724 Y78.634 E.09543
G1 X89.128 Y79.677 E.04393
G1 X87.441 Y77.123 E.11194
G1 X87.273 Y76.772 E.01423
G1 X87.246 Y76.647 E.00466
G1 X87.246 Y76.361 E.01048
G1 X87.026 Y76.27 E.0087
M204 S3000
G1 E-2 F3000
G1 Z6.6 F18000
G1 X83.678 Y74.895
G1 X86.32 Y72.093
G1 X87.107 Y72.542
G1 X87.196 Y68.519
G1 X87.194 Y68.523
G1 Z6.2
G1 E2 F1800
M204 S2000
G1 F2400
G1 X87.073 Y68.483 E.00468
G1 X88.187 Y65.07 E.1313
G1 X94.366 Y67.087 E.2377
G1 X93.251 Y70.5 E.1313
G1 X93.13 Y70.46 E.00468
G1 X94.148 Y67.341 E.12001
G1 X91.072 Y66.337 E.11835
G1 X90.15 Y69.161 E.10867
G1 X90.028 Y69.122 E.00468
G1 X90.95 Y66.297 E.10867
G1 X88.213 Y65.403 E.10531
G1 X87.213 Y68.466 E.11781
M204 S3000
G1 X87.591 Y68.589 F18000
M204 S2000
G1 F2400
G1 X87.449 Y69.024 E.01674
G1 X86.571 Y68.738 E.03378
G1 X87.932 Y64.568 E.1604
G1 X94.867 Y66.832 E.2668
G1 X93.506 Y71.002 E.1604
G1 X92.628 Y70.715 E.03378
G1 X93.646 Y67.596 E.12001
G1 X91.326 Y66.838 E.08925
G1 X90.404 Y69.663 E.10867
G1 X89.526 Y69.376 E.03378
G1 X90.448 Y66.552 E.10867
G1 X88.467 Y65.905 E.07621
G1 X87.61 Y68.532 E.10107
M204 S3000
G1 E-2 F3000
G1 Z6.6 F18000
G1 X88.385 Y64.73
G1 X88.626 Y61.121
G1 X89.143 Y61.006
G1 Z6.2
G1 E2 F1800
M204 S2000
G1 F2400
G1 X89.099 Y60.68 E.01204
G1 X89.095 Y60.286 E.01439
G1 X89.119 Y60.036 E.0092
G1 X89.216 Y59.549 E.01815
G1 X89.321 Y59.242 E.01185
G1 X89.443 Y58.988 E.01031
G1 X89.63 Y58.707 E.01237
G1 X89.853 Y58.47 E.01189
G1 X90.051 Y58.313 E.00924
G1 X90.288 Y58.17 E.01014
G1 X90.587 Y58.039 E.01193
G1 X90.94 Y57.934 E.01347
G1 X91.196 Y57.885 E.00954
G1 X91.718 Y57.839 E.01917
G1 X92.102 Y57.841 E.01404
G1 X92.702 Y57.89 E.02202
G1 X93.314 Y57.989 E.02269
G1 X93.764 Y58.098 E.01693
G1 X94.289 Y58.279 E.02029
G1 X94.673 Y58.463 E.01557
G1 X94.967 Y58.649 E.01275
G1 X95.271 Y58.907 E.01457
G1 X95.505 Y59.182 E.01319
G1 X95.693 Y59.512 E.01389
G1 X95.807 Y59.847 E.01294
G1 X95.873 Y60.265 E.01549
G1 X95.877 Y60.601 E.01228
G1 X95.832 Y61.025 E.01561
G1 X95.714 Y61.509 E.01822
G1 X95.543 Y61.911 E.01595
G1 X95.376 Y61.887 E.0062
G1 X95.54 Y61.553 E.01361
G1 X95.656 Y61.165 E.0148
G1 X95.708 Y60.755 E.01512
G1 X95.686 Y60.326 E.01571
G1 X95.582 Y59.929 E.01501
G1 X95.405 Y59.576 E.01446
G1 X95.189 Y59.294 E.013
G1 X94.91 Y59.037 E.01387
G1 X94.561 Y58.808 E.01527
G1 X94.187 Y58.629 E.01514
G1 X93.866 Y58.512 E.01249
G1 X93.464 Y58.4 E.0153
G1 X92.946 Y58.298 E.01931
G1 X92.383 Y58.228 E.02072
G1 X91.931 Y58.205 E.01657
G1 X91.567 Y58.212 E.01331
G1 X91.131 Y58.262 E.01607
G1 X90.692 Y58.372 E.01653
G1 X90.34 Y58.521 E.01399
G1 X90.045 Y58.707 E.01274
G1 X89.762 Y58.967 E.01407
G1 X89.522 Y59.303 E.01509
G1 X89.349 Y59.704 E.01599
G1 X89.262 Y60.099 E.01481
G1 X89.243 Y60.574 E.01737
G1 X89.322 Y61.031 E.01698
G1 X89.203 Y61.014 E.00442
M204 S3000
G1 X89.147 Y61.408 F18000
M204 S2000
G1 F2400
G1 X88.831 Y61.363 E.0117
G1 X88.752 Y61.084 E.01062
G1 X88.701 Y60.708 E.01385
G1 X88.697 Y60.269 E.01606
G1 X88.725 Y59.978 E.01071
G1 X88.831 Y59.446 E.01985
G1 X88.952 Y59.092 E.01367
G1 X89.096 Y58.791 E.0122
G1 X89.317 Y58.459 E.0146
G1 X89.583 Y58.176 E.01417
G1 X89.823 Y57.985 E.01123
G1 X90.104 Y57.816 E.01201
G1 X90.45 Y57.664 E.0138
G1 X90.846 Y57.547 E.01511
G1 X91.141 Y57.491 E.01098
G1 X91.702 Y57.441 E.02057
G1 X92.119 Y57.443 E.01527
G1 X92.75 Y57.495 E.02315
G1 X93.393 Y57.599 E.02383
G1 X93.876 Y57.716 E.01817
G1 X94.44 Y57.91 E.02182
G1 X94.866 Y58.114 E.01728
G1 X95.204 Y58.328 E.01461
G1 X95.553 Y58.625 E.01677
G1 X95.824 Y58.943 E.01528
G1 X95.928 Y59.102 E.00696
G1 X96.06 Y59.355 E.01043
G1 X96.195 Y59.751 E.01529
G1 X96.271 Y60.232 E.0178
G1 X96.275 Y60.62 E.01419
G1 X96.225 Y61.094 E.01744
G1 X96.092 Y61.635 E.02038
G1 X95.894 Y62.102 E.01853
G1 X95.747 Y62.341 E.01028
G1 X94.647 Y62.186 E.04065
G1 X94.868 Y61.931 E.01235
G1 X95.018 Y61.712 E.00969
G1 X95.168 Y61.407 E.01244
G1 X95.265 Y61.083 E.01239
G1 X95.309 Y60.74 E.01263
G1 X95.291 Y60.387 E.01291
G1 X95.208 Y60.07 E.012
G1 X95.067 Y59.788 E.01154
G1 X94.894 Y59.563 E.01035
G1 X94.664 Y59.351 E.01143
G1 X94.365 Y59.155 E.01308
G1 X94.033 Y58.997 E.01346
G1 X93.745 Y58.891 E.01123
G1 X93.372 Y58.787 E.01417
G1 X92.882 Y58.691 E.01823
G1 X92.349 Y58.625 E.01968
G1 X91.925 Y58.603 E.01551
G1 X91.594 Y58.61 E.01211
G1 X91.202 Y58.654 E.01444
G1 X90.819 Y58.75 E.01442
G1 X90.525 Y58.875 E.01168
G1 X90.288 Y59.024 E.01025
G1 X90.061 Y59.232 E.01123
G1 X89.87 Y59.499 E.01201
G1 X89.729 Y59.827 E.01304
G1 X89.658 Y60.151 E.01213
G1 X89.642 Y60.553 E.01474
G1 X89.686 Y60.86 E.01132
G1 X89.811 Y61.259 E.0153
G1 X89.936 Y61.52 E.01058
G1 X89.207 Y61.417 E.02694
M204 S3000
G1 E-2 F3000
G1 Z6.6 F18000
G1 X89.464 Y58.2
G1 X89.856 Y53.296
G1 X89.856 Y53.3
G1 Z6.2
G1 E2 F1800
M204 S2000
G1 F2400
G1 X89.78 Y49.923 E.12355
G1 X89.908 Y49.92 E.00468
G1 X89.942 Y51.454 E.05613
G1 X96.184 Y51.314 E.22834
G1 X96.15 Y49.779 E.05613
G1 X96.278 Y49.777 E.00468
G1 X96.354 Y53.154 E.12355
G1 X96.226 Y53.157 E.00468
G1 X96.191 Y51.623 E.05613
G1 X89.949 Y51.763 E.22834
G1 X89.984 Y53.297 E.05613
G1 X89.916 Y53.299 E.00249
M204 S3000
G1 X89.925 Y53.697 F18000
M204 S2000
G1 F2400
G1 X89.467 Y53.707 E.01674
G1 X89.373 Y49.534 E.15265
G1 X90.296 Y49.513 E.03378
G1 X90.331 Y51.048 E.05613
G1 X95.778 Y50.925 E.19925
G1 X95.743 Y49.391 E.05613
G1 X96.666 Y49.37 E.03378
G1 X96.76 Y53.543 E.15265
G1 X95.837 Y53.564 E.03378
G1 X95.802 Y52.029 E.05613
G1 X90.356 Y52.152 E.19925
G1 X90.39 Y53.686 E.05613
G1 X89.985 Y53.695 E.01484
M204 S3000
G1 E-2 F3000
G1 Z6.6 F18000
G1 X89.975 Y53.294
G1 X89.695 Y49.929
G1 X89.387 Y45.924
G1 X89.388 Y45.928
G1 Z6.2
G1 E2 F1800
M204 S2000
G1 F2400
G1 X88.707 Y42.403 E.1313
G1 X95.089 Y41.17 E.2377
G1 X95.148 Y41.474 E.01129
G1 X91.844 Y42.112 E.12303
G1 X92.411 Y45.044 E.10924
G1 X92.285 Y45.068 E.00468
G1 X91.719 Y42.136 E.10924
G1 X88.891 Y42.682 E.10531
G1 X89.514 Y45.904 E.12001
G1 X89.447 Y45.917 E.00249
M204 S3000
G1 X89.522 Y46.307 F18000
M204 S2000
G1 F2400
G1 X89.073 Y46.394 E.01674
G1 X88.241 Y42.088 E.1604
G1 X95.404 Y40.704 E.2668
G1 X95.614 Y41.789 E.04039
G1 X92.31 Y42.427 E.12303
G1 X92.877 Y45.359 E.10924
G1 X91.97 Y45.535 E.03378
G1 X91.404 Y42.602 E.10924
G1 X89.357 Y42.997 E.07621
G1 X89.98 Y46.219 E.12001
G1 X89.581 Y46.296 E.01484
M204 S3000
G1 E-2 F3000
G1 Z6.6 F18000
G1 X89.505 Y45.901
G1 X88.52 Y42.095
G1 X87.59 Y38.416
G1 X87.592 Y38.42
G1 Z6.2
G1 E2 F1800
M204 S2000
G1 F2400
G1 X86.251 Y35.089 E.1313
G1 X92.28 Y32.661 E.2377
G1 X92.395 Y32.947 E.01129
G1 X89.274 Y34.204 E.12303
G1 X90.39 Y36.975 E.10924
G1 X90.272 Y37.023 E.00468
G1 X89.156 Y34.252 E.10924
G1 X86.485 Y35.328 E.10531
G1 X87.711 Y38.372 E.12001
G1 X87.647 Y38.397 E.00249
M204 S3000
G1 X87.796 Y38.766 F18000
M204 S2000
G1 F2400
G1 X87.371 Y38.937 E.01674
G1 X85.733 Y34.869 E.1604
G1 X92.5 Y32.143 E.2668
G1 X92.913 Y33.168 E.04039
G1 X89.792 Y34.425 E.12303
G1 X90.908 Y37.195 E.10924
G1 X90.051 Y37.54 E.03378
G1 X88.935 Y34.77 E.10924
G1 X87.002 Y35.548 E.07621
G1 X88.228 Y38.592 E.12001
G1 X87.852 Y38.744 E.01484
M204 S3000
G1 E-2 F3000
G1 Z6.6 F18000
G1 X87.702 Y38.371
G1 X86.376 Y34.585
G1 X85.126 Y31.137
G1 X84.889 Y30.393
G1 Z6.2
G1 E2 F1800
M204 S2000
G1 F2400
G1 X84.574 Y30.505 E.01225
G1 X84.082 Y30.561 E.01809
G1 X83.792 Y30.528 E.01069
G1 X83.51 Y30.44 E.0108
G1 X83.263 Y30.3 E.01038
G1 X83.07 Y30.138 E.00921
G1 X82.859 Y29.878 E.01225
G1 X82.692 Y29.541 E.01378
G1 X82.622 Y29.2 E.01274
G1 X82.635 Y28.874 E.01191
G1 X82.718 Y28.557 E.012
G1 X82.883 Y28.218 E.01377
G1 X83.057 Y27.964 E.01127
G1 X83.333 Y27.645 E.01542
G1 X83.638 Y27.352 E.01548
G1 X84.108 Y26.959 E.0224
G1 X84.538 Y26.639 E.0196
G1 X85.285 Y26.144 E.03279
G1 X85.741 Y25.892 E.01903
G1 X86.075 Y25.74 E.01341
G1 X86.514 Y25.597 E.01689
G1 X86.878 Y25.544 E.01348
G1 X87.158 Y25.553 E.01022
G1 X87.405 Y25.603 E.00925
G1 X87.631 Y25.691 E.00884
G1 X87.865 Y25.838 E.01012
G1 X88.048 Y26.006 E.00905
G1 X88.213 Y26.218 E.00984
G1 X88.343 Y26.456 E.00993
G1 X88.438 Y26.756 E.01151
G1 X88.453 Y27.198 E.01618
G1 X88.328 Y27.641 E.01683
G1 X88.094 Y28.047 E.01711
G1 X87.739 Y28.467 E.02011
G1 X87.22 Y28.944 E.02581
G1 X86.549 Y29.459 E.03093
G1 X85.791 Y29.961 E.03324
G1 X85.161 Y30.296 E.0261
G1 X84.946 Y30.373 E.00835
M204 S3000
G1 X84.813 Y29.998 F18000
M204 S2000
G1 F2400
G1 X84.483 Y30.115 E.01279
G1 X84.082 Y30.16 E.01479
G1 X83.874 Y30.137 E.00764
G1 X83.669 Y30.073 E.00786
G1 X83.491 Y29.972 E.00749
G1 X83.355 Y29.858 E.00648
G1 X83.196 Y29.662 E.00924
G1 X83.071 Y29.411 E.01026
G1 X83.022 Y29.167 E.00909
G1 X83.031 Y28.933 E.00858
G1 X83.093 Y28.695 E.00898
G1 X83.227 Y28.419 E.01125
G1 X83.372 Y28.207 E.00938
G1 X83.622 Y27.919 E.01394
G1 X83.903 Y27.648 E.0143
G1 X84.354 Y27.272 E.02148
G1 X84.767 Y26.964 E.0188
G1 X85.492 Y26.484 E.03181
G1 X85.92 Y26.248 E.01788
G1 X86.219 Y26.111 E.01204
G1 X86.604 Y25.985 E.01481
G1 X86.901 Y25.943 E.01095
G1 X87.111 Y25.95 E.00771
G1 X87.293 Y25.986 E.00677
G1 X87.452 Y26.048 E.00623
G1 X87.623 Y26.155 E.00739
G1 X87.754 Y26.276 E.00651
G1 X87.879 Y26.437 E.00746
G1 X87.975 Y26.613 E.00734
G1 X88.042 Y26.824 E.0081
G1 X88.053 Y27.15 E.01191
G1 X87.958 Y27.485 E.01276
G1 X87.767 Y27.817 E.01401
G1 X87.452 Y28.191 E.01788
G1 X86.964 Y28.64 E.02424
G1 X86.318 Y29.135 E.02977
G1 X85.587 Y29.619 E.03204
G1 X85 Y29.931 E.02432
G1 X84.87 Y29.978 E.00508
M204 S3000
G1 X85.114 Y30.66 F18000
M204 S2000
G1 F2400
G1 X84.652 Y30.786 E.01752
G1 X84.36 Y30.824 E.01076
G1 X84.086 Y30.824 E.01004
G1 X83.816 Y30.784 E.00997
G1 X83.575 Y30.706 E.00927
G1 X83.411 Y30.625 E.00669
G1 X83.127 Y30.419 E.01283
G1 X82.844 Y30.112 E.01528
G1 X82.676 Y29.871 E.01074
G1 X82.594 Y29.727 E.00604
G1 X82.448 Y29.358 E.01453
G1 X82.393 Y29.045 E.0116
G1 X82.406 Y28.714 E.01213
G1 X82.495 Y28.366 E.01313
G1 X82.662 Y28.01 E.01437
G1 X82.961 Y27.572 E.0194
G1 X83.341 Y27.153 E.02069
G1 X83.986 Y26.589 E.03134
G1 X84.672 Y26.099 E.03083
G1 X85.393 Y25.682 E.03044
G1 X85.909 Y25.459 E.02056
G1 X86.436 Y25.312 E.02002
G1 X86.897 Y25.271 E.01692
G1 X87.131 Y25.291 E.00859
G1 X87.314 Y25.33 E.00684
G1 X87.559 Y25.421 E.00956
G1 X87.724 Y25.511 E.00688
G1 X87.9 Y25.639 E.00795
G1 X88.089 Y25.819 E.00953
G1 X88.299 Y26.077 E.01218
G1 X88.452 Y26.317 E.01041
G1 X88.564 Y26.546 E.00931
G1 X88.672 Y26.932 E.01466
G1 X88.689 Y27.19 E.00948
G1 X88.673 Y27.376 E.00683
G1 X88.628 Y27.59 E.008
G1 X88.556 Y27.8 E.00811
G1 X88.416 Y28.091 E.01179
G1 X88.202 Y28.42 E.01436
G1 X88.007 Y28.664 E.01144
G1 X87.732 Y28.957 E.01468
G1 X87.348 Y29.308 E.01904
G1 X86.761 Y29.763 E.02713
G1 X86.393 Y30.014 E.01632
G1 X85.67 Y30.428 E.03045
G1 X85.171 Y30.64 E.01984
M204 S3000
G1 X85.305 Y31.014 F18000
M204 S2000
G1 F2400
G1 X84.727 Y31.178 E.02199
G1 X84.386 Y31.222 E.01255
G1 X84.057 Y31.222 E.01205
G1 X83.725 Y31.173 E.01226
G1 X83.425 Y31.075 E.01154
G1 X83.212 Y30.97 E.00868
G1 X82.853 Y30.708 E.01626
G1 X82.533 Y30.362 E.01724
G1 X82.339 Y30.083 E.01242
G1 X82.235 Y29.9 E.00773
G1 X82.063 Y29.466 E.01705
G1 X81.994 Y29.072 E.01464
G1 X82.01 Y28.665 E.01489
G1 X82.124 Y28.22 E.01682
G1 X82.316 Y27.812 E.01646
G1 X82.648 Y27.326 E.02155
G1 X83.061 Y26.868 E.02254
G1 X83.739 Y26.277 E.03291
G1 X84.457 Y25.764 E.03224
G1 X85.214 Y25.326 E.03199
G1 X85.776 Y25.083 E.02239
G1 X86.352 Y24.922 E.0219
G1 X86.58 Y24.888 E.00842
G1 X86.904 Y24.873 E.01187
G1 X87.189 Y24.896 E.01046
G1 X87.425 Y24.947 E.00883
G1 X87.725 Y25.058 E.01168
G1 X87.938 Y25.175 E.00888
G1 X88.155 Y25.333 E.00981
G1 X88.381 Y25.547 E.01141
G1 X88.622 Y25.843 E.01396
G1 X88.8 Y26.122 E.01209
G1 X88.932 Y26.393 E.01103
G1 X89.018 Y26.642 E.00963
G1 X89.067 Y26.877 E.00878
G1 X89.088 Y27.194 E.0116
G1 X89.068 Y27.435 E.00882
G1 X89.012 Y27.697 E.0098
G1 X88.925 Y27.951 E.00986
