; generated by PrusaSlicer 2.4.0+linux-x64 on 2022-01-31 at 09:17:19 UTC


;
;

;
;
; TODO: check the size of the extruder and the y-bar clearance. Optimize & test supports.

; external perimeters extrusion width = 0.42mm
; perimeters extrusion width = 0.44mm
; infill extrusion width = 0.44mm
; solid infill extrusion width = 0.44mm
; top infill extrusion width = 0.44mm
; first layer extrusion width = 0.56mm

M107
M190 S55 ; set bed temperature and wait for it to be reached
M104 S215 ; set temperature
;TYPE:Custom
; M190 S0
; M109 S0 ; uncomment to remove set&wait temp gcode added automatically after this start gcode
print_start EXTRUDER=215 BED=55
M109 S215 ; set temperature and wait for it to be reached
G21 ; set units to millimeters
G90 ; use absolute coordinates
M83 ; use relative distances for extrusion
M107
;LAYER_CHANGE
;Z:0.2
;HEIGHT:0.2
;BEFORE_LAYER_CHANGE
;0.2


G1 Z.2 F18000
;AFTER_LAYER_CHANGE
;0.2
G1 E-2 F3000
G1 Z.6 F18000
G1 X118.801 Y118.467
G1 Z.2
G1 E2 F1800
M204 S1000
;TYPE:Perimeter
;WIDTH:0.56
G1 F900
G1 X118.807 Y118.873 E.01745
G1 X118.401 Y118.873 E.01745
G1 X118.401 Y118.467 E.01745
G1 X118.741 Y118.467 E.01462
M204 S3000
G1 X117.884 Y117.95 F18000
M204 S1000
;TYPE:External perimeter
G1 F900
G1 X119.324 Y117.95 E.06191
G1 X119.324 Y119.39 E.06191
G1 X117.884 Y119.39 E.06191
G1 X117.884 Y118.01 E.05933
M204 S3000
G1 X118.27 Y118.053 F18000
M106 S255
;LAYER_CHANGE
;Z:5.3
;HEIGHT:5.1
;BEFORE_LAYER_CHANGE
;5.3


G1 Z5.3 F18000
;AFTER_LAYER_CHANGE
;5.3
M104 S205 ; set temperature
G1 E-2 F3000
G1 Z5.7 F18000
G1 X95.108 Y94.299
G1 X94.572 Y93.712
G1 Z5.3
G1 E2 F1800
M204 S2000
;TYPE:Overhang perimeter
;WIDTH:0.334664
;HEIGHT:0.334664
G1 F8867.204
G1 X93.366 Y94.776 E.05884
G1 X92.53 Y95.451 E.0393
G1 X91.675 Y96.094 E.03912
G1 X90.367 Y96.989 E.05795
G1 X89.01 Y97.815 E.05808
G1 X87.604 Y98.571 E.0584
G1 X86.666 Y99.024 E.0381
G1 X85.701 Y99.448 E.03853
G1 X84.248 Y100.01 E.05698
G1 X82.778 Y100.488 E.05656
G1 X81.305 Y100.879 E.0557
G1 X80.316 Y101.093 E.03701
G1 X79.334 Y101.267 E.03649
G1 X78.335 Y101.406 E.03689
G1 X77.294 Y101.513 E.03827
G1 X75.663 Y101.612 E.05976
G1 X73.913 Y101.634 E.06398
G1 X72.025 Y101.576 E.0691
G1 X70.659 Y101.489 E.05004
G1 X69.189 Y101.359 E.05399
G1 X66.869 Y101.088 E.0854
G1 X64.765 Y100.757 E.0779
G1 X62.849 Y100.371 E.07149
G1 X61.643 Y100.081 E.04535
G1 X60.4 Y99.744 E.04711
G1 X58.277 Y99.099 E.08114
G1 X56.325 Y98.455 E.07517
G1 X51.597 Y96.83 E.18285
G1 X49.422 Y96.047 E.08454
G1 X47.565 Y95.346 E.07257
G1 X45.822 Y94.652 E.06863
G1 X41.894 Y93.006 E.15574
G1 X40.84 Y92.6 E.04131
G1 X39.921 Y92.277 E.03564
G1 X38.576 Y91.871 E.05138
G1 X37.313 Y91.571 E.04745
G1 X36.3 Y91.399 E.03757
G1 X35.33 Y91.307 E.03564
G1 X34.734 Y91.292 E.02182
G1 X34.171 Y91.312 E.0206
G1 X33.65 Y91.364 E.01915
G1 X32.892 Y91.503 E.02819
G1 X32.446 Y91.624 E.0169
G1 X31.729 Y91.88 E.02785
G1 X31.252 Y92.091 E.01906
G1 X30.759 Y92.343 E.02024
G1 X29.97 Y92.814 E.03362
G1 X29.124 Y93.403 E.03769
G1 X27.56 Y94.6 E.07203
G1 X24.834 Y96.583 E.12327
G1 X21.378 Y99.211 E.15878
G1 X5.281 Y81.47 E.87607
G1 X6.636 Y78.52 E.11871
G1 X7.852 Y75.787 E.1094
G1 X8.358 Y74.534 E.04941
G1 X8.699 Y73.523 E.03905
G1 X8.886 Y72.845 E.02572
G1 X9.055 Y72.109 E.02759
G1 X9.212 Y71.281 E.03082
G1 X9.366 Y70.296 E.03649
G1 X9.477 Y69.4 E.033
G1 X9.55 Y68.545 E.03139
G1 X9.591 Y67.304 E.04541
G1 X9.572 Y66.562 E.02714
G1 X9.478 Y65.464 E.0403
G1 X9.308 Y64.361 E.04082
G1 X9.154 Y63.637 E.02708
G1 X8.965 Y62.911 E.02741
G1 X8.744 Y62.199 E.02727
G1 X8.344 Y61.122 E.04203
G1 X8.035 Y60.41 E.02837
G1 X7.483 Y59.3 E.04536
G1 X7.066 Y58.554 E.03123
G1 X6.6 Y57.789 E.03277
G1 X6.068 Y56.981 E.03537
G1 X5.448 Y56.097 E.03949
G1 X4.693 Y55.077 E.04641
G1 X2.218 Y51.905 E.14712
G1 X4.466 Y49.028 E.13354
G1 X5.302 Y47.902 E.0513
G1 X5.949 Y46.982 E.04112
G1 X6.491 Y46.162 E.03595
G1 X6.981 Y45.362 E.03429
G1 X7.636 Y44.165 E.04992
G1 X8.004 Y43.402 E.03098
G1 X8.328 Y42.648 E.03001
G1 X8.609 Y41.907 E.02899
G1 X8.849 Y41.177 E.02811
G1 X9.051 Y40.449 E.02762
G1 X9.22 Y39.715 E.02756
G1 X9.354 Y38.983 E.02721
G1 X9.493 Y37.865 E.0412
G1 X9.54 Y37.137 E.02668
G1 X9.554 Y36.41 E.0266
G1 X9.535 Y35.659 E.02746
G1 X9.483 Y34.863 E.02919
G1 X9.393 Y34.007 E.03148
G1 X9.262 Y33.068 E.03467
G1 X9.099 Y32.116 E.03531
G1 X8.848 Y30.973 E.0428
G1 X8.547 Y29.927 E.03981
G1 X8.308 Y29.25 E.02625
G1 X8.007 Y28.486 E.03003
G1 X6.935 Y26.047 E.09743
G1 X5.245 Y22.349 E.1487
G1 X21.342 Y4.608 E.87607
G1 X24.35 Y6.902 E.13836
G1 X27.411 Y9.135 E.13856
G1 X29.367 Y10.62 E.08984
G1 X30.191 Y11.169 E.0362
G1 X30.725 Y11.478 E.02255
G1 X31.266 Y11.753 E.02221
G1 X31.784 Y11.977 E.02065
G1 X32.276 Y12.154 E.01912
G1 X33.007 Y12.351 E.0277
G1 X33.728 Y12.47 E.0267
G1 X34.224 Y12.513 E.0182
G1 X34.753 Y12.528 E.01938
G1 X35.312 Y12.512 E.02046
G1 X35.906 Y12.464 E.02179
G1 X36.536 Y12.381 E.02323
G1 X37.596 Y12.181 E.03943
G1 X38.79 Y11.88 E.04505
G1 X40.081 Y11.476 E.04946
G1 X41.019 Y11.139 E.03646
G1 X42.081 Y10.724 E.04169
G1 X46.422 Y8.909 E.17208
G1 X48.162 Y8.231 E.0683
G1 X50.102 Y7.511 E.07568
G1 X52.362 Y6.709 E.0877
G1 X56.957 Y5.14 E.17757
G1 X59.422 Y4.352 E.09463
G1 X61.353 Y3.804 E.07344
G1 X62.619 Y3.492 E.04765
G1 X63.829 Y3.232 E.04528
G1 X65.739 Y2.893 E.07095
G1 X67.113 Y2.694 E.05078
G1 X69.334 Y2.442 E.08175
G1 X70.904 Y2.31 E.05763
G1 X72.345 Y2.226 E.05279
G1 X73.698 Y2.187 E.04947
G1 X74.927 Y2.189 E.04496
G1 X76.107 Y2.229 E.04318
G1 X77.234 Y2.304 E.04131
G1 X78.817 Y2.481 E.05825
G1 X79.83 Y2.642 E.03752
G1 X80.814 Y2.837 E.0367
G1 X82.272 Y3.197 E.05492
G1 X83.258 Y3.489 E.0376
G1 X84.708 Y3.992 E.05613
G1 X85.682 Y4.379 E.03832
G1 X87.105 Y5.02 E.05706
G1 X88.052 Y5.498 E.03881
G1 X89.425 Y6.269 E.0576
G1 X90.328 Y6.83 E.03886
G1 X91.206 Y7.419 E.03869
G1 X92.067 Y8.042 E.03885
G1 X93.31 Y9.027 E.05801
G1 X94.125 Y9.733 E.03944
G1 X95.291 Y10.835 E.05867
G1 X96.05 Y11.617 E.03983
G1 X97.126 Y12.825 E.05917
G1 X97.817 Y13.671 E.03995
G1 X98.478 Y14.538 E.03986
G1 X99.111 Y15.432 E.04006
G1 X99.997 Y16.802 E.05969
G1 X100.563 Y17.762 E.04075
G1 X101.102 Y18.751 E.04118
G1 X101.618 Y19.775 E.04194
G1 X102.338 Y21.356 E.06355
G1 X102.789 Y22.457 E.04349
G1 X103.209 Y23.582 E.04394
G1 X103.612 Y24.763 E.04563
G1 X104.255 Y26.855 E.08003
G1 X104.921 Y29.206 E.08938
G1 X105.599 Y32.098 E.10864
G1 X106.129 Y34.46 E.0885
G1 X107.437 Y40.874 E.2394
G1 X107.769 Y42.352 E.05542
G1 X108.111 Y43.726 E.05177
G1 X108.512 Y45.195 E.05569
G1 X108.984 Y46.796 E.06106
G1 X109.551 Y48.604 E.06927
G1 X110.651 Y51.927 E.12804
G1 X109.662 Y54.911 E.11496
G1 X109.065 Y56.798 E.07238
G1 X108.374 Y59.165 E.09016
G1 X107.969 Y60.71 E.05844
G1 X107.469 Y62.879 E.08139
G1 X106.426 Y68.097 E.19461
G1 X105.745 Y71.234 E.11742
G1 X104.958 Y74.613 E.12688
G1 X104.394 Y76.612 E.07595
G1 X103.718 Y78.844 E.0853
G1 X103.316 Y80.04 E.04613
G1 X102.882 Y81.218 E.04592
G1 X102.43 Y82.334 E.04403
G1 X101.951 Y83.42 E.04339
G1 X101.444 Y84.473 E.04275
G1 X100.91 Y85.498 E.04227
G1 X100.067 Y86.964 E.06185
G1 X99.168 Y88.358 E.06065
G1 X98.214 Y89.684 E.05975
G1 X97.537 Y90.545 E.04006
G1 X96.831 Y91.381 E.04
G1 X95.731 Y92.577 E.05943
G1 X94.615 Y93.67 E.05713
M204 S3000
G1 X94.33 Y93.379 F18000
M204 S2000
G1 F8867.204
G1 X93.103 Y94.465 E.05993
G1 X92.279 Y95.13 E.03871
G1 X91.437 Y95.762 E.03853
G1 X90.145 Y96.646 E.05723
G1 X88.807 Y97.461 E.05729
G1 X87.419 Y98.208 E.05767
G1 X86.495 Y98.654 E.03751
G1 X85.546 Y99.071 E.03793
G1 X84.111 Y99.625 E.05624
G1 X82.662 Y100.097 E.05574
G1 X81.21 Y100.483 E.05494
G1 X80.238 Y100.693 E.03638
G1 X79.27 Y100.864 E.03593
G1 X78.286 Y101.001 E.03635
G1 X77.261 Y101.107 E.03769
G1 X75.648 Y101.204 E.05909
G1 X73.917 Y101.226 E.0633
G1 X72.044 Y101.169 E.06853
G1 X70.69 Y101.082 E.04961
G1 X69.23 Y100.954 E.0536
G1 X66.925 Y100.683 E.0849
G1 X64.837 Y100.356 E.07729
G1 X62.937 Y99.973 E.07088
G1 X61.744 Y99.686 E.04486
G1 X60.512 Y99.352 E.04668
G1 X58.4 Y98.71 E.08074
G1 X56.455 Y98.069 E.07489
G1 X51.732 Y96.445 E.18265
G1 X49.563 Y95.664 E.08432
G1 X47.713 Y94.966 E.07232
G1 X45.976 Y94.275 E.06836
G1 X42.046 Y92.628 E.15582
G1 X40.981 Y92.218 E.04175
G1 X40.047 Y91.89 E.03619
G1 X38.682 Y91.477 E.05217
G1 X37.395 Y91.172 E.04839
G1 X36.354 Y90.995 E.0386
G1 X35.355 Y90.899 E.03671
G1 X34.732 Y90.884 E.02279
G1 X34.144 Y90.905 E.02152
G1 X33.593 Y90.96 E.02023
G1 X32.802 Y91.105 E.02942
G1 X32.324 Y91.234 E.01811
G1 X31.577 Y91.501 E.02898
G1 X31.077 Y91.723 E.02003
G1 X30.562 Y91.986 E.02115
G1 X29.749 Y92.471 E.03463
G1 X28.884 Y93.074 E.03855
G1 X27.316 Y94.274 E.07219
G1 X24.591 Y96.256 E.12324
G1 X21.429 Y98.66 E.14527
G1 X5.764 Y81.396 E.85254
G1 X7.007 Y78.688 E.10895
G1 X8.227 Y75.947 E.10975
G1 X8.741 Y74.676 E.05011
G1 X9.09 Y73.642 E.03992
G1 X9.282 Y72.944 E.02646
G1 X9.454 Y72.193 E.02819
G1 X9.614 Y71.351 E.03134
G1 X9.77 Y70.352 E.03697
G1 X9.882 Y69.443 E.03352
G1 X9.958 Y68.569 E.03206
G1 X9.999 Y67.305 E.04625
G1 X9.979 Y66.539 E.02802
G1 X9.884 Y65.416 E.04125
G1 X9.709 Y64.287 E.04175
G1 X9.551 Y63.543 E.02784
G1 X9.357 Y62.8 E.02808
G1 X9.13 Y62.068 E.02803
G1 X8.722 Y60.97 E.04284
G1 X8.405 Y60.238 E.02915
G1 X7.844 Y59.109 E.04611
G1 X7.418 Y58.348 E.03188
G1 X6.944 Y57.571 E.03331
G1 X6.406 Y56.752 E.03585
G1 X5.779 Y55.859 E.0399
G1 X5.018 Y54.83 E.04679
G1 X2.735 Y51.906 E.13567
G1 X4.79 Y49.275 E.12208
G1 X5.632 Y48.141 E.05167
G1 X6.286 Y47.212 E.04153
G1 X6.835 Y46.381 E.03643
G1 X7.334 Y45.567 E.0349
G1 X7.999 Y44.352 E.05067
G1 X8.375 Y43.571 E.03169
G1 X8.706 Y42.801 E.03066
G1 X8.994 Y42.043 E.02966
G1 X9.239 Y41.295 E.02878
G1 X9.447 Y40.55 E.0283
G1 X9.62 Y39.797 E.02823
G1 X9.757 Y39.045 E.02797
G1 X9.899 Y37.904 E.04206
G1 X9.948 Y37.154 E.02745
G1 X9.962 Y36.409 E.02727
G1 X9.943 Y35.641 E.0281
G1 X9.889 Y34.828 E.02978
G1 X9.798 Y33.957 E.03202
G1 X9.665 Y33.005 E.03516
G1 X9.499 Y32.038 E.03588
G1 X9.244 Y30.873 E.04363
G1 X8.935 Y29.803 E.04072
G1 X8.691 Y29.107 E.02696
G1 X8.383 Y28.329 E.03059
G1 X7.308 Y25.88 E.09782
G1 X5.728 Y22.424 E.13898
G1 X21.392 Y5.159 E.85255
G1 X24.106 Y7.229 E.12482
G1 X27.167 Y9.462 E.13858
G1 X29.131 Y10.953 E.09016
G1 X29.976 Y11.515 E.03712
G1 X30.53 Y11.837 E.02343
G1 X31.093 Y12.122 E.02308
G1 X31.634 Y12.357 E.02158
G1 X32.154 Y12.544 E.02021
G1 X32.921 Y12.75 E.02905
G1 X33.677 Y12.875 E.02801
G1 X34.2 Y12.921 E.01921
G1 X34.753 Y12.936 E.02023
G1 X35.335 Y12.92 E.02128
G1 X35.949 Y12.87 E.02256
G1 X36.601 Y12.784 E.02402
G1 X37.683 Y12.579 E.0403
G1 X38.901 Y12.272 E.04591
G1 X40.21 Y11.863 E.05018
G1 X41.162 Y11.521 E.03698
G1 X42.234 Y11.102 E.04208
G1 X46.575 Y9.287 E.17207
G1 X48.307 Y8.612 E.068
G1 X50.241 Y7.894 E.07545
G1 X52.496 Y7.094 E.0875
G1 X57.085 Y5.527 E.17734
G1 X59.539 Y4.743 E.09424
G1 X61.458 Y4.198 E.07293
G1 X62.71 Y3.889 E.04717
G1 X63.908 Y3.633 E.04479
G1 X65.804 Y3.295 E.07044
G1 X67.165 Y3.099 E.05031
G1 X69.374 Y2.848 E.08131
G1 X70.933 Y2.717 E.05722
G1 X72.363 Y2.634 E.05237
G1 X73.703 Y2.595 E.04903
G1 X74.92 Y2.597 E.04449
G1 X76.087 Y2.636 E.04269
G1 X77.198 Y2.711 E.04073
G1 X78.762 Y2.885 E.05758
G1 X79.758 Y3.044 E.03689
G1 X80.726 Y3.235 E.03606
G1 X82.165 Y3.591 E.05423
G1 X83.133 Y3.878 E.03692
G1 X84.566 Y4.374 E.05546
G1 X85.523 Y4.755 E.03765
G1 X86.929 Y5.388 E.0564
G1 X87.86 Y5.858 E.03815
G1 X89.218 Y6.62 E.05694
G1 X90.107 Y7.172 E.03827
G1 X90.973 Y7.754 E.03816
G1 X91.821 Y8.367 E.03826
G1 X93.05 Y9.341 E.05736
G1 X93.852 Y10.036 E.0388
G1 X95.005 Y11.125 E.05802
G1 X95.751 Y11.894 E.03919
G1 X96.816 Y13.089 E.05854
G1 X97.497 Y13.923 E.03937
G1 X98.149 Y14.779 E.03935
G1 X98.773 Y15.66 E.03949
G1 X99.65 Y17.016 E.05906
G1 X100.208 Y17.963 E.04019
G1 X100.741 Y18.94 E.0407
G1 X101.25 Y19.951 E.0414
G1 X101.964 Y21.518 E.06297
G1 X102.409 Y22.605 E.04297
G1 X102.825 Y23.72 E.0435
G1 X103.224 Y24.889 E.04518
G1 X103.864 Y26.97 E.07963
G1 X104.526 Y29.309 E.08887
G1 X105.201 Y32.19 E.10823
G1 X105.73 Y34.545 E.08828
G1 X107.038 Y40.959 E.2394
G1 X107.372 Y42.446 E.05574
G1 X107.716 Y43.829 E.05211
G1 X108.12 Y45.306 E.05601
G1 X108.594 Y46.915 E.06134
G1 X109.163 Y48.729 E.06951
G1 X110.221 Y51.927 E.12321
G1 X109.274 Y54.785 E.11012
G1 X108.675 Y56.679 E.07265
G1 X107.981 Y59.056 E.09053
G1 X107.573 Y60.613 E.05887
G1 X107.071 Y62.793 E.08183
G1 X106.027 Y68.014 E.1947
G1 X105.347 Y71.145 E.11718
G1 X104.563 Y74.512 E.12642
G1 X104.003 Y76.498 E.07547
G1 X103.329 Y78.72 E.08494
G1 X102.932 Y79.905 E.04569
G1 X102.501 Y81.071 E.04547
G1 X102.054 Y82.175 E.04356
G1 X101.58 Y83.249 E.04292
G1 X101.079 Y84.291 E.04227
G1 X100.552 Y85.302 E.04172
G1 X99.718 Y86.752 E.06116
G1 X98.831 Y88.128 E.05989
G1 X97.888 Y89.439 E.05905
G1 X97.22 Y90.287 E.03948
G1 X96.525 Y91.111 E.03942
G1 X95.438 Y92.293 E.05872
G1 X94.372 Y93.337 E.05455
M204 S3000
G1 X94.094 Y93.052 F18000
M204 S2000
G1 F8867.204
G1 X92.846 Y94.161 E.06104
G1 X92.035 Y94.816 E.03813
G1 X91.205 Y95.439 E.03795
G1 X89.929 Y96.312 E.05652
G1 X88.61 Y97.116 E.05651
G1 X87.238 Y97.854 E.05696
G1 X86.329 Y98.292 E.03693
G1 X85.394 Y98.703 E.03734
G1 X83.978 Y99.251 E.05552
G1 X82.549 Y99.715 E.05495
G1 X81.117 Y100.096 E.0542
G1 X80.161 Y100.302 E.03576
G1 X79.208 Y100.471 E.03539
G1 X78.238 Y100.606 E.03583
G1 X77.228 Y100.71 E.03713
G1 X75.633 Y100.807 E.05843
G1 X73.921 Y100.829 E.06264
G1 X72.063 Y100.771 E.06797
G1 X70.72 Y100.686 E.0492
G1 X69.271 Y100.558 E.05321
G1 X66.979 Y100.289 E.0844
G1 X64.907 Y99.964 E.07669
G1 X63.023 Y99.585 E.0703
G1 X61.843 Y99.3 E.04437
G1 X60.622 Y98.969 E.04625
G1 X58.52 Y98.331 E.08035
G1 X56.582 Y97.692 E.07463
G1 X51.864 Y96.07 E.18245
G1 X49.701 Y95.291 E.0841
G1 X47.857 Y94.595 E.07208
G1 X46.126 Y93.907 E.0681
G1 X42.195 Y92.259 E.1559
G1 X41.118 Y91.844 E.04218
G1 X40.171 Y91.511 E.03673
G1 X38.785 Y91.092 E.05293
G1 X37.474 Y90.782 E.0493
G1 X36.406 Y90.6 E.0396
G1 X35.379 Y90.502 E.03775
G1 X34.73 Y90.486 E.02375
G1 X34.117 Y90.508 E.02242
G1 X33.538 Y90.566 E.02129
G1 X32.714 Y90.717 E.03063
G1 X32.205 Y90.854 E.01929
G1 X31.43 Y91.131 E.03009
G1 X30.905 Y91.363 E.02098
G1 X30.369 Y91.638 E.02203
G1 X29.533 Y92.137 E.03562
G1 X28.649 Y92.752 E.03939
G1 X27.078 Y93.955 E.07234
G1 X24.354 Y95.937 E.12322
G1 X21.478 Y98.122 E.13209
G1 X6.235 Y81.323 E.8296
G1 X7.37 Y78.852 E.09943
G1 X8.594 Y76.102 E.11008
G1 X9.114 Y74.814 E.05079
G1 X9.47 Y73.758 E.04076
G1 X9.667 Y73.042 E.02719
G1 X9.843 Y72.275 E.02878
G1 X10.006 Y71.419 E.03185
G1 X10.164 Y70.408 E.03744
G1 X10.278 Y69.484 E.03402
G1 X10.355 Y68.593 E.03272
G1 X10.397 Y67.307 E.04706
G1 X10.376 Y66.517 E.02887
G1 X10.279 Y65.368 E.04217
G1 X10.101 Y64.215 E.04267
G1 X9.938 Y63.451 E.02858
G1 X9.74 Y62.69 E.02874
G1 X9.507 Y61.939 E.02876
G1 X9.091 Y60.821 E.04363
G1 X8.765 Y60.071 E.02991
G1 X8.196 Y58.924 E.04684
G1 X7.762 Y58.148 E.03251
G1 X7.28 Y57.358 E.03383
G1 X6.735 Y56.528 E.03632
G1 X6.102 Y55.626 E.0403
G1 X5.335 Y54.589 E.04716
G1 X3.24 Y51.906 E.1245
G1 X5.107 Y49.516 E.11089
G1 X5.955 Y48.374 E.05203
G1 X6.615 Y47.436 E.04193
G1 X7.171 Y46.594 E.0369
G1 X7.678 Y45.767 E.03551
G1 X8.353 Y44.534 E.0514
G1 X8.737 Y43.736 E.03237
G1 X9.075 Y42.95 E.03129
G1 X9.369 Y42.175 E.03031
G1 X9.62 Y41.41 E.02944
G1 X9.832 Y40.648 E.02896
G1 X10.01 Y39.878 E.02889
G1 X10.151 Y39.105 E.02872
G1 X10.295 Y37.941 E.0429
G1 X10.346 Y37.171 E.02822
G1 X10.36 Y36.408 E.02793
G1 X10.34 Y35.623 E.02872
G1 X10.285 Y34.794 E.03036
G1 X10.193 Y33.909 E.03255
G1 X10.058 Y32.944 E.03564
G1 X9.89 Y31.962 E.03644
G1 X9.63 Y30.775 E.04444
G1 X9.314 Y29.681 E.04162
G1 X9.063 Y28.968 E.02766
G1 X8.75 Y28.176 E.03114
G1 X7.671 Y25.717 E.09821
G1 X6.199 Y22.497 E.1295
G1 X21.441 Y5.697 E.8296
G1 X23.868 Y7.548 E.11162
G1 X26.93 Y9.781 E.13859
G1 X28.9 Y11.277 E.09047
G1 X29.766 Y11.853 E.03802
G1 X30.34 Y12.186 E.02428
G1 X30.923 Y12.482 E.02393
G1 X31.487 Y12.727 E.02248
G1 X32.035 Y12.924 E.02127
G1 X32.837 Y13.139 E.03037
G1 X33.627 Y13.27 E.02929
G1 X34.177 Y13.318 E.0202
G1 X34.753 Y13.334 E.02107
G1 X35.356 Y13.317 E.02207
G1 X35.992 Y13.265 E.0233
G1 X36.664 Y13.177 E.02479
G1 X37.769 Y12.968 E.04115
