; generated by PrusaSlicer 2.4.0+linux-x64 on 2022-01-31 at 07:18:01 UTC


;
;

;
;
; TODO: check the size of the extruder and the y-bar clearance. Optimize & test supports.

; external perimeters extrusion width = 0.42mm
; perimeters extrusion width = 0.44mm
; infill extrusion width = 0.44mm
; solid infill extrusion width = 0.44mm
; top infill extrusion width = 0.44mm
; first layer extrusion width = 0.56mm

M107
M190 S55 ; set bed temperature and wait for it to be reached
M104 S215 ; set temperature
;TYPE:Custom
; M190 S0
; M109 S0 ; uncomment to remove set&wait temp gcode added automatically after this start gcode
print_start EXTRUDER=215 BED=55
M109 S215 ; set temperature and wait for it to be reached
G21 ; set units to millimeters
G90 ; use absolute coordinates
M83 ; use relative distances for extrusion
M107
;LAYER_CHANGE
;Z:0.2
;HEIGHT:0.2
;BEFORE_LAYER_CHANGE
;0.2


G1 Z.2 F18000
;AFTER_LAYER_CHANGE
;0.2
G1 E-2 F3000
G1 Z.6 F18000
G1 X113.721 Y112.279
G1 Z.2
G1 E2 F1800
M204 S1000
;TYPE:Perimeter
;WIDTH:0.56
G1 X118.514 Y112.279 E.20607
G1 X118.514 Y117.872 E.24046
G1 X112.921 Y117.872 E.24046
G1 X112.921 Y112.279 E.24046
G1 X113.661 Y112.279 E.03182
M204 S3000
G1 X112.804 Y111.762 F18000
M204 S1000
G1 F1800
G1 X119.031 Y111.762 E.26773
G1 X119.031 Y118.389 E.28493
G1 X112.404 Y118.389 E.28493
G1 X112.404 Y111.762 E.28493
G1 X112.744 Y111.762 E.01462
M204 S3000
G1 X111.887 Y111.245 F18000
M204 S1000
;TYPE:External perimeter
G1 F1800
G1 X119.548 Y111.245 E.32939
G1 X119.548 Y118.906 E.32939
G1 X111.887 Y118.906 E.32939
G1 X111.887 Y111.305 E.32681
M204 S3000
G1 X112.273 Y111.349 F18000
G1 E-2 F3000
G1 Z.6 F18000
G1 X117.252 Y112.46
G1 Z.2
G1 E2 F1800
M204 S1000
;TYPE:Solid infill
;WIDTH:0.576535
G1 X118.1 Y113.308 E.05319
G1 X118.1 Y114.063 E.03348
G1 X116.731 Y112.693 E.08594
G1 X115.976 Y112.693 E.03348
G1 X118.1 Y114.817 E.13329
G1 X118.1 Y115.572 E.03348
G1 X115.221 Y112.693 E.18065
G1 X114.467 Y112.693 E.03348
G1 X118.1 Y116.327 E.228
G1 X118.1 Y117.081 E.03348
G1 X113.712 Y112.693 E.27535
G1 X113.335 Y112.693 E.01674
G1 X113.335 Y113.071 E.01674
G1 X117.723 Y117.459 E.27535
G1 X116.968 Y117.459 E.03348
G1 X113.335 Y113.825 E.22799
G1 X113.335 Y114.58 E.03348
G1 X116.213 Y117.459 E.18064
G1 X115.459 Y117.459 E.03348
G1 X113.335 Y115.334 E.13329
G1 X113.335 Y116.089 E.03348
G1 X114.704 Y117.459 E.08593
G1 X113.95 Y117.459 E.03348
G1 X113.102 Y116.611 E.05318
M204 S3000
G1 E-2 F3000
G1 Z.6 F18000
G1 X112.283 Y115.841
G1 X91.897 Y96.679
G1 X57.646 Y64.484
G1 Z.2
G1 E2 F1800
M204 S1000
;TYPE:Perimeter
;WIDTH:0.56
G1 X57.157 Y64.844 E.02608
G1 X56.642 Y65.143 E.02559
G1 X56.133 Y65.38 E.02414
G1 X55.607 Y65.572 E.02406
G1 X55.053 Y65.72 E.02468
G1 X54.252 Y65.844 E.03486
G1 X53.678 Y65.869 E.02468
G1 X53.119 Y65.844 E.02406
G1 X52.564 Y65.771 E.02407
G1 X52.004 Y65.647 E.02468
G1 X51.236 Y65.386 E.03485
G1 X50.704 Y65.138 E.02526
G1 X50.029 Y64.73 E.0339
G1 X49.556 Y64.369 E.02559
G1 X49.131 Y63.98 E.02476
G1 X48.597 Y63.37 E.03485
G1 X48.267 Y62.9 E.02468
G1 X47.988 Y62.416 E.02406
G1 X47.751 Y61.908 E.02406
G1 X47.56 Y61.382 E.02406
G1 X47.411 Y60.828 E.02468
G1 X47.288 Y60.027 E.03486
G1 X47.263 Y59.453 E.02468
G1 X47.288 Y58.88 E.02468
G1 X47.411 Y58.079 E.03486
G1 X47.56 Y57.524 E.02468
G1 X47.751 Y56.998 E.02406
G1 X47.993 Y56.479 E.02464
G1 X48.401 Y55.804 E.0339
G1 X48.762 Y55.331 E.02559
G1 X49.142 Y54.917 E.02414
G1 X49.554 Y54.539 E.02406
G1 X50.009 Y54.19 E.02464
G1 X50.683 Y53.78 E.0339
G1 X51.221 Y53.527 E.02559
G1 X51.749 Y53.335 E.02414
G1 X52.29 Y53.19 E.02406
G1 X52.854 Y53.09 E.02464
G1 X53.641 Y53.038 E.0339
G1 X54.235 Y53.062 E.02559
G1 X54.806 Y53.137 E.02473
G1 X55.572 Y53.323 E.0339
G1 X56.132 Y53.525 E.02559
G1 X56.653 Y53.768 E.02472
G1 X57.327 Y54.176 E.0339
G1 X57.801 Y54.537 E.02559
G1 X58.215 Y54.917 E.02414
G1 X58.602 Y55.339 E.02464
G1 X59.069 Y55.975 E.0339
G1 X59.368 Y56.489 E.02559
G1 X59.605 Y56.998 E.02415
G1 X59.797 Y57.524 E.02406
G1 X59.945 Y58.079 E.02468
G1 X60.069 Y58.88 E.03486
G1 X60.094 Y59.453 E.02468
G1 X60.069 Y60.027 E.02468
G1 X59.945 Y60.828 E.03486
G1 X59.797 Y61.382 E.02468
G1 X59.605 Y61.908 E.02406
G1 X59.363 Y62.429 E.02468
G1 X58.942 Y63.122 E.03485
G1 X58.593 Y63.577 E.02468
G1 X58.215 Y63.99 E.02406
G1 X57.694 Y64.449 E.02985
M204 S3000
G1 X57.57 Y63.879 F18000
M204 S1000
G1 F1800
G1 X57.463 Y63.977 E.00625
G1 X56.873 Y64.411 E.0315
G1 X56.403 Y64.684 E.02339
G1 X55.935 Y64.902 E.02217
G1 X55.452 Y65.078 E.02212
G1 X54.946 Y65.214 E.0225
G1 X54.201 Y65.328 E.03243
G1 X53.678 Y65.351 E.02249
G1 X53.164 Y65.329 E.02212
G1 X52.654 Y65.262 E.02213
G1 X52.143 Y65.148 E.0225
G1 X51.429 Y64.906 E.03243
G1 X50.947 Y64.681 E.02285
G1 X50.321 Y64.302 E.0315
G1 X49.888 Y63.972 E.02339
G1 X49.501 Y63.618 E.02255
G1 X49.004 Y63.051 E.03242
G1 X48.704 Y62.622 E.0225
G1 X48.447 Y62.177 E.02212
G1 X48.229 Y61.71 E.02212
G1 X48.053 Y61.227 E.02212
G1 X47.918 Y60.721 E.0225
G1 X47.803 Y59.976 E.03243
G1 X47.78 Y59.453 E.02249
G1 X47.803 Y58.931 E.02249
G1 X47.918 Y58.185 E.03243
G1 X48.053 Y57.68 E.0225
G1 X48.229 Y57.196 E.02212
G1 X48.45 Y56.723 E.02247
G1 X48.829 Y56.096 E.0315
G1 X49.159 Y55.663 E.02339
G1 X49.508 Y55.283 E.02217
G1 X49.887 Y54.935 E.02212
G1 X50.302 Y54.617 E.02247
G1 X50.928 Y54.236 E.0315
G1 X51.42 Y54.005 E.02339
G1 X51.905 Y53.828 E.02217
G1 X52.402 Y53.695 E.02212
G1 X52.916 Y53.604 E.02247
G1 X53.647 Y53.555 E.0315
G1 X54.191 Y53.578 E.02339
G1 X54.71 Y53.646 E.02253
G1 X55.422 Y53.819 E.0315
G1 X55.934 Y54.004 E.02339
G1 X56.409 Y54.225 E.02252
G1 X57.036 Y54.604 E.0315
G1 X57.468 Y54.934 E.02339
G1 X57.849 Y55.283 E.02217
G1 X58.202 Y55.668 E.02247
G1 X58.636 Y56.258 E.0315
G1 X58.909 Y56.729 E.02339
G1 X59.127 Y57.196 E.02217
G1 X59.303 Y57.68 E.02212
G1 X59.438 Y58.185 E.0225
G1 X59.553 Y58.931 E.03243
G1 X59.576 Y59.453 E.02249
G1 X59.553 Y59.976 E.02249
G1 X59.438 Y60.721 E.03243
G1 X59.303 Y61.227 E.0225
G1 X59.127 Y61.71 E.02212
G1 X58.906 Y62.184 E.0225
G1 X58.515 Y62.829 E.03242
G1 X58.196 Y63.244 E.0225
G1 X57.849 Y63.624 E.02212
G1 X57.615 Y63.838 E.01365
M204 S3000
G1 X57.483 Y63.258 F18000
M204 S1000
;TYPE:External perimeter
G1 F1800
G1 X57.134 Y63.577 E.0203
G1 X56.589 Y63.978 E.02911
G1 X56.163 Y64.225 E.02119
G1 X55.737 Y64.424 E.0202
G1 X55.296 Y64.585 E.02018
G1 X54.84 Y64.707 E.02031
G1 X54.15 Y64.813 E.03
G1 X53.678 Y64.834 E.02031
G1 X53.209 Y64.813 E.02018
G1 X52.744 Y64.752 E.02019
G1 X52.283 Y64.65 E.02031
G1 X51.622 Y64.425 E.03
G1 X51.191 Y64.224 E.02044
G1 X50.612 Y63.874 E.02911
G1 X50.22 Y63.575 E.02119
G1 X49.871 Y63.256 E.02033
G1 X49.411 Y62.731 E.03
G1 X49.14 Y62.344 E.02031
G1 X48.906 Y61.938 E.02018
G1 X48.707 Y61.512 E.02018
G1 X48.547 Y61.071 E.02018
G1 X48.425 Y60.615 E.02031
G1 X48.318 Y59.925 E.03
G1 X48.298 Y59.453 E.02031
G1 X48.318 Y58.981 E.02031
G1 X48.425 Y58.292 E.03
G1 X48.547 Y57.835 E.02031
G1 X48.707 Y57.394 E.02018
G1 X48.907 Y56.966 E.0203
G1 X49.257 Y56.387 E.02911
G1 X49.556 Y55.995 E.02119
G1 X49.874 Y55.649 E.0202
G1 X50.22 Y55.332 E.02018
G1 X50.594 Y55.044 E.0203
G1 X51.173 Y54.692 E.02911
G1 X51.619 Y54.483 E.02119
G1 X52.06 Y54.322 E.0202
G1 X52.514 Y54.2 E.02018
G1 X52.979 Y54.118 E.0203
G1 X53.654 Y54.073 E.02911
G1 X54.147 Y54.093 E.02119
G1 X54.615 Y54.155 E.02033
G1 X55.273 Y54.315 E.0291
G1 X55.737 Y54.482 E.02119
G1 X56.165 Y54.682 E.02032
G1 X56.744 Y55.032 E.02911
G1 X57.136 Y55.331 E.02119
G1 X57.483 Y55.649 E.0202
G1 X57.802 Y55.997 E.0203
G1 X58.203 Y56.542 E.02911
G1 X58.45 Y56.969 E.02119
G1 X58.649 Y57.394 E.0202
G1 X58.809 Y57.835 E.02018
G1 X58.932 Y58.292 E.02031
G1 X59.038 Y58.981 E.03
G1 X59.058 Y59.453 E.02031
G1 X59.038 Y59.925 E.02031
G1 X58.932 Y60.615 E.03
G1 X58.809 Y61.071 E.02031
G1 X58.649 Y61.512 E.02018
G1 X58.449 Y61.94 E.02031
G1 X58.087 Y62.537 E.03
G1 X57.8 Y62.912 E.02031
G1 X57.523 Y63.213 E.0176
M204 S3000
G1 X57.586 Y63.644 F18000
G1 E-2 F3000
G1 Z.6 F18000
G1 X57.81 Y63.488
G1 X57.937 Y63.355
G1 X58.103 Y63.166
G1 X58.26 Y62.969
G1 X58.41 Y62.766
G1 X58.55 Y62.557
G1 X58.68 Y62.341
G1 X58.801 Y62.12
G1 X58.913 Y61.894
G1 X59.014 Y61.664
G1 X59.106 Y61.429
G1 X59.187 Y61.19
G1 X59.257 Y60.948
G1 X59.317 Y60.703
G1 X59.366 Y60.456
G1 X59.405 Y60.207
G1 X59.432 Y59.956
G1 X59.449 Y59.705
G1 X59.454 Y59.453
G1 X59.449 Y59.201
G1 X59.432 Y58.95
G1 X59.405 Y58.699
G1 X59.366 Y58.45
G1 X59.317 Y58.203
G1 X59.257 Y57.958
G1 X59.187 Y57.716
G1 X59.106 Y57.478
G1 X59.014 Y57.243
G1 X58.913 Y57.012
G1 X58.801 Y56.786
G1 X58.68 Y56.565
G1 X58.55 Y56.35
G1 X58.41 Y56.14
G1 X54.164 Y50.208
G1 X54.206 Y50.846
G1 Z.2
G1 E2 F1800
M204 S1000
;TYPE:Perimeter
G1 X53.678 Y50.869 E.02271
G1 X53.105 Y50.844 E.02468
G1 X52.303 Y50.72 E.03486
G1 X51.749 Y50.572 E.02468
G1 X51.21 Y50.376 E.02464
G1 X50.503 Y50.028 E.0339
G1 X50 Y49.71 E.02559
G1 X49.554 Y49.368 E.02414
G1 X49.142 Y48.99 E.02406
G1 X48.754 Y48.566 E.02468
G1 X48.275 Y47.913 E.03485
G1 X47.988 Y47.416 E.02468
G1 X47.751 Y46.908 E.02406
G1 X47.56 Y46.382 E.02406
G1 X47.411 Y45.828 E.02468
G1 X47.288 Y45.027 E.03486
G1 X47.263 Y44.453 E.02468
G1 X47.288 Y43.88 E.02468
G1 X47.411 Y43.079 E.03486
G1 X47.56 Y42.524 E.02468
G1 X47.751 Y41.998 E.02406
G1 X47.993 Y41.479 E.02464
G1 X48.401 Y40.804 E.0339
G1 X48.762 Y40.331 E.02559
G1 X49.142 Y39.917 E.02414
G1 X49.564 Y39.53 E.02464
G1 X50.199 Y39.063 E.0339
G1 X50.714 Y38.763 E.02559
G1 X51.223 Y38.526 E.02414
G1 X51.749 Y38.335 E.02406
G1 X52.29 Y38.19 E.02406
G1 X52.854 Y38.09 E.02464
G1 X53.641 Y38.038 E.0339
G1 X54.235 Y38.062 E.02559
G1 X54.792 Y38.135 E.02415
G1 X55.353 Y38.26 E.02468
G1 X56.12 Y38.52 E.03485
G1 X56.64 Y38.763 E.02468
G1 X57.137 Y39.049 E.02464
G1 X57.773 Y39.515 E.0339
G1 X58.213 Y39.915 E.02559
G1 X58.602 Y40.34 E.02476
G1 X59.082 Y40.994 E.03485
G1 X59.369 Y41.491 E.02468
G1 X59.611 Y42.011 E.02468
G1 X59.872 Y42.779 E.03485
G1 X59.996 Y43.339 E.02468
G1 X60.069 Y43.894 E.02407
G1 X60.094 Y44.453 E.02406
G1 X60.069 Y45.027 E.02468
G1 X59.945 Y45.828 E.03486
G1 X59.797 Y46.382 E.02468
G1 X59.605 Y46.908 E.02406
G1 X59.369 Y47.416 E.02406
G1 X59.089 Y47.9 E.02406
G1 X58.76 Y48.37 E.02468
G1 X58.225 Y48.98 E.03485
G1 X57.792 Y49.377 E.02526
G1 X57.157 Y49.844 E.0339
G1 X56.642 Y50.143 E.02559
G1 X56.133 Y50.38 E.02415
G1 X55.607 Y50.572 E.02406
G1 X55.053 Y50.72 E.02468
G1 X54.266 Y50.841 E.03424
M204 S3000
G1 X54.523 Y50.279 F18000
M204 S1000
G1 F1800
G1 X54.201 Y50.328 E.01402
G1 X53.678 Y50.351 E.02249
G1 X53.156 Y50.328 E.02249
G1 X52.41 Y50.214 E.03243
G1 X51.905 Y50.078 E.0225
G1 X51.413 Y49.899 E.02247
G1 X50.756 Y49.576 E.0315
G1 X50.296 Y49.285 E.02339
G1 X49.887 Y48.971 E.02217
G1 X49.508 Y48.624 E.02212
G1 X49.154 Y48.238 E.0225
G1 X48.708 Y47.63 E.03242
G1 X48.447 Y47.177 E.0225
G1 X48.229 Y46.71 E.02212
G1 X48.053 Y46.227 E.02212
G1 X47.918 Y45.721 E.0225
G1 X47.803 Y44.976 E.03243
G1 X47.78 Y44.453 E.02249
G1 X47.803 Y43.931 E.02249
G1 X47.918 Y43.185 E.03243
G1 X48.053 Y42.68 E.0225
G1 X48.229 Y42.196 E.02212
G1 X48.45 Y41.723 E.02247
G1 X48.829 Y41.096 E.0315
G1 X49.159 Y40.663 E.02339
G1 X49.508 Y40.283 E.02217
G1 X49.893 Y39.93 E.02247
G1 X50.483 Y39.496 E.0315
G1 X50.954 Y39.222 E.02339
G1 X51.421 Y39.004 E.02217
G1 X51.905 Y38.828 E.02212
G1 X52.402 Y38.695 E.02212
G1 X52.916 Y38.604 E.02247
G1 X53.647 Y38.555 E.0315
G1 X54.191 Y38.578 E.02339
G1 X54.702 Y38.645 E.02218
G1 X55.213 Y38.758 E.0225
G1 X55.927 Y39.001 E.03242
G1 X56.401 Y39.222 E.0225
G1 X56.854 Y39.483 E.02247
G1 X57.446 Y39.916 E.0315
G1 X57.848 Y40.282 E.02339
G1 X58.202 Y40.669 E.02255
G1 X58.648 Y41.277 E.03242
G1 X58.91 Y41.73 E.0225
G1 X59.131 Y42.204 E.0225
G1 X59.373 Y42.918 E.03242
G1 X59.486 Y43.429 E.0225
G1 X59.554 Y43.939 E.02213
G1 X59.576 Y44.453 E.02212
G1 X59.553 Y44.976 E.02249
G1 X59.438 Y45.721 E.03243
G1 X59.303 Y46.227 E.0225
G1 X59.127 Y46.71 E.02212
G1 X58.91 Y47.177 E.02212
G1 X58.652 Y47.622 E.02212
G1 X58.352 Y48.051 E.0225
G1 X57.855 Y48.618 E.03242
G1 X57.463 Y48.977 E.02285
G1 X56.873 Y49.411 E.0315
G1 X56.403 Y49.684 E.02339
G1 X55.935 Y49.902 E.02217
G1 X55.452 Y50.078 E.02212
G1 X54.946 Y50.214 E.0225
G1 X54.582 Y50.27 E.01583
M204 S3000
G1 X54.84 Y49.707 F18000
M204 S1000
;TYPE:External perimeter
G1 F1800
G1 X54.15 Y49.813 E.03
G1 X53.678 Y49.834 E.02031
G1 X53.206 Y49.813 E.02031
G1 X52.517 Y49.707 E.03
G1 X52.06 Y49.585 E.02031
G1 X51.617 Y49.423 E.0203
G1 X51.009 Y49.124 E.02911
G1 X50.592 Y48.861 E.02119
G1 X50.22 Y48.575 E.0202
G1 X49.874 Y48.258 E.02018
G1 X49.555 Y47.909 E.02031
G1 X49.142 Y47.347 E.03
G1 X48.906 Y46.938 E.02031
G1 X48.707 Y46.512 E.02018
G1 X48.547 Y46.071 E.02018
G1 X48.425 Y45.615 E.02031
G1 X48.318 Y44.925 E.03
G1 X48.298 Y44.453 E.02031
G1 X48.318 Y43.981 E.02031
G1 X48.425 Y43.292 E.03
G1 X48.547 Y42.835 E.02031
G1 X48.707 Y42.394 E.02018
G1 X48.907 Y41.966 E.0203
G1 X49.257 Y41.387 E.02911
G1 X49.556 Y40.995 E.02119
G1 X49.874 Y40.649 E.0202
G1 X50.222 Y40.33 E.0203
G1 X50.767 Y39.929 E.02911
G1 X51.193 Y39.681 E.02119
G1 X51.619 Y39.482 E.0202
G1 X52.06 Y39.322 E.02018
G1 X52.514 Y39.2 E.02018
G1 X52.979 Y39.118 E.0203
G1 X53.654 Y39.073 E.02911
G1 X54.147 Y39.093 E.02119
G1 X54.612 Y39.155 E.0202
G1 X55.074 Y39.257 E.02031
G1 X55.734 Y39.481 E.03
G1 X56.162 Y39.681 E.02031
G1 X56.571 Y39.917 E.0203
G1 X57.118 Y40.317 E.02911
G1 X57.482 Y40.649 E.02119
G1 X57.802 Y40.997 E.02033
G1 X58.214 Y41.56 E.03
G1 X58.451 Y41.969 E.02031
G1 X58.65 Y42.397 E.02031
G1 X58.874 Y43.058 E.03
G1 X58.977 Y43.519 E.02031
G1 X59.038 Y43.984 E.02019
G1 X59.058 Y44.453 E.02018
G1 X59.038 Y44.925 E.02031
G1 X58.932 Y45.615 E.03
G1 X58.809 Y46.071 E.02031
G1 X58.649 Y46.512 E.02018
G1 X58.451 Y46.938 E.02018
G1 X58.216 Y47.344 E.02018
G1 X57.945 Y47.731 E.02031
G1 X57.485 Y48.256 E.03
G1 X57.134 Y48.577 E.02044
G1 X56.589 Y48.978 E.02911
G1 X56.163 Y49.225 E.02119
G1 X55.737 Y49.424 E.0202
G1 X55.296 Y49.585 E.02018
G1 X54.898 Y49.691 E.01773
M204 S3000
G1 X54.714 Y50.086 F18000
G1 E-2 F3000
G1 Z.6 F18000
G1 X54.992 Y50.077
G1 X54.928 Y50.092
G1 X54.681 Y50.141
G1 X54.432 Y50.18
G1 X54.181 Y50.207
G1 X53.93 Y50.224
G1 X53.678 Y50.229
G1 X53.426 Y50.224
G1 X53.175 Y50.207
G1 X52.924 Y50.18
G1 X52.675 Y50.141
G1 X52.428 Y50.092
G1 X52.183 Y50.032
G1 X51.941 Y49.962
G1 X51.703 Y49.881
G1 X51.468 Y49.789
G1 X51.237 Y49.688
G1 X51.011 Y49.577
G1 X50.79 Y49.455
G1 X50.575 Y49.325
G1 X50.365 Y49.185
G1 X50.162 Y49.036
G1 X49.965 Y48.878
G1 X49.776 Y48.712
G1 X49.594 Y48.537
G1 X49.42 Y48.355
G1 X49.254 Y48.166
G1 X49.096 Y47.969
G1 X48.947 Y47.766
G1 X48.807 Y47.557
G1 X21.982 Y5.133
G1 Z.2
G1 E2 F1800
M204 S1000
;TYPE:Perimeter
G1 X24.662 Y7.173 E.14482
G1 X27.029 Y8.892 E.12579
G1 X29.424 Y10.698 E.12895
G1 X30.298 Y11.27 E.04494
G1 X30.711 Y11.506 E.02045
G1 X31.431 Y11.863 E.03452
G1 X32.062 Y12.115 E.02924
G1 X32.645 Y12.297 E.02627
G1 X33.245 Y12.431 E.02642
G1 X33.863 Y12.517 E.02685
G1 X34.545 Y12.557 E.02934
G1 X35.314 Y12.543 E.03307
G1 X36.208 Y12.459 E.03862
G1 X37.298 Y12.276 E.04755
G1 X38.676 Y11.944 E.06093
G1 X40.18 Y11.474 E.06776
G1 X41.86 Y10.845 E.07711
G1 X46.455 Y8.928 E.21409
G1 X49.422 Y7.791 E.1366
G1 X51.11 Y7.181 E.07716
G1 X53.391 Y6.384 E.1039
G1 X57.763 Y4.906 E.1984
G1 X59.033 Y4.503 E.0573
G1 X61.224 Y3.869 E.09808
G1 X62.182 Y3.626 E.04247
G1 X63.212 Y3.391 E.04545
G1 X64.217 Y3.187 E.04409
G1 X66.387 Y2.825 E.09458
G1 X68.828 Y2.523 E.10577
G1 X71.315 Y2.312 E.10731
G1 X73.429 Y2.222 E.09096
G1 X74.839 Y2.221 E.06063
G1 X76.516 Y2.282 E.07215
G1 X77.442 Y2.353 E.03991
G1 X78.337 Y2.449 E.03871
G1 X79.199 Y2.568 E.0374
G1 X80.03 Y2.709 E.03628
G1 X80.839 Y2.873 E.03548
G1 X81.645 Y3.063 E.03561
G1 X82.452 Y3.279 E.03592
G1 X83.259 Y3.521 E.03622
G1 X84.064 Y3.79 E.03649
G1 X84.867 Y4.084 E.03676
G1 X85.665 Y4.405 E.037
G1 X86.459 Y4.751 E.0372
G1 X87.245 Y5.121 E.03739
G1 X88.024 Y5.517 E.03755
G1 X88.793 Y5.937 E.03766
G1 X89.551 Y6.38 E.03775
G1 X90.296 Y6.845 E.0378
G1 X91.028 Y7.333 E.03781
G1 X91.745 Y7.841 E.0378
G1 X92.45 Y8.373 E.03796
G1 X93.139 Y8.925 E.03796
G1 X93.815 Y9.499 E.03813
G1 X94.477 Y10.095 E.03829
G1 X95.124 Y10.712 E.03843
