; generated by PrusaSlicer 2.4.0+linux-x64 on 2022-01-31 at 17:45:26 UTC


;
;

;
;
; TODO: check the size of the extruder and the y-bar clearance. Optimize & test supports.

; external perimeters extrusion width = 0.42mm
; perimeters extrusion width = 0.44mm
; infill extrusion width = 0.44mm
; solid infill extrusion width = 0.44mm
; top infill extrusion width = 0.44mm
; first layer extrusion width = 0.56mm

M107
M190 S55 ; set bed temperature and wait for it to be reached
M104 S215 ; set temperature
;TYPE:Custom
; M190 S0
; M109 S0 ; uncomment to remove set&wait temp gcode added automatically after this start gcode
print_start EXTRUDER=215 BED=55
M109 S215 ; set temperature and wait for it to be reached
G21 ; set units to millimeters
G90 ; use absolute coordinates
M83 ; use relative distances for extrusion
M107
;LAYER_CHANGE
;Z:0.3
;HEIGHT:0.3
;BEFORE_LAYER_CHANGE
;0.3


G1 Z.3 F18000
;AFTER_LAYER_CHANGE
;0.3
G1 E-2 F3000
G1 Z.7 F18000
G1 X39.46 Y70.02
G1 Z.3
G1 E2 F1800
M204 S1000
;TYPE:Skirt/Brim
;WIDTH:0.56
G1 X39.518 Y69.988 E.00409
G1 X40.851 Y69.785 E.08335
G1 X79.149 Y69.785 E2.36746
G1 X80.991 Y70.181 E.11646
G1 X82.508 Y71.297 E.11646
G1 X83.433 Y72.939 E.11646
G1 X83.636 Y74.272 E.08335
G1 X83.636 Y90 E.97226
G1 X83.24 Y91.842 E.11646
G1 X82.124 Y93.359 E.11646
G1 X80.482 Y94.284 E.11646
G1 X79.149 Y94.487 E.08335
G1 X40.851 Y94.487 E2.36746
G1 X39.009 Y94.091 E.11646
G1 X37.492 Y92.974 E.11646
G1 X36.567 Y91.333 E.11646
G1 X36.364 Y90 E.08335
G1 X36.364 Y74.272 E.97226
G1 X36.76 Y72.43 E.11646
G1 X37.876 Y70.913 E.11646
G1 X39.408 Y70.05 E.10866
M204 S3000
G1 X39.642 Y70.535 F18000
M204 S1000
G1 F1800
G1 X39.961 Y70.381 E.0219
G1 X40.851 Y70.281 E.05536
G1 X79.149 Y70.281 E2.36746
G1 X80.88 Y70.676 E.10977
G1 X82.269 Y71.782 E.10977
G1 X83.04 Y73.382 E.10977
G1 X83.14 Y74.272 E.05536
G1 X83.14 Y90 E.97226
G1 X82.745 Y91.731 E.10977
G1 X81.639 Y93.12 E.10977
G1 X80.039 Y93.891 E.10977
G1 X79.149 Y93.991 E.05536
G1 X40.851 Y93.991 E2.36746
G1 X39.12 Y93.596 E.10977
G1 X37.731 Y92.489 E.10977
G1 X36.96 Y90.89 E.10977
G1 X36.86 Y90 E.05536
G1 X36.86 Y74.272 E.97226
G1 X37.255 Y72.541 E.10977
G1 X38.361 Y71.152 E.10977
G1 X39.588 Y70.561 E.08416
M204 S3000
G1 X39.764 Y71.119 F18000
M204 S1000
G1 F1800
G1 X40.851 Y70.776 E.07045
G1 X79.149 Y70.776 E2.36746
G1 X80.762 Y71.171 E.10263
G1 X82.011 Y72.264 E.10263
G1 X82.645 Y74.272 E.13013
G1 X82.645 Y90 E.97226
G1 X82.25 Y91.613 E.10263
G1 X81.157 Y92.862 E.10263
G1 X79.149 Y93.496 E.13013
G1 X40.851 Y93.496 E2.36746
G1 X39.238 Y93.101 E.10263
G1 X37.989 Y92.007 E.10263
G1 X37.355 Y90 E.13013
G1 X37.355 Y74.272 E.97226
G1 X37.75 Y72.659 E.10263
G1 X38.843 Y71.41 E.10263
G1 X39.707 Y71.137 E.05597
M204 S3000
G1 E-2 F3000
G1 Z.7 F18000
G1 X43.022 Y75.643
G1 Z.3
G1 E2 F1800
M204 S1000
;TYPE:Perimeter
G1 X77.778 Y75.643 E2.14847
G1 X77.778 Y88.629 E.80273
G1 X42.222 Y88.629 E2.19793
G1 X42.222 Y75.643 E.80273
G1 X42.962 Y75.643 E.04574
M204 S3000
G1 X42.127 Y75.147 F18000
M204 S1000
G1 F1800
G1 X78.273 Y75.147 E2.23447
G1 X78.273 Y89.124 E.864
G1 X41.727 Y89.124 E2.2592
G1 X41.727 Y75.147 E.864
G1 X42.067 Y75.147 E.02102
M204 S3000
G1 X41.231 Y74.652 F18000
M204 S1000
;TYPE:External perimeter
G1 F1800
G1 X78.769 Y74.652 E2.32048
G1 X78.769 Y89.62 E.92528
G1 X41.231 Y89.62 E2.32048
G1 X41.231 Y74.712 E.92157
M204 S3000
G1 X41.628 Y74.702 F18000
G1 E-2 F3000
G1 Z.7 F18000
G1 X77.604 Y76.825
G1 Z.3
G1 E2 F1800
M204 S1000
;TYPE:Solid infill
;WIDTH:0.56296
G1 X76.819 Y76.04 E.06905
G1 X76.114 Y76.04 E.04385
G1 X77.381 Y77.307 E.11144
G1 X77.381 Y78.012 E.04385
G1 X75.409 Y76.04 E.17345
G1 X74.704 Y76.04 E.04385
G1 X77.381 Y78.717 E.23546
G1 X77.381 Y79.422 E.04385
G1 X73.999 Y76.04 E.29747
G1 X73.294 Y76.04 E.04385
G1 X77.381 Y80.127 E.35948
G1 X77.381 Y80.832 E.04385
G1 X72.589 Y76.04 E.42149
G1 X71.884 Y76.04 E.04385
G1 X77.381 Y81.537 E.48349
G1 X77.381 Y82.242 E.04385
G1 X71.179 Y76.04 E.5455
G1 X70.473 Y76.04 E.04385
G1 X77.381 Y82.948 E.60751
G1 X77.381 Y83.653 E.04385
G1 X69.768 Y76.04 E.66952
G1 X69.063 Y76.04 E.04385
G1 X77.381 Y84.358 E.73153
G1 X77.381 Y85.063 E.04385
G1 X68.358 Y76.04 E.79354
G1 X67.653 Y76.04 E.04385
G1 X77.381 Y85.768 E.85555
G1 X77.381 Y86.473 E.04385
G1 X66.948 Y76.04 E.91756
G1 X66.243 Y76.04 E.04385
G1 X77.381 Y87.178 E.97956
G1 X77.381 Y87.883 E.04385
G1 X65.538 Y76.04 E1.04157
G1 X64.833 Y76.04 E.04385
G1 X77.025 Y88.232 E1.07227
G1 X76.32 Y88.232 E.04385
G1 X64.128 Y76.04 E1.07227
G1 X63.422 Y76.04 E.04385
G1 X75.615 Y88.232 E1.07227
G1 X74.91 Y88.232 E.04385
G1 X62.717 Y76.04 E1.07227
G1 X62.012 Y76.04 E.04385
G1 X74.205 Y88.232 E1.07227
G1 X73.5 Y88.232 E.04385
G1 X61.307 Y76.04 E1.07227
G1 X60.602 Y76.04 E.04385
G1 X72.795 Y88.232 E1.07227
G1 X72.09 Y88.232 E.04385
G1 X59.897 Y76.04 E1.07227
G1 X59.192 Y76.04 E.04385
G1 X71.385 Y88.232 E1.07227
G1 X70.679 Y88.232 E.04385
G1 X58.487 Y76.04 E1.07227
G1 X57.782 Y76.04 E.04385
G1 X69.974 Y88.232 E1.07227
G1 X69.269 Y88.232 E.04385
G1 X57.077 Y76.04 E1.07227
G1 X56.371 Y76.04 E.04385
G1 X68.564 Y88.232 E1.07227
G1 X67.859 Y88.232 E.04385
G1 X55.666 Y76.04 E1.07227
G1 X54.961 Y76.04 E.04385
G1 X67.154 Y88.232 E1.07227
G1 X66.449 Y88.232 E.04385
G1 X54.256 Y76.04 E1.07227
G1 X53.551 Y76.04 E.04385
G1 X65.744 Y88.232 E1.07227
G1 X65.039 Y88.232 E.04385
G1 X52.846 Y76.04 E1.07227
G1 X52.141 Y76.04 E.04385
G1 X64.334 Y88.232 E1.07227
G1 X63.628 Y88.232 E.04385
G1 X51.436 Y76.04 E1.07227
G1 X50.731 Y76.04 E.04385
G1 X62.923 Y88.232 E1.07227
G1 X62.218 Y88.232 E.04385
G1 X50.026 Y76.04 E1.07227
G1 X49.32 Y76.04 E.04385
G1 X61.513 Y88.232 E1.07227
G1 X60.808 Y88.232 E.04385
G1 X48.615 Y76.04 E1.07227
G1 X47.91 Y76.04 E.04385
G1 X60.103 Y88.232 E1.07227
G1 X59.398 Y88.232 E.04385
G1 X47.205 Y76.04 E1.07227
G1 X46.5 Y76.04 E.04385
G1 X58.693 Y88.232 E1.07227
G1 X57.988 Y88.232 E.04385
G1 X45.795 Y76.04 E1.07227
G1 X45.09 Y76.04 E.04385
G1 X57.283 Y88.232 E1.07227
G1 X56.578 Y88.232 E.04385
G1 X44.385 Y76.04 E1.07227
G1 X43.68 Y76.04 E.04385
G1 X55.872 Y88.232 E1.07227
G1 X55.167 Y88.232 E.04385
G1 X42.975 Y76.04 E1.07227
G1 X42.619 Y76.04 E.02214
G1 X42.619 Y76.389 E.02171
G1 X54.462 Y88.232 E1.04157
G1 X53.757 Y88.232 E.04385
G1 X42.619 Y77.094 E.97956
G1 X42.619 Y77.799 E.04385
G1 X53.052 Y88.232 E.91755
G1 X52.347 Y88.232 E.04385
G1 X42.619 Y78.504 E.85554
G1 X42.619 Y79.209 E.04385
G1 X51.642 Y88.232 E.79353
G1 X50.937 Y88.232 E.04385
G1 X42.619 Y79.914 E.73153
G1 X42.619 Y80.619 E.04385
G1 X50.232 Y88.232 E.66952
G1 X49.527 Y88.232 E.04385
G1 X42.619 Y81.324 E.60751
G1 X42.619 Y82.029 E.04385
G1 X48.821 Y88.232 E.5455
G1 X48.116 Y88.232 E.04385
G1 X42.619 Y82.735 E.48349
G1 X42.619 Y83.44 E.04385
G1 X47.411 Y88.232 E.42148
G1 X46.706 Y88.232 E.04385
G1 X42.619 Y84.145 E.35947
G1 X42.619 Y84.85 E.04385
G1 X46.001 Y88.232 E.29746
G1 X45.296 Y88.232 E.04385
G1 X42.619 Y85.555 E.23546
G1 X42.619 Y86.26 E.04385
G1 X44.591 Y88.232 E.17345
G1 X43.886 Y88.232 E.04385
G1 X42.619 Y86.965 E.11144
G1 X42.619 Y87.67 E.04385
G1 X43.404 Y88.455 E.06904
M204 S3000
M106 S255
;LAYER_CHANGE
;Z:0.5
;HEIGHT:0.2
;BEFORE_LAYER_CHANGE
;0.5


G1 Z.5 F18000
;AFTER_LAYER_CHANGE
;0.5
M104 S205 ; set temperature
G1 X41.845 Y88.206
M204 S2000
;TYPE:Perimeter
;WIDTH:0.44
G1 F9000
G1 X41.845 Y75.549 E.41791
G1 X78.155 Y75.549 E1.19885
G1 X78.155 Y89.006 E.44432
G1 X41.845 Y89.006 E1.19885
G1 X41.845 Y88.266 E.02443
M204 S3000
G1 X41.448 Y89.003 F18000
M204 S2000
G1 F9000
G1 X41.448 Y75.152 E.45733
G1 X78.552 Y75.152 E1.22508
G1 X78.552 Y89.403 E.47054
G1 X41.448 Y89.403 E1.22508
G1 X41.448 Y89.063 E.01123
M204 S3000
G1 X41.061 Y89.79 F18000
M204 S2000
;TYPE:External perimeter
;WIDTH:0.42
G1 F4800
G1 X41.061 Y74.765 E.47111
G1 X78.939 Y74.765 E1.18764
G1 X78.939 Y89.79 E.47111
G1 X41.121 Y89.79 E1.18576
M204 S3000
G1 X41.216 Y89.421 F18000
G1 X43.283 Y76.717
M204 S4000
;TYPE:Internal infill
;WIDTH:0.44
G1 F2679.06
G1 X42.163 Y77.837 E.05229
G1 X42.163 Y83.453 E.18541
G1 X48.72 Y76.896 E.30616
G1 X54.335 Y76.896 E.18541
G1 X42.543 Y88.688 E.55062
G1 X48.158 Y88.688 E.18541
G1 X59.951 Y76.896 E.55062
G1 X65.566 Y76.896 E.18541
G1 X53.774 Y88.688 E.55062
G1 X59.39 Y88.688 E.18541
G1 X71.182 Y76.896 E.55062
G1 X76.797 Y76.896 E.18541
G1 X65.005 Y88.688 E.55062
G1 X70.621 Y88.688 E.18541
G1 X77.837 Y81.472 E.33697
G1 X77.837 Y87.087 E.18541
G1 X76.058 Y88.867 E.0831
M204 S3000
G1 X77.131 Y76.678 F18000
M204 S4000
;TYPE:Solid infill
;WIDTH:0.445764
G1 F9681.167
G1 X77.837 Y75.971 E.03347
G1 X77.837 Y75.866 E.00351
G1 X77.372 Y75.866 E.01558
G1 X76.74 Y76.499 E.02997
G1 X76.17 Y76.499 E.01908
G1 X76.803 Y75.866 E.02997
G1 X76.233 Y75.866 E.01908
G1 X75.6 Y76.499 E.02997
G1 X75.031 Y76.499 E.01908
G1 X75.663 Y75.866 E.02997
G1 X75.093 Y75.866 E.01908
G1 X74.461 Y76.499 E.02997
G1 X73.891 Y76.499 E.01908
G1 X74.524 Y75.866 E.02997
G1 X73.954 Y75.866 E.01908
G1 X73.321 Y76.499 E.02997
G1 X72.752 Y76.499 E.01908
G1 X73.384 Y75.866 E.02997
G1 X72.815 Y75.866 E.01908
G1 X72.182 Y76.499 E.02997
G1 X71.612 Y76.499 E.01908
G1 X72.245 Y75.866 E.02997
G1 X71.675 Y75.866 E.01908
G1 X71.043 Y76.499 E.02997
G1 X70.473 Y76.499 E.01908
G1 X71.106 Y75.866 E.02997
G1 X70.536 Y75.866 E.01908
G1 X69.903 Y76.499 E.02997
G1 X69.334 Y76.499 E.01908
G1 X69.966 Y75.866 E.02997
G1 X69.396 Y75.866 E.01908
G1 X68.764 Y76.499 E.02997
G1 X68.194 Y76.499 E.01908
G1 X68.827 Y75.866 E.02997
G1 X68.257 Y75.866 E.01908
G1 X67.624 Y76.499 E.02997
G1 X67.055 Y76.499 E.01908
G1 X67.687 Y75.866 E.02997
G1 X67.118 Y75.866 E.01908
G1 X66.485 Y76.499 E.02997
G1 X65.915 Y76.499 E.01908
G1 X66.548 Y75.866 E.02997
G1 X65.978 Y75.866 E.01908
G1 X65.346 Y76.499 E.02997
G1 X64.776 Y76.499 E.01908
G1 X65.408 Y75.866 E.02997
G1 X64.839 Y75.866 E.01908
G1 X64.206 Y76.499 E.02997
G1 X63.636 Y76.499 E.01908
G1 X64.269 Y75.866 E.02997
G1 X63.699 Y75.866 E.01908
G1 X63.067 Y76.499 E.02997
G1 X62.497 Y76.499 E.01908
G1 X63.13 Y75.866 E.02997
G1 X62.56 Y75.866 E.01908
G1 X61.927 Y76.499 E.02997
G1 X61.358 Y76.499 E.01908
G1 X61.99 Y75.866 E.02997
G1 X61.42 Y75.866 E.01908
G1 X60.788 Y76.499 E.02997
G1 X60.218 Y76.499 E.01908
G1 X60.851 Y75.866 E.02997
G1 X60.281 Y75.866 E.01908
G1 X59.648 Y76.499 E.02997
G1 X59.079 Y76.499 E.01908
G1 X59.711 Y75.866 E.02997
G1 X59.142 Y75.866 E.01908
G1 X58.509 Y76.499 E.02997
G1 X57.939 Y76.499 E.01908
G1 X58.572 Y75.866 E.02997
G1 X58.002 Y75.866 E.01908
G1 X57.37 Y76.499 E.02997
G1 X56.8 Y76.499 E.01908
G1 X57.433 Y75.866 E.02997
G1 X56.863 Y75.866 E.01908
G1 X56.23 Y76.499 E.02997
G1 X55.661 Y76.499 E.01908
G1 X56.293 Y75.866 E.02997
G1 X55.723 Y75.866 E.01908
G1 X55.091 Y76.499 E.02997
G1 X54.521 Y76.499 E.01908
G1 X55.154 Y75.866 E.02997
G1 X54.584 Y75.866 E.01908
G1 X53.951 Y76.499 E.02997
G1 X53.382 Y76.499 E.01908
G1 X54.014 Y75.866 E.02997
G1 X53.445 Y75.866 E.01908
G1 X52.812 Y76.499 E.02997
G1 X52.242 Y76.499 E.01908
G1 X52.875 Y75.866 E.02997
G1 X52.305 Y75.866 E.01908
G1 X51.673 Y76.499 E.02997
G1 X51.103 Y76.499 E.01908
G1 X51.735 Y75.866 E.02997
G1 X51.166 Y75.866 E.01908
G1 X50.533 Y76.499 E.02997
G1 X49.963 Y76.499 E.01908
G1 X50.596 Y75.866 E.02997
G1 X50.026 Y75.866 E.01908
G1 X49.394 Y76.499 E.02997
G1 X48.824 Y76.499 E.01908
G1 X49.457 Y75.866 E.02997
G1 X48.887 Y75.866 E.01908
G1 X48.254 Y76.499 E.02997
G1 X47.685 Y76.499 E.01908
G1 X48.317 Y75.866 E.02997
G1 X47.748 Y75.866 E.01908
G1 X47.115 Y76.499 E.02997
G1 X46.545 Y76.499 E.01908
G1 X47.178 Y75.866 E.02997
G1 X46.608 Y75.866 E.01908
G1 X45.976 Y76.499 E.02997
G1 X45.406 Y76.499 E.01908
G1 X46.038 Y75.866 E.02997
G1 X45.469 Y75.866 E.01908
G1 X44.836 Y76.499 E.02997
G1 X44.266 Y76.499 E.01908
G1 X44.899 Y75.866 E.02997
G1 X44.329 Y75.866 E.01908
G1 X43.697 Y76.499 E.02997
G1 X43.127 Y76.499 E.01908
G1 X43.76 Y75.866 E.02997
G1 X43.19 Y75.866 E.01908
G1 X42.557 Y76.499 E.02997
G1 X42.163 Y76.499 E.01322
G1 X42.163 Y76.324 E.00587
G1 X42.799 Y75.688 E.03013
M204 S3000
;LAYER_CHANGE
;Z:0.7
;HEIGHT:0.2
;BEFORE_LAYER_CHANGE
;0.7


G1 Z.7 F18000
;AFTER_LAYER_CHANGE
;0.7
G1 X42.645 Y75.775
M204 S2000
;TYPE:Perimeter
;WIDTH:0.44
G1 F9000
G1 X78.155 Y75.775 E1.17244
G1 X78.155 Y89.006 E.43685
G1 X41.845 Y89.006 E1.19885
G1 X41.845 Y75.775 E.43685
G1 X42.585 Y75.775 E.02443
M204 S3000
G1 X41.848 Y75.378 F18000
M204 S2000
G1 F9000
G1 X78.552 Y75.378 E1.21187
G1 X78.552 Y89.403 E.46307
G1 X41.448 Y89.403 E1.22508
G1 X41.448 Y75.378 E.46307
G1 X41.788 Y75.378 E.01123
M204 S3000
G1 X41.061 Y74.991 F18000
M204 S2000
;TYPE:External perimeter
;WIDTH:0.42
G1 F4800
G1 X78.939 Y74.991 E1.18764
G1 X78.939 Y89.79 E.46402
G1 X41.061 Y89.79 E1.18764
G1 X41.061 Y75.051 E.46214
M204 S3000
G1 X41.458 Y75.04 F18000
G1 X41.984 Y86.908
M204 S4000
;TYPE:Internal infill
;WIDTH:0.44
G1 F2679.06
G1 X43.764 Y88.688 E.0831
G1 X49.379 Y88.688 E.18541
G1 X42.163 Y81.472 E.33697
G1 X42.163 Y77.122 E.14361
G1 X43.429 Y77.122 E.0418
G1 X54.995 Y88.688 E.54006
G1 X60.61 Y88.688 E.18541
G1 X49.044 Y77.122 E.54006
G1 X54.66 Y77.122 E.18541
G1 X66.226 Y88.688 E.54006
G1 X71.842 Y88.688 E.18541
G1 X60.276 Y77.122 E.54006
G1 X65.891 Y77.122 E.18541
G1 X77.457 Y88.688 E.54006
G1 X77.837 Y88.688 E.01255
G1 X77.837 Y83.453 E.17286
G1 X71.507 Y77.122 E.2956
G1 X77.122 Y77.122 E.18541
G1 X78.016 Y78.016 E.04173
M204 S3000
G1 X77.201 Y75.914 F18000
M204 S4000
;TYPE:Solid infill
;WIDTH:0.445764
G1 F9681.167
G1 X77.837 Y76.55 E.03014
G1 X77.837 Y76.725 E.00586
G1 X77.443 Y76.725 E.01322
G1 X76.81 Y76.092 E.02997
G1 X76.24 Y76.092 E.01908
G1 X76.873 Y76.725 E.02997
G1 X76.303 Y76.725 E.01908
G1 X75.671 Y76.092 E.02997
G1 X75.101 Y76.092 E.01908
G1 X75.733 Y76.725 E.02997
G1 X75.164 Y76.725 E.01908
G1 X74.531 Y76.092 E.02997
G1 X73.961 Y76.092 E.01908
G1 X74.594 Y76.725 E.02997
G1 X74.024 Y76.725 E.01908
G1 X73.392 Y76.092 E.02997
G1 X72.822 Y76.092 E.01908
G1 X73.455 Y76.725 E.02997
G1 X72.885 Y76.725 E.01908
G1 X72.252 Y76.092 E.02997
G1 X71.683 Y76.093 E.01908
G1 X72.315 Y76.725 E.02997
G1 X71.746 Y76.725 E.01908
G1 X71.113 Y76.093 E.02997
G1 X70.543 Y76.093 E.01908
G1 X71.176 Y76.725 E.02997
G1 X70.606 Y76.725 E.01908
G1 X69.974 Y76.093 E.02997
G1 X69.404 Y76.093 E.01908
G1 X70.036 Y76.725 E.02997
G1 X69.467 Y76.725 E.01908
G1 X68.834 Y76.093 E.02997
G1 X68.264 Y76.093 E.01908
G1 X68.897 Y76.725 E.02997
G1 X68.327 Y76.725 E.01908
G1 X67.695 Y76.093 E.02997
G1 X67.125 Y76.093 E.01908
G1 X67.758 Y76.725 E.02997
G1 X67.188 Y76.725 E.01908
G1 X66.555 Y76.093 E.02997
G1 X65.986 Y76.093 E.01908
G1 X66.618 Y76.725 E.02997
G1 X66.048 Y76.725 E.01908
G1 X65.416 Y76.093 E.02997
G1 X64.846 Y76.092 E.01908
G1 X65.479 Y76.725 E.02997
G1 X64.909 Y76.725 E.01908
G1 X64.276 Y76.092 E.02997
G1 X63.707 Y76.092 E.01908
G1 X64.339 Y76.725 E.02997
G1 X63.77 Y76.725 E.01908
G1 X63.137 Y76.092 E.02997
G1 X62.567 Y76.092 E.01908
G1 X63.2 Y76.725 E.02997
G1 X62.63 Y76.725 E.01908
G1 X61.998 Y76.092 E.02997
G1 X61.428 Y76.092 E.01908
G1 X62.061 Y76.725 E.02997
G1 X61.491 Y76.725 E.01908
G1 X60.858 Y76.092 E.02997
G1 X60.289 Y76.092 E.01908
G1 X60.921 Y76.725 E.02997
G1 X60.351 Y76.725 E.01908
G1 X59.719 Y76.093 E.02997
G1 X59.149 Y76.093 E.01908
G1 X59.782 Y76.725 E.02997
G1 X59.212 Y76.725 E.01908
G1 X58.579 Y76.093 E.02997
G1 X58.01 Y76.093 E.01908
G1 X58.642 Y76.725 E.02997
G1 X58.073 Y76.725 E.01908
G1 X57.44 Y76.093 E.02997
G1 X56.87 Y76.093 E.01908
G1 X57.503 Y76.725 E.02997
G1 X56.933 Y76.725 E.01908
G1 X56.301 Y76.093 E.02997
G1 X55.731 Y76.093 E.01908
G1 X56.363 Y76.725 E.02997
G1 X55.794 Y76.725 E.01908
G1 X55.161 Y76.093 E.02997
G1 X54.591 Y76.093 E.01908
G1 X55.224 Y76.725 E.02997
G1 X54.654 Y76.725 E.01908
G1 X54.022 Y76.093 E.02997
G1 X53.452 Y76.093 E.01908
G1 X54.085 Y76.725 E.02997
G1 X53.515 Y76.725 E.01908
G1 X52.882 Y76.093 E.02997
G1 X52.313 Y76.093 E.01908
G1 X52.945 Y76.725 E.02997
G1 X52.375 Y76.725 E.01908
G1 X51.743 Y76.093 E.02997
G1 X51.173 Y76.093 E.01908
G1 X51.806 Y76.725 E.02997
G1 X51.236 Y76.725 E.01908
G1 X50.603 Y76.093 E.02997
G1 X50.034 Y76.093 E.01908
G1 X50.666 Y76.725 E.02997
G1 X50.097 Y76.725 E.01908
G1 X49.464 Y76.093 E.02997
G1 X48.894 Y76.093 E.01908
G1 X49.527 Y76.725 E.02997
