; generated by PrusaSlicer 2.4.0+linux-x64 on 2022-01-31 at 09:00:07 UTC


;
;

;
;
; TODO: check the size of the extruder and the y-bar clearance. Optimize & test supports.

; external perimeters extrusion width = 0.42mm
; perimeters extrusion width = 0.44mm
; infill extrusion width = 0.44mm
; solid infill extrusion width = 0.44mm
; top infill extrusion width = 0.44mm
; first layer extrusion width = 0.56mm

M107
M190 S55 ; set bed temperature and wait for it to be reached
M104 S215 ; set temperature
;TYPE:Custom
; M190 S0
; M109 S0 ; uncomment to remove set&wait temp gcode added automatically after this start gcode
print_start EXTRUDER=215 BED=55
M109 S215 ; set temperature and wait for it to be reached
G21 ; set units to millimeters
G90 ; use absolute coordinates
M83 ; use relative distances for extrusion
M107
;LAYER_CHANGE
;Z:0.2
;HEIGHT:0.2
;BEFORE_LAYER_CHANGE
;0.2


G1 Z.2 F18000
;AFTER_LAYER_CHANGE
;0.2
G1 E-2 F3000
G1 Z.6 F18000
G1 X118.801 Y118.467
G1 Z.2
G1 E2 F1800
M204 S1000
;TYPE:Perimeter
;WIDTH:0.56
G1 F900
G1 X118.807 Y118.873 E.01745
G1 X118.401 Y118.873 E.01745
G1 X118.401 Y118.467 E.01745
G1 X118.741 Y118.467 E.01462
M204 S3000
G1 X117.884 Y117.95 F18000
M204 S1000
;TYPE:External perimeter
G1 F900
G1 X119.324 Y117.95 E.06191
G1 X119.324 Y119.39 E.06191
G1 X117.884 Y119.39 E.06191
G1 X117.884 Y118.01 E.05933
M204 S3000
G1 X118.27 Y118.053 F18000
M106 S255
;LAYER_CHANGE
;Z:5.3
;HEIGHT:5.1
;BEFORE_LAYER_CHANGE
;5.3


G1 Z5.3 F18000
;AFTER_LAYER_CHANGE
;5.3
M104 S205 ; set temperature
G1 E-2 F3000
G1 Z5.7 F18000
G1 X92.768 Y90.974
G1 X92.485 Y90.686
G1 Z5.3
G1 E2 F1800
M204 S2000
;TYPE:Overhang perimeter
;WIDTH:0.334664
;HEIGHT:0.334664
G1 F8867.204
G1 X91.403 Y91.677 E.05365
G1 X90.279 Y92.601 E.05323
G1 X89.116 Y93.456 E.05279
G1 X87.914 Y94.242 E.0525
G1 X86.672 Y94.961 E.05248
G1 X85.397 Y95.608 E.05228
G1 X84.099 Y96.18 E.0519
G1 X82.785 Y96.674 E.05134
G1 X81.463 Y97.088 E.05064
G1 X80.137 Y97.421 E.05
G1 X79.265 Y97.596 E.03255
G1 X78.384 Y97.737 E.03262
G1 X77.469 Y97.849 E.03373
G1 X76.513 Y97.931 E.03509
G1 X74.972 Y97.998 E.0564
G1 X73.298 Y97.991 E.06121
G1 X71.451 Y97.905 E.06762
G1 X69.371 Y97.728 E.07636
G1 X67.165 Y97.462 E.08125
G1 X65.2 Y97.145 E.07279
G1 X63.424 Y96.778 E.06632
G1 X61.724 Y96.344 E.06419
G1 X59.755 Y95.758 E.07512
G1 X56.849 Y94.799 E.11191
G1 X52.29 Y93.223 E.17639
G1 X50.244 Y92.479 E.07961
G1 X48.486 Y91.808 E.06884
G1 X46.746 Y91.105 E.06862
G1 X43.286 Y89.652 E.13726
G1 X42.149 Y89.213 E.04456
G1 X41.131 Y88.853 E.03948
G1 X39.685 Y88.409 E.05534
G1 X38.247 Y88.056 E.05416
G1 X37.415 Y87.896 E.03096
G1 X36.634 Y87.78 E.02889
G1 X35.474 Y87.677 E.04259
G1 X34.704 Y87.66 E.02816
G1 X33.971 Y87.685 E.02682
G1 X33.257 Y87.752 E.02623
G1 X32.257 Y87.922 E.03708
G1 X31.602 Y88.086 E.02469
G1 X30.68 Y88.389 E.03551
G1 X30.048 Y88.648 E.02497
G1 X29.42 Y88.944 E.0254
G1 X28.788 Y89.284 E.02626
G1 X28.143 Y89.671 E.02751
G1 X27.17 Y90.332 E.04302
G1 X25.223 Y91.812 E.08943
G1 X22.757 Y93.602 E.11144
G1 X21.829 Y94.304 E.04256
G1 X9.582 Y80.807 E.6665
G1 X10.432 Y78.932 E.07527
G1 X11.393 Y76.736 E.08768
G1 X11.892 Y75.443 E.05066
G1 X12.265 Y74.267 E.04512
G1 X12.475 Y73.456 E.03064
G1 X12.662 Y72.592 E.03233
G1 X12.834 Y71.642 E.03531
G1 X12.991 Y70.59 E.03892
G1 X13.105 Y69.614 E.03593
G1 X13.183 Y68.647 E.03547
G1 X13.223 Y67.248 E.05118
G1 X13.198 Y66.355 E.03269
G1 X13.09 Y65.077 E.04688
G1 X12.898 Y63.798 E.0473
G1 X12.72 Y62.94 E.03207
G1 X12.507 Y62.092 E.03197
G1 X12.254 Y61.247 E.03224
G1 X11.814 Y60.019 E.0477
G1 X11.465 Y59.183 E.03314
G1 X10.873 Y57.944 E.05024
G1 X10.418 Y57.1 E.03505
G1 X9.922 Y56.254 E.03587
G1 X9.374 Y55.391 E.03737
G1 X8.755 Y54.482 E.04023
G1 X8.037 Y53.485 E.04492
G1 X6.827 Y51.904 E.07283
G1 X7.936 Y50.451 E.06683
G1 X8.684 Y49.412 E.04683
G1 X9.311 Y48.489 E.04082
G1 X9.859 Y47.625 E.03742
G1 X10.396 Y46.707 E.03887
G1 X11.081 Y45.393 E.0542
G1 X11.482 Y44.519 E.03517
G1 X11.834 Y43.657 E.03405
G1 X12.142 Y42.802 E.03323
G1 X12.406 Y41.955 E.03245
G1 X12.631 Y41.104 E.0322
G1 X12.818 Y40.245 E.03213
G1 X12.967 Y39.383 E.03202
G1 X13.078 Y38.518 E.03187
G1 X13.15 Y37.655 E.03169
G1 X13.184 Y36.791 E.0316
G1 X13.164 Y35.509 E.04689
G1 X13.105 Y34.599 E.03334
G1 X13.008 Y33.647 E.035
G1 X12.868 Y32.628 E.03763
G1 X12.692 Y31.575 E.03906
G1 X12.413 Y30.255 E.04932
G1 X12.08 Y29.053 E.04561
G1 X11.815 Y28.265 E.03043
G1 X11.499 Y27.434 E.03249
G1 X10.738 Y25.657 E.07072
G1 X9.545 Y23.014 E.10604
G1 X21.792 Y9.516 E.66655
G1 X22.737 Y10.23 E.04333
G1 X25.399 Y12.165 E.12036
G1 X27.168 Y13.512 E.08129
G1 X27.83 Y13.97 E.02945
G1 X28.477 Y14.377 E.02794
G1 X29.504 Y14.936 E.04276
G1 X30.187 Y15.248 E.0275
G1 X30.856 Y15.508 E.02624
G1 X31.526 Y15.723 E.02572
G1 X32.491 Y15.954 E.03631
G1 X33.459 Y16.095 E.03577
G1 X34.137 Y16.146 E.02486
G1 X34.826 Y16.16 E.0252
G1 X35.536 Y16.137 E.02597
G1 X36.269 Y16.078 E.02692
G1 X37.037 Y15.979 E.02831
G1 X38.248 Y15.756 E.04504
G1 X39.59 Y15.427 E.0505
G1 X40.998 Y14.999 E.05386
G1 X42.006 Y14.646 E.03904
G1 X43.099 Y14.228 E.0428
G1 X47.775 Y12.279 E.18527
G1 X49.464 Y11.62 E.06632
G1 X51.367 Y10.915 E.07421
G1 X53.6 Y10.123 E.08667
G1 X58.136 Y8.575 E.17527
G1 X60.515 Y7.816 E.09133
G1 X62.342 Y7.299 E.06944
G1 X63.507 Y7.014 E.04383
G1 X65.226 Y6.663 E.06418
G1 X67.099 Y6.361 E.06938
G1 X68.448 Y6.188 E.04972
G1 X70.674 Y5.969 E.0818
G1 X72.079 Y5.875 E.05149
G1 X73.355 Y5.826 E.04673
G1 X75.09 Y5.825 E.06344
G1 X76.174 Y5.869 E.03966
G1 X77.182 Y5.946 E.03698
G1 X78.132 Y6.053 E.03498
G1 X79.486 Y6.272 E.05014
G1 X80.8 Y6.564 E.04924
G1 X81.667 Y6.801 E.03287
G1 X82.99 Y7.23 E.05085
G1 X83.853 Y7.555 E.03373
G1 X85.158 Y8.116 E.05196
G1 X86.003 Y8.527 E.03435
G1 X87.268 Y9.214 E.05264
G1 X88.079 Y9.703 E.03464
G1 X89.28 Y10.504 E.0528
G1 X90.048 Y11.069 E.03485
G1 X90.803 Y11.667 E.03522
G1 X91.538 Y12.292 E.03527
G1 X92.603 Y13.284 E.05326
G1 X93.295 Y13.989 E.03612
G1 X94.29 Y15.095 E.05439
G1 X94.913 Y15.852 E.03587
G1 X95.812 Y17.049 E.05474
G1 X96.371 Y17.865 E.03617
G1 X96.906 Y18.708 E.03653
G1 X97.419 Y19.58 E.03698
G1 X98.155 Y20.962 E.05727
G1 X98.613 Y21.916 E.03868
G1 X99.05 Y22.904 E.03952
G1 X99.462 Y23.923 E.04021
G1 X99.85 Y24.974 E.04094
G1 X100.229 Y26.102 E.04354
G1 X100.636 Y27.422 E.05052
G1 X101.403 Y30.112 E.10229
G1 X102.364 Y34.249 E.15533
G1 X102.809 Y36.306 E.07697
G1 X103.896 Y41.684 E.20067
G1 X104.411 Y43.914 E.0837
G1 X105.014 Y46.171 E.08544
G1 X105.501 Y47.823 E.063
G1 X106.079 Y49.667 E.07068
G1 X106.824 Y51.927 E.08702
G1 X106.109 Y54.097 E.08354
G1 X105.518 Y55.982 E.07224
G1 X104.823 Y58.385 E.09151
G1 X104.405 Y59.992 E.0607
G1 X103.891 Y62.247 E.08459
G1 X102.804 Y67.681 E.20267
G1 X102.086 Y70.945 E.12224
G1 X101.441 Y73.706 E.10369
G1 X100.633 Y76.532 E.10749
G1 X100.223 Y77.848 E.0504
G1 X99.849 Y78.952 E.04264
G1 X99.446 Y80.035 E.04225
G1 X99.024 Y81.063 E.04065
G1 X98.578 Y82.06 E.03995
G1 X98.107 Y83.025 E.03924
G1 X97.614 Y83.956 E.03854
G1 X97.101 Y84.849 E.03768
G1 X96.287 Y86.135 E.05566
G1 X95.424 Y87.352 E.05456
G1 X94.5 Y88.519 E.05444
G1 X93.519 Y89.632 E.05426
G1 X92.527 Y90.643 E.0518
M204 S3000
G1 X92.818 Y90.929 F18000
M204 S2000
G1 F8867.204
G1 X91.671 Y91.985 E.05703
G1 X90.529 Y92.923 E.05404
G1 X89.348 Y93.791 E.0536
G1 X88.128 Y94.589 E.05332
G1 X86.867 Y95.319 E.05329
G1 X85.572 Y95.977 E.0531
G1 X84.253 Y96.558 E.05272
G1 X82.917 Y97.06 E.05217
G1 X81.574 Y97.48 E.05148
G1 X80.227 Y97.819 E.05079
G1 X79.337 Y97.997 E.0332
G1 X78.441 Y98.141 E.03319
G1 X77.511 Y98.255 E.03427
G1 X76.539 Y98.338 E.03567
G1 X74.98 Y98.406 E.05707
G1 X73.288 Y98.399 E.06188
G1 X71.424 Y98.312 E.06822
G1 X69.329 Y98.134 E.07691
G1 X67.108 Y97.866 E.08181
G1 X65.126 Y97.546 E.07342
G1 X63.332 Y97.175 E.06699
G1 X61.615 Y96.737 E.06482
G1 X59.633 Y96.147 E.07564
G1 X56.718 Y95.185 E.11223
G1 X52.154 Y93.607 E.17662
G1 X50.102 Y92.861 E.07985
G1 X48.337 Y92.187 E.0691
G1 X46.591 Y91.483 E.06886
G1 X43.133 Y90.03 E.13715
G1 X42.008 Y89.595 E.04412
G1 X41.004 Y89.24 E.03896
G1 X39.576 Y88.802 E.0546
G1 X38.16 Y88.454 E.05336
G1 X37.347 Y88.298 E.03026
G1 X36.586 Y88.185 E.02814
G1 X35.451 Y88.084 E.04165
G1 X34.707 Y88.068 E.02724
G1 X33.997 Y88.093 E.02596
G1 X33.31 Y88.157 E.02523
G1 X32.341 Y88.321 E.03595
G1 X31.716 Y88.478 E.02357
G1 X30.821 Y88.772 E.03444
G1 X30.213 Y89.021 E.02405
G1 X29.604 Y89.309 E.02462
G1 X28.989 Y89.638 E.02552
G1 X28.362 Y90.015 E.02673
G1 X27.408 Y90.664 E.0422
G1 X25.467 Y92.14 E.0892
G1 X23 Y93.93 E.11146
G1 X21.777 Y94.854 E.05604
G1 X9.1 Y80.882 E.68993
G1 X10.059 Y78.766 E.08497
G1 X11.016 Y76.581 E.08725
G1 X11.507 Y75.308 E.04988
G1 X11.873 Y74.155 E.04426
G1 X12.078 Y73.362 E.02994
G1 X12.262 Y72.513 E.03177
G1 X12.431 Y71.576 E.03482
G1 X12.587 Y70.536 E.03846
G1 X12.699 Y69.574 E.03542
G1 X12.776 Y68.625 E.03481
G1 X12.815 Y67.248 E.05038
G1 X12.79 Y66.377 E.03186
G1 X12.685 Y65.125 E.04597
G1 X12.496 Y63.87 E.04641
G1 X12.323 Y63.031 E.03134
G1 X12.113 Y62.2 E.03133
G1 X11.867 Y61.375 E.03151
G1 X11.434 Y60.167 E.04692
G1 X11.093 Y59.35 E.03238
G1 X10.509 Y58.128 E.0495
G1 X10.063 Y57.3 E.03442
G1 X9.574 Y56.467 E.03534
G1 X9.033 Y55.615 E.03687
G1 X8.421 Y54.716 E.03979
G1 X7.71 Y53.729 E.0445
G1 X6.314 Y51.904 E.08402
G1 X7.608 Y50.209 E.07802
G1 X8.35 Y49.179 E.04641
G1 X8.97 Y48.265 E.04038
G1 X9.511 Y47.412 E.03692
G1 X10.039 Y46.51 E.03824
G1 X10.715 Y45.214 E.05345
G1 X11.108 Y44.357 E.03448
G1 X11.453 Y43.511 E.03342
G1 X11.755 Y42.673 E.03259
G1 X12.014 Y41.842 E.0318
G1 X12.234 Y41.008 E.03156
G1 X12.418 Y40.167 E.03148
G1 X12.564 Y39.322 E.03137
G1 X12.673 Y38.475 E.03122
G1 X12.743 Y37.63 E.03103
G1 X12.776 Y36.786 E.03087
G1 X12.757 Y35.525 E.04612
G1 X12.698 Y34.633 E.03269
G1 X12.603 Y33.696 E.03447
G1 X12.465 Y32.689 E.03715
G1 X12.291 Y31.65 E.03852
G1 X12.016 Y30.352 E.04854
G1 X11.69 Y29.173 E.04474
G1 X11.431 Y28.402 E.02973
G1 X11.121 Y27.587 E.03189
G1 X10.364 Y25.821 E.07027
G1 X9.063 Y22.938 E.11568
G1 X21.74 Y8.966 E.68995
G1 X22.98 Y9.902 E.05683
G1 X25.643 Y11.838 E.12039
G1 X27.407 Y13.182 E.08111
G1 X28.055 Y13.63 E.02878
G1 X28.683 Y14.025 E.02714
G1 X29.686 Y14.571 E.04177
G1 X30.346 Y14.872 E.02654
G1 X30.992 Y15.124 E.02536
G1 X31.636 Y15.33 E.0247
G1 X32.568 Y15.553 E.03508
G1 X33.504 Y15.689 E.03458
G1 X34.156 Y15.738 E.02393
G1 X34.824 Y15.752 E.02441
G1 X35.513 Y15.73 E.02521
G1 X36.227 Y15.672 E.0262
G1 X36.974 Y15.576 E.02756
G1 X38.163 Y15.357 E.0442
G1 X39.482 Y15.034 E.04966
G1 X40.872 Y14.611 E.05314
G1 X41.866 Y14.263 E.03851
G1 X42.947 Y13.849 E.04236
G1 X47.622 Y11.901 E.18522
G1 X49.319 Y11.239 E.06662
G1 X51.228 Y10.532 E.07444
G1 X53.466 Y9.737 E.08686
G1 X58.008 Y8.188 E.1755
G1 X60.398 Y7.425 E.09173
G1 X62.239 Y6.905 E.06996
G1 X63.417 Y6.616 E.04438
G1 X65.153 Y6.262 E.06478
G1 X67.041 Y5.958 E.06993
G1 X68.402 Y5.783 E.05018
G1 X70.64 Y5.563 E.08226
G1 X72.057 Y5.468 E.05194
G1 X73.347 Y5.418 E.04722
G1 X75.098 Y5.417 E.06403
G1 X76.197 Y5.462 E.04023
G1 X77.22 Y5.54 E.03752
G1 X78.188 Y5.649 E.03561
G1 X79.563 Y5.871 E.05094
G1 X80.898 Y6.168 E.05004
G1 X81.784 Y6.41 E.03357
G1 X83.125 Y6.845 E.05155
G1 X84.006 Y7.177 E.03442
G1 X85.328 Y7.746 E.05265
G1 X86.19 Y8.164 E.03503
G1 X87.471 Y8.86 E.05332
G1 X88.298 Y9.359 E.03532
G1 X89.514 Y10.17 E.05348
G1 X90.296 Y10.744 E.03546
G1 X91.062 Y11.351 E.03576
G1 X91.809 Y11.987 E.03587
G1 X92.888 Y12.992 E.05391
G1 X93.593 Y13.709 E.03678
G1 X94.599 Y14.829 E.05505
G1 X95.233 Y15.6 E.03652
G1 X96.143 Y16.811 E.0554
G1 X96.711 Y17.641 E.03676
G1 X97.254 Y18.496 E.03705
G1 X97.775 Y19.381 E.03755
G1 X98.519 Y20.778 E.05789
G1 X98.984 Y21.745 E.03923
G1 X99.426 Y22.745 E.04
G1 X99.843 Y23.776 E.04067
G1 X100.234 Y24.838 E.04139
G1 X100.617 Y25.977 E.04393
G1 X101.027 Y27.305 E.05085
G1 X101.798 Y30.011 E.10288
G1 X102.762 Y34.16 E.15577
G1 X103.208 Y36.222 E.07718
G1 X104.295 Y41.598 E.20056
G1 X104.807 Y43.815 E.08324
G1 X105.407 Y46.061 E.085
G1 X105.891 Y47.705 E.06268
G1 X106.467 Y49.543 E.07044
G1 X107.253 Y51.927 E.09183
G1 X106.497 Y54.222 E.08835
G1 X105.908 Y56.099 E.07197
G1 X105.216 Y58.493 E.09114
G1 X104.802 Y60.088 E.06027
G1 X104.29 Y62.332 E.08417
G1 X103.203 Y67.765 E.20261
G1 X102.484 Y71.036 E.12248
G1 X101.836 Y73.809 E.10415
G1 X101.024 Y76.649 E.10803
G1 X100.611 Y77.974 E.05076
G1 X100.233 Y79.089 E.04305
G1 X99.826 Y80.183 E.04271
G1 X99.399 Y81.224 E.04113
G1 X98.947 Y82.233 E.04043
G1 X98.471 Y83.21 E.03974
G1 X97.971 Y84.153 E.03904
G1 X97.45 Y85.06 E.03825
G1 X96.626 Y86.363 E.05638
G1 X95.75 Y87.597 E.05534
G1 X94.813 Y88.781 E.05523
G1 X93.817 Y89.91 E.05505
G1 X92.86 Y90.886 E.05
M204 S3000
G1 X93.144 Y91.165 F18000
M204 S2000
G1 F8867.204
G1 X91.932 Y92.286 E.06039
G1 X90.773 Y93.238 E.05483
G1 X89.575 Y94.118 E.05439
G1 X88.337 Y94.928 E.05411
G1 X87.057 Y95.669 E.05409
G1 X85.743 Y96.336 E.0539
G1 X84.403 Y96.926 E.05352
G1 X83.047 Y97.436 E.05299
G1 X81.682 Y97.863 E.05231
G1 X80.315 Y98.207 E.05155
G1 X79.408 Y98.389 E.03383
G1 X78.497 Y98.535 E.03374
G1 X77.552 Y98.65 E.03481
G1 X76.565 Y98.735 E.03624
G1 X74.988 Y98.804 E.05773
G1 X73.278 Y98.797 E.06254
G1 X71.398 Y98.709 E.06881
G1 X69.288 Y98.529 E.07744
G1 X67.052 Y98.26 E.08235
G1 X65.054 Y97.938 E.07403
G1 X63.243 Y97.563 E.06764
G1 X61.509 Y97.12 E.06544
G1 X59.513 Y96.527 E.07614
G1 X56.591 Y95.562 E.11255
G1 X52.021 Y93.982 E.17684
G1 X49.963 Y93.234 E.08008
G1 X48.192 Y92.558 E.06935
G1 X46.439 Y91.85 E.0691
G1 X42.985 Y90.399 E.13704
G1 X41.87 Y89.968 E.0437
G1 X40.879 Y89.618 E.03844
G1 X39.471 Y89.186 E.05388
G1 X38.075 Y88.843 E.05257
G1 X37.28 Y88.691 E.02959
G1 X36.539 Y88.58 E.0274
G1 X35.429 Y88.482 E.04074
G1 X34.709 Y88.466 E.02635
G1 X34.022 Y88.49 E.02513
G1 X33.362 Y88.551 E.02426
G1 X32.423 Y88.711 E.03484
G1 X31.826 Y88.86 E.02248
G1 X30.959 Y89.146 E.0334
G1 X30.373 Y89.385 E.02315
G1 X29.783 Y89.664 E.02386
G1 X29.186 Y89.984 E.02479
G1 X28.577 Y90.35 E.02597
G1 X27.641 Y90.987 E.04141
G1 X25.704 Y92.459 E.08897
G1 X23.237 Y94.25 E.11149
G1 X21.727 Y95.39 E.0692
G1 X8.63 Y80.956 E.71278
G1 X9.696 Y78.604 E.09443
G1 X10.648 Y76.429 E.08683
G1 X11.131 Y75.176 E.04911
G1 X11.491 Y74.044 E.04343
G1 X11.691 Y73.27 E.02925
G1 X11.872 Y72.436 E.03123
G1 X12.039 Y71.511 E.03435
G1 X12.192 Y70.483 E.03801
G1 X12.304 Y69.535 E.03493
G1 X12.378 Y68.604 E.03417
G1 X12.417 Y67.248 E.04959
G1 X12.393 Y66.4 E.03104
G1 X12.29 Y65.171 E.04509
G1 X12.104 Y63.94 E.04554
G1 X11.935 Y63.12 E.03063
G1 X11.73 Y62.306 E.0307
G1 X11.489 Y61.499 E.03081
G1 X11.063 Y60.311 E.04615
G1 X10.729 Y59.512 E.03164
G1 X10.154 Y58.309 E.04879
G1 X9.716 Y57.495 E.0338
G1 X9.234 Y56.674 E.03481
G1 X8.701 Y55.834 E.03639
G1 X8.095 Y54.944 E.03936
G1 X7.39 Y53.966 E.0441
G1 X5.813 Y51.904 E.09493
G1 X7.289 Y49.972 E.08894
G1 X8.024 Y48.951 E.04601
G1 X8.637 Y48.047 E.03995
G1 X9.171 Y47.205 E.03644
G1 X9.691 Y46.317 E.03763
G1 X10.357 Y45.039 E.05273
G1 X10.743 Y44.199 E.03381
G1 X11.082 Y43.368 E.0328
G1 X11.378 Y42.546 E.03196
G1 X11.631 Y41.732 E.03117
G1 X11.847 Y40.915 E.03092
G1 X12.027 Y40.091 E.03085
G1 X12.171 Y39.263 E.03073
G1 X12.277 Y38.433 E.03058
G1 X12.346 Y37.605 E.03038
G1 X12.378 Y36.782 E.03015
G1 X12.359 Y35.541 E.04536
G1 X12.302 Y34.667 E.03206
G1 X12.207 Y33.743 E.03396
G1 X12.072 Y32.749 E.03669
G1 X11.9 Y31.725 E.03799
G1 X11.63 Y30.446 E.04779
G1 X11.31 Y29.289 E.0439
G1 X11.057 Y28.536 E.02905
G1 X10.752 Y27.736 E.03131
G1 X10 Y25.981 E.06983
G1 X8.593 Y22.864 E.12508
G1 X21.69 Y8.429 E.71279
G1 X23.217 Y9.583 E.06999
G1 X25.88 Y11.519 E.12042
G1 X27.641 Y12.86 E.08094
G1 X28.274 Y13.297 E.02813
G1 X28.884 Y13.681 E.02637
G1 X29.864 Y14.215 E.0408
G1 X30.501 Y14.506 E.02561
G1 X31.125 Y14.748 E.0245
G1 X31.743 Y14.947 E.02371
G1 X32.644 Y15.162 E.03387
G1 X33.548 Y15.294 E.03342
G1 X34.175 Y15.341 E.02302
G1 X34.822 Y15.354 E.02364
G1 X35.49 Y15.333 E.02447
G1 X36.185 Y15.276 E.0255
G1 X36.913 Y15.183 E.02682
G1 X38.079 Y14.968 E.04338
G1 X39.376 Y14.65 E.04884
G1 X40.748 Y14.233 E.05244
G1 X41.729 Y13.89 E.038
G1 X42.8 Y13.48 E.04194
G1 X47.473 Y11.532 E.18517
G1 X49.178 Y10.867 E.06691
